; generated by PrusaSlicer 2.2.0 on 2020-08-17 at 23:04:17 UTC

; 

; external perimeters extrusion width = 0.25mm
; perimeters extrusion width = 0.25mm
; infill extrusion width = 0.25mm
; solid infill extrusion width = 0.25mm
; top infill extrusion width = 0.25mm
; support material extrusion width = 0.20mm
; first layer extrusion width = 0.30mm

M73 P0 R12
M73 Q0 S12
M201 X1000 Y1000 Z200 E5000 ; sets maximum accelerations, mm/sec^2
M203 X200 Y200 Z12 E120 ; sets maximum feedrates, mm/sec
M204 P1250 R1250 T1250 ; sets acceleration (P, T) and retract acceleration (R), mm/sec^2
M205 X8.00 Y8.00 Z0.40 E4.50 ; sets the jerk limits, mm/sec
M205 S0 T0 ; sets the minimum extruding and travel feed rate, mm/sec
M107
M862.3 P "MK3S" ; printer model check
M862.1 P0.25 ; nozzle diameter check
M115 U3.9.0 ; tell printer latest fw version
G90 ; use absolute coordinates
M83 ; extruder relative mode
M104 S215 ; set extruder temp
M140 S60 ; set bed temp
M190 S60 ; wait for bed temp
M109 S215 ; wait for extruder temp
G28 W ; home all without mesh bed level
G80 ; mesh bed leveling
G1 Y-3.0 F1000.0 ; go outside print area
G92 E0.0
G1 X60.0 E9.0 F1000.0 ; intro line
M73 Q0 S12
M73 P0 R12
G1 X100.0 E12.5 F1000.0 ; intro line
G92 E0.0
M221 S95
G21 ; set units to millimeters
G90 ; use absolute coordinates
M83 ; use relative distances for extrusion
M900 K0.06 ; Filament gcode LA 1.5
M900 K30 ; Filament gcode LA 1.0
;BEFORE_LAYER_CHANGE
G92 E0.0
;0.1


G1 E-0.80000 F2100.00000
G1 Z0.600 F10800.000
;AFTER_LAYER_CHANGE
;0.1
G1 X110.884 Y99.115
G1 Z0.100
G1 E0.80000 F2100.00000
M204 S500
G1 F1200.000
G1 X111.474 Y98.333 E0.01134
G1 X111.978 Y97.923 E0.00752
G1 X113.897 Y96.719 E0.02624
G1 X114.660 Y96.414 E0.00951
G1 X115.469 Y96.301 E0.00946
G1 X137.260 Y96.300 E0.25235
G1 X137.880 Y96.358 E0.00721
G1 X138.483 Y96.530 E0.00726
G1 X139.040 Y96.808 E0.00721
G1 X139.541 Y97.185 E0.00726
G1 X139.963 Y97.649 E0.00726
G1 X140.291 Y98.178 E0.00721
G1 X140.517 Y98.758 E0.00721
G1 X140.633 Y99.374 E0.00726
G1 X140.623 Y110.850 E0.13289
G1 X140.432 Y111.626 E0.00925
G1 X140.064 Y112.335 E0.00925
G1 X139.538 Y112.943 E0.00931
G1 X138.888 Y113.407 E0.00925
G1 X138.120 Y113.713 E0.00957
G1 X137.297 Y113.825 E0.00962
G1 X119.406 Y113.825 E0.20718
G1 X114.661 Y113.685 E0.05498
G1 X113.730 Y113.462 E0.01108
G1 X112.903 Y112.990 E0.01103
G1 X111.344 Y111.406 E0.02574
G1 X110.883 Y110.759 E0.00920
G1 X110.586 Y110.022 E0.00920
G1 X110.467 Y109.236 E0.00920
G1 X110.466 Y100.719 E0.09864
G1 X110.542 Y100.033 E0.00800
G1 X110.871 Y99.150 E0.01091
M204 S1000
G1 X111.131 Y99.248 F10800.000
M204 S500
G1 F1200.000
G1 X111.694 Y98.507 E0.01077
G1 X112.145 Y98.145 E0.00671
G1 X114.058 Y96.949 E0.02612
G1 X114.746 Y96.679 E0.00856
G1 X115.479 Y96.579 E0.00856
G1 X137.260 Y96.579 E0.25223
G1 X137.832 Y96.633 E0.00665
G1 X138.389 Y96.792 E0.00671
G1 X138.903 Y97.050 E0.00665
G1 X139.360 Y97.397 E0.00665
G1 X139.746 Y97.823 E0.00665
G1 X140.047 Y98.313 E0.00665
G1 X140.253 Y98.849 E0.00665
G1 X140.358 Y99.419 E0.00671
G1 X140.348 Y110.798 E0.13177
G1 X140.172 Y111.525 E0.00866
G1 X139.830 Y112.185 E0.00861
G1 X139.341 Y112.745 E0.00861
G1 X138.729 Y113.176 E0.00866
G1 X138.028 Y113.449 E0.00871
G1 X137.286 Y113.546 E0.00866
G1 X119.412 Y113.546 E0.20699
G1 X114.691 Y113.408 E0.05469
G1 X113.829 Y113.201 E0.01026
G1 X113.057 Y112.757 E0.01031
G1 X111.545 Y111.213 E0.02502
G1 X111.115 Y110.602 E0.00866
G1 X110.849 Y109.930 E0.00836
G1 X110.745 Y109.215 E0.00836
G1 X110.744 Y100.724 E0.09833
G1 X110.815 Y100.088 E0.00741
G1 X111.118 Y99.283 E0.00997
M204 S1000
G1 X111.906 Y98.690 F10800.000
M204 S500
G1 F1200.000
G1 X114.212 Y97.182 E0.03191
G1 X114.833 Y96.944 E0.00769
G1 X115.491 Y96.858 E0.00769
G1 X137.260 Y96.857 E0.25209
G1 X138.288 Y97.052 E0.01212
G1 X139.179 Y97.609 E0.01217
G1 X139.806 Y98.452 E0.01217
G1 X140.082 Y99.462 E0.01212
G1 X140.074 Y110.748 E0.13070
G1 X139.915 Y111.418 E0.00798
G1 X139.598 Y112.030 E0.00798
G1 X139.141 Y112.551 E0.00803
G1 X138.574 Y112.943 E0.00798
G1 X137.946 Y113.183 E0.00779
G1 X137.279 Y113.268 E0.00779
G1 X119.413 Y113.268 E0.20690
G1 X114.720 Y113.131 E0.05436
G1 X113.922 Y112.939 E0.00951
G1 X113.213 Y112.526 E0.00951
G1 X111.747 Y111.021 E0.02433
G1 X111.347 Y110.445 E0.00812
G1 X111.114 Y109.841 E0.00750
G1 X111.024 Y109.200 E0.00750
G1 X111.023 Y100.725 E0.09813
G1 X111.087 Y100.147 E0.00673
G1 X111.386 Y99.357 E0.00979
G1 X111.883 Y98.719 E0.00936
M204 S1000
G1 X112.102 Y98.893 F10800.000
M204 S500
G1 F1200.000
G1 X114.362 Y97.418 E0.03125
G1 X114.916 Y97.211 E0.00685
G1 X115.498 Y97.136 E0.00680
G1 X137.260 Y97.136 E0.25201
G1 X138.190 Y97.313 E0.01096
G1 X138.995 Y97.818 E0.01101
G1 X139.559 Y98.583 E0.01101
G1 X139.806 Y99.501 E0.01101
G1 X139.799 Y110.700 E0.12970
G1 X139.656 Y111.315 E0.00730
G1 X139.365 Y111.878 E0.00735
G1 X138.947 Y112.350 E0.00730
G1 X138.423 Y112.708 E0.00735
G1 X137.861 Y112.917 E0.00694
G1 X137.270 Y112.989 E0.00689
G1 X119.413 Y112.989 E0.20679
G1 X114.749 Y112.854 E0.05404
G1 X114.018 Y112.677 E0.00871
G1 X113.371 Y112.295 E0.00871
G1 X111.952 Y110.832 E0.02360
G1 X111.584 Y110.296 E0.00753
G1 X111.379 Y109.754 E0.00671
G1 X111.302 Y109.184 E0.00667
G1 X111.301 Y100.730 E0.09789
G1 X111.359 Y100.205 E0.00612
G1 X111.636 Y99.481 E0.00898
G1 X112.079 Y98.922 E0.00825
M204 S1000
G1 F8640.000
G1 X114.362 Y97.418 E-0.63131
G1 X114.884 Y97.223 E-0.12869
G1 E-0.04000 F2100.00000
G1 Z0.700 F10800.000
G1 X111.630 Y100.269
G1 Z0.100
G1 E0.80000 F2100.00000
M204 S500
G1 F1200.000
G1 X111.885 Y99.607 E0.00821
G1 X112.329 Y99.058 E0.00817
G1 X114.510 Y97.655 E0.03003
G1 X114.992 Y97.479 E0.00595
G1 X115.505 Y97.415 E0.00599
G1 X137.259 Y97.414 E0.25192
G1 X138.093 Y97.574 E0.00983
G1 X138.814 Y98.030 E0.00987
G1 X139.314 Y98.716 E0.00983
G1 X139.529 Y99.541 E0.00987
G1 X139.524 Y110.652 E0.12867
G1 X139.397 Y111.211 E0.00663
G1 X139.133 Y111.723 E0.00668
G1 X138.752 Y112.151 E0.00663
G1 X138.276 Y112.470 E0.00663
G1 X137.783 Y112.649 E0.00608
G1 X137.266 Y112.711 E0.00603
G1 X119.414 Y112.711 E0.20673
G1 X114.781 Y112.577 E0.05368
G1 X114.120 Y112.417 E0.00787
G1 X113.532 Y112.068 E0.00792
G1 X112.159 Y110.646 E0.02289
G1 X111.821 Y110.148 E0.00698
G1 X111.646 Y109.673 E0.00586
G1 X111.580 Y109.171 E0.00586
G1 X111.630 Y100.306 E0.10266
M204 S1000
G1 F8640.000
G1 X111.885 Y99.607 E-0.17192
G1 X112.329 Y99.058 E-0.16295
G1 X113.877 Y98.062 E-0.42513
G1 E-0.04000 F2100.00000
G1 Z0.700 F10800.000
G1 X111.070 Y112.954
G1 Z0.100
G1 E0.80000 F2100.00000
M204 S500
G1 F1200.000
G1 X110.833 Y112.789 E0.00335
G1 X110.029 Y111.956 E0.01340
G1 X109.132 Y109.669 E0.02844
G1 X109.147 Y100.182 E0.10987
G1 X109.398 Y99.124 E0.01260
G1 X110.004 Y98.005 E0.01474
G1 X110.872 Y97.107 E0.01446
G1 X112.133 Y96.433 E0.01656
G1 X112.773 Y95.828 E0.01020
G1 X113.918 Y95.228 E0.01497
G1 X114.915 Y94.996 E0.01186
G1 X116.119 Y94.979 E0.01394
G1 X116.350 Y94.958 E0.00269
G1 X137.695 Y94.958 E0.24718
G1 X139.173 Y95.361 E0.01774
G1 X140.102 Y95.900 E0.01244
G1 X141.276 Y97.154 E0.01989
G1 X141.527 Y97.651 E0.00644
G1 X141.991 Y99.223 E0.01899
G1 X141.991 Y110.962 E0.13593
G1 X141.120 Y113.181 E0.02761
G1 X140.291 Y114.026 E0.01371
G1 X139.276 Y114.652 E0.01381
G1 X138.211 Y114.972 E0.01288
G1 X137.005 Y115.042 E0.01398
G1 X122.477 Y115.042 E0.16824
G1 X122.275 Y115.024 E0.00235
G1 X119.689 Y115.042 E0.02995
G1 X119.489 Y115.024 E0.00233
G1 X118.129 Y115.043 E0.01575
G1 X114.499 Y115.042 E0.04204
G1 X112.204 Y114.174 E0.02842
G1 X111.343 Y113.360 E0.01372
G1 X111.091 Y112.985 E0.00523
M204 S1000
G1 X111.272 Y112.755 F10800.000
M204 S500
G1 F1200.000
G1 X111.023 Y112.584 E0.00349
G1 X110.249 Y111.782 E0.01291
G1 X109.410 Y109.644 E0.02660
G1 X109.425 Y100.199 E0.10937
G1 X109.665 Y99.207 E0.01181
G1 X110.239 Y98.155 E0.01388
G1 X111.056 Y97.318 E0.01355
G1 X112.298 Y96.662 E0.01627
G1 X112.920 Y96.065 E0.00998
G1 X114.031 Y95.483 E0.01453
G1 X114.934 Y95.274 E0.01073
G1 X116.134 Y95.258 E0.01390
G1 X116.357 Y95.236 E0.00259
G1 X137.676 Y95.236 E0.24688
G1 X139.082 Y95.624 E0.01689
G1 X139.914 Y96.106 E0.01113
G1 X141.037 Y97.299 E0.01898
G1 X141.263 Y97.743 E0.00577
G1 X141.712 Y99.244 E0.01814
G1 X141.712 Y110.936 E0.13540
G1 X140.901 Y113.006 E0.02575
G1 X140.104 Y113.818 E0.01318
G1 X139.147 Y114.405 E0.01301
G1 X138.179 Y114.695 E0.01170
G1 X136.993 Y114.764 E0.01375
G1 X122.484 Y114.764 E0.16802
G1 X122.286 Y114.745 E0.00230
G1 X120.913 Y114.765 E0.01591
G1 X119.697 Y114.764 E0.01408
G1 X119.501 Y114.745 E0.00228
G1 X118.128 Y114.765 E0.01589
G1 X114.524 Y114.764 E0.04174
G1 X112.375 Y113.953 E0.02660
G1 X111.547 Y113.169 E0.01321
G1 X111.293 Y112.786 E0.00532
M204 S1000
G1 X111.474 Y112.554 F10800.000
M204 S500
G1 F1200.000
G1 X111.213 Y112.380 E0.00364
G1 X110.469 Y111.609 E0.01240
G1 X109.680 Y109.568 E0.02534
G1 X109.704 Y100.216 E0.10830
G1 X109.918 Y99.324 E0.01063
G1 X110.452 Y98.336 E0.01300
G1 X111.239 Y97.528 E0.01306
G1 X112.463 Y96.890 E0.01598
G1 X113.067 Y96.302 E0.00976
G1 X114.144 Y95.738 E0.01408
G1 X114.952 Y95.552 E0.00960
G1 X116.150 Y95.536 E0.01388
G1 X116.364 Y95.515 E0.00249
G1 X137.657 Y95.515 E0.24658
G1 X138.990 Y95.888 E0.01603
G1 X139.726 Y96.312 E0.00984
G1 X140.799 Y97.445 E0.01807
G1 X141.001 Y97.836 E0.00511
G1 X141.434 Y99.265 E0.01728
G1 X141.434 Y110.910 E0.13485
G1 X140.682 Y112.832 E0.02390
G1 X139.943 Y113.590 E0.01226
G1 X139.017 Y114.158 E0.01259
G1 X138.118 Y114.422 E0.01085
G1 X137.236 Y114.458 E0.01022
G1 X136.983 Y114.485 E0.00295
G1 X122.491 Y114.485 E0.16782
G1 X122.298 Y114.466 E0.00225
G1 X120.912 Y114.486 E0.01605
G1 X119.704 Y114.485 E0.01399
G1 X119.512 Y114.466 E0.00223
G1 X118.127 Y114.486 E0.01604
G1 X114.549 Y114.485 E0.04144
G1 X112.546 Y113.732 E0.02478
G1 X111.751 Y112.978 E0.01269
G1 X111.495 Y112.586 E0.00542
M204 S1000
G1 X111.676 Y112.353 F10800.000
M204 S500
G1 F1200.000
G1 X111.402 Y112.174 E0.00380
G1 X110.689 Y111.436 E0.01189
G1 X109.958 Y109.543 E0.02350
G1 X109.982 Y100.233 E0.10781
G1 X110.172 Y99.440 E0.00944
G1 X110.688 Y98.486 E0.01256
G1 X111.422 Y97.740 E0.01212
G1 X112.629 Y97.118 E0.01572
G1 X113.215 Y96.539 E0.00954
G1 X114.257 Y95.993 E0.01363
G1 X114.971 Y95.831 E0.00847
G1 X116.167 Y95.814 E0.01385
G1 X116.371 Y95.793 E0.00238
G1 X137.637 Y95.793 E0.24627
G1 X138.897 Y96.151 E0.01517
G1 X139.538 Y96.519 E0.00856
G1 X140.561 Y97.591 E0.01716
G1 X140.739 Y97.931 E0.00444
G1 X141.155 Y99.286 E0.01641
G1 X141.155 Y110.884 E0.13431
G1 X140.463 Y112.657 E0.02205
G1 X139.756 Y113.383 E0.01173
G1 X138.889 Y113.910 E0.01176
G1 X138.058 Y114.150 E0.01001
G1 X137.216 Y114.180 E0.00975
G1 X136.975 Y114.207 E0.00281
G1 X122.498 Y114.207 E0.16764
G1 X122.310 Y114.188 E0.00219
G1 X120.911 Y114.208 E0.01621
G1 X119.712 Y114.207 E0.01389
G1 X119.525 Y114.188 E0.00217
G1 X118.127 Y114.208 E0.01619
G1 X114.574 Y114.207 E0.04113
G1 X112.718 Y113.510 E0.02297
G1 X111.955 Y112.788 E0.01217
G1 X111.697 Y112.385 E0.00554
M204 S1000
G1 F8640.000
G1 X111.402 Y112.174 E-0.08367
G1 X110.689 Y111.436 E-0.23706
G1 X110.004 Y109.661 E-0.43927
G1 E-0.04000 F2100.00000
G1 Z0.700 F10800.000
G1 X138.804 Y96.414
G1 Z0.100
G1 E0.80000 F2100.00000
M204 S500
G1 F1200.000
G1 X139.352 Y96.727 E0.00730
G1 X140.325 Y97.739 E0.01626
G1 X140.477 Y98.027 E0.00377
G1 X140.877 Y99.307 E0.01553
G1 X140.877 Y110.858 E0.13376
G1 X140.570 Y111.644 E0.00977
M204 S1000
G1 X140.545 Y111.710 F10800.000
M204 S500
G1 F1200.000
G1 X140.244 Y112.483 E0.00961
G1 X139.569 Y113.175 E0.01119
G1 X138.762 Y113.662 E0.01092
G1 X138.293 Y113.794 E0.00563
M204 S1000
G1 X138.047 Y113.864 F10800.000
M204 S500
G1 F1200.000
G1 X137.933 Y113.879 E0.00133
M204 S1000
G1 F8640.000
G1 X138.047 Y113.864 E-0.02649
G1 E-0.77351 F2100.00000
G1 Z0.700 F10800.000
G1 X138.804 Y96.414
G1 Z0.100
G1 E0.80000 F2100.00000
M204 S500
G1 F1200.000
G1 X137.617 Y96.072 E0.01430
G1 X116.379 Y96.072 E0.24595
G1 X116.184 Y96.093 E0.00227
G1 X114.989 Y96.109 E0.01384
G1 X114.370 Y96.249 E0.00734
G1 X113.363 Y96.776 E0.01316
G1 X113.062 Y97.078 E0.00495
M204 S1000
G1 F8640.000
G1 X113.363 Y96.776 E-0.09867
G1 X114.370 Y96.249 E-0.26242
G1 X114.989 Y96.109 E-0.14640
G1 X116.082 Y96.094 E-0.25251
G1 E-0.04000 F2100.00000
G1 Z0.700 F10800.000
G1 X111.971 Y97.762
G1 Z0.100
G1 E0.80000 F2100.00000
M204 S500
G1 F1200.000
G1 X111.605 Y97.951 E0.00477
G1 X110.900 Y98.667 E0.01163
G1 X110.426 Y99.555 E0.01166
G1 X110.261 Y100.250 E0.00827
G1 X110.237 Y109.518 E0.10733
G1 X110.909 Y111.262 E0.02165
G1 X111.590 Y111.968 E0.01136
G1 X111.879 Y112.151 E0.00396
G1 X112.159 Y112.598 E0.00611
G1 X112.889 Y113.288 E0.01163
G1 X113.634 Y113.567 E0.00922
M204 S1000
G1 X113.743 Y113.608 F10800.000
M204 S500
G1 F1200.000
G1 X114.599 Y113.928 E0.01059
G1 X118.184 Y113.928 E0.04151
M204 S1000
G1 F8640.000
G1 X114.892 Y113.928 E-0.76000
G1 E-0.04000 F2100.00000
G1 Z0.700 F10800.000
G1 X118.171 Y112.536
G1 Z0.100
G1 E0.80000 F2100.00000
M204 S500
G1 F1200.000
G1 X119.615 Y112.515 E0.01672
G1 X119.765 Y112.535 E0.00175
G1 X122.401 Y112.515 E0.03052
G1 X122.551 Y112.535 E0.00175
G1 X136.920 Y112.535 E0.16640
G1 X137.090 Y112.511 E0.00199
G1 X137.795 Y112.496 E0.00816
M204 S1000
G1 F8640.000
G1 X137.090 Y112.511 E-0.16276
G1 X136.920 Y112.535 E-0.03971
G1 X134.506 Y112.535 E-0.55753
G1 E-0.04000 F2100.00000
G1 Z0.700 F10800.000
G1 X113.001 Y111.317
G1 Z0.100
G1 E0.80000 F2100.00000
M204 S500
G1 F1200.000
G1 X112.892 Y111.123 E0.00258
G1 X112.731 Y111.038 E0.00211
M204 S1000
G1 F8640.000
G1 X112.892 Y111.123 E-0.04210
G1 X113.001 Y111.317 E-0.05139
G1 E-0.70651 F2100.00000
G1 Z0.700 F10800.000
G1 X113.027 Y98.774
G1 Z0.100
G1 E0.80000 F2100.00000
M204 S500
G1 F1200.000
G1 X113.174 Y98.705 E0.00188
G1 X113.551 Y98.672 E0.00439
G1 X113.661 Y98.452 E0.00284
G1 X113.860 Y98.238 E0.00339
M204 S1000
G1 X113.738 Y98.942 F10800.000
M204 S500
G1 F1200.000
G1 X113.882 Y98.624 E0.00405
G1 X114.337 Y98.136 E0.00772
G1 X115.003 Y97.797 E0.00865
G1 X115.091 Y97.779 E0.00105
G1 X116.304 Y97.763 E0.01405
G1 X116.435 Y97.743 E0.00153
G1 X137.489 Y97.743 E0.24382
G1 X138.224 Y97.983 E0.00895
G1 X138.303 Y98.029 E0.00106
G1 X138.932 Y98.673 E0.01043
G1 X139.206 Y99.445 E0.00948
G1 X139.206 Y110.704 E0.13038
G1 X138.921 Y111.448 E0.00923
G1 X138.501 Y111.889 E0.00705
G1 X138.018 Y112.161 E0.00643
G1 X137.799 Y112.218 E0.00262
G1 X137.066 Y112.233 E0.00849
G1 X136.909 Y112.257 E0.00184
G1 X122.561 Y112.257 E0.16615
G1 X122.420 Y112.236 E0.00166
G1 X119.776 Y112.257 E0.03062
G1 X119.634 Y112.236 E0.00166
G1 X118.120 Y112.258 E0.01754
G1 X114.746 Y112.257 E0.03907
G1 X113.913 Y111.957 E0.01025
G1 X113.399 Y111.470 E0.00821
G1 X113.095 Y110.912 E0.00735
G1 X112.703 Y110.715 E0.00509
G1 X112.229 Y110.224 E0.00789
G1 X111.908 Y109.369 E0.01058
G1 X111.932 Y100.348 E0.10447
G1 X111.959 Y100.228 E0.00143
G1 X112.250 Y99.654 E0.00745
G1 X112.681 Y99.237 E0.00694
G1 X113.263 Y98.970 E0.00742
G1 X113.700 Y98.944 E0.00507
M204 S1000
G1 F8640.000
G1 X113.882 Y98.624 E-0.08512
G1 X114.337 Y98.136 E-0.15402
G1 X115.003 Y97.797 E-0.17243
G1 X115.091 Y97.779 E-0.02091
G1 X116.304 Y97.763 E-0.28010
G1 X116.435 Y97.743 E-0.03051
G1 X116.508 Y97.743 E-0.01691
G1 E-0.04000 F2100.00000
G1 Z0.700 F10800.000
G1 X113.348 Y110.723
G1 Z0.100
G1 E0.80000 F2100.00000
M204 S500
G1 F1200.000
G1 X112.885 Y110.502 E0.00595
G1 X112.450 Y110.052 E0.00725
G1 X112.187 Y109.345 E0.00873
G1 X112.210 Y100.364 E0.10400
G1 X112.461 Y99.837 E0.00676
G1 X112.856 Y99.455 E0.00636
G1 X113.349 Y99.237 E0.00625
G1 X113.928 Y99.216 E0.00670
G1 X114.104 Y98.794 E0.00530
G1 X114.523 Y98.344 E0.00712
G1 X115.083 Y98.064 E0.00725
G1 X116.330 Y98.041 E0.01443
G1 X116.447 Y98.022 E0.00138
G1 X137.466 Y98.022 E0.24341
G1 X138.142 Y98.256 E0.00828
G1 X138.682 Y98.799 E0.00886
G1 X138.927 Y99.470 E0.00828
G1 X138.927 Y110.679 E0.12980
M73 Q8 S11
G1 X138.700 Y111.276 E0.00740
G1 X138.315 Y111.680 E0.00646
G1 X137.900 Y111.908 E0.00549
G1 X137.777 Y111.940 E0.00146
G1 X137.040 Y111.955 E0.00854
G1 X136.897 Y111.978 E0.00167
G1 X122.573 Y111.978 E0.16587
M73 P8 R11
G1 X122.441 Y111.957 E0.00156
G1 X120.904 Y111.979 E0.01779
