; generated by PrusaSlicer 2.2.0 on 2020-07-24 at 00:22:17 UTC

; 

; external perimeters extrusion width = 0.25mm
; perimeters extrusion width = 0.25mm
; infill extrusion width = 0.25mm
; solid infill extrusion width = 0.25mm
; top infill extrusion width = 0.25mm
; first layer extrusion width = 0.30mm

M73 P0 R62
M73 Q0 S63
M201 X1000 Y1000 Z200 E5000 ; sets maximum accelerations, mm/sec^2
M203 X200 Y200 Z12 E120 ; sets maximum feedrates, mm/sec
M204 P1250 R1250 T1250 ; sets acceleration (P, T) and retract acceleration (R), mm/sec^2
M205 X8.00 Y8.00 Z0.40 E4.50 ; sets the jerk limits, mm/sec
M205 S0 T0 ; sets the minimum extruding and travel feed rate, mm/sec
M107
M862.3 P "MK3S" ; printer model check
M862.1 P0.25 ; nozzle diameter check
M115 U3.9.0 ; tell printer latest fw version
G90 ; use absolute coordinates
M83 ; extruder relative mode
M104 S215 ; set extruder temp
M140 S60 ; set bed temp
M190 S60 ; wait for bed temp
M109 S215 ; wait for extruder temp
G28 W ; home all without mesh bed level
G80 ; mesh bed leveling
G1 Y-3.0 F1000.0 ; go outside print area
G92 E0.0
G1 X60.0 E9.0 F1000.0 ; intro line
M73 Q0 S62
M73 P0 R62
G1 X100.0 E12.5 F1000.0 ; intro line
G92 E0.0
M221 S95
G21 ; set units to millimeters
G90 ; use absolute coordinates
M83 ; use relative distances for extrusion
M900 K0.06 ; Filament gcode LA 1.5
M900 K30 ; Filament gcode LA 1.0
;BEFORE_LAYER_CHANGE
G92 E0.0
;0.1


G1 E-0.80000 F2100.00000
G1 Z0.600 F10800.000
;AFTER_LAYER_CHANGE
;0.1
G1 X92.422 Y89.222
G1 Z0.100
G1 E0.80000 F2100.00000
M204 S500
G1 F1200.000
G1 X92.754 Y88.548 E0.00871
G1 X93.140 Y88.106 E0.00680
G1 X93.618 Y87.764 E0.00680
G1 X94.161 Y87.540 E0.00680
G1 X94.741 Y87.446 E0.00680
G1 X117.145 Y87.443 E0.25945
G1 X117.748 Y87.516 E0.00703
G1 X158.428 Y97.526 E0.48514
G1 X158.997 Y97.735 E0.00703
G1 X159.500 Y98.055 E0.00691
G1 X159.935 Y98.488 E0.00710
G1 X160.266 Y99.005 E0.00711
G1 X160.475 Y99.579 E0.00707
G1 X160.557 Y100.203 E0.00729
G1 X160.556 Y119.825 E0.22723
G1 X160.388 Y120.708 E0.01041
G1 X159.945 Y121.499 E0.01050
G1 X159.508 Y121.939 E0.00718
G1 X158.981 Y122.273 E0.00722
G1 X158.391 Y122.483 E0.00725
G1 X157.769 Y122.557 E0.00725
G1 X94.834 Y122.557 E0.72881
G1 X94.002 Y122.409 E0.00979
G1 X93.266 Y122.001 E0.00975
G1 X92.866 Y121.604 E0.00653
G1 X92.563 Y121.128 E0.00653
G1 X92.372 Y120.598 E0.00653
G1 X92.301 Y120.038 E0.00653
G1 X92.301 Y89.964 E0.34827
G1 X92.416 Y89.259 E0.00827
M204 S1000
G1 X92.689 Y89.304 F10800.000
M204 S500
G1 F1200.000
G1 X92.987 Y88.700 E0.00780
G1 X93.334 Y88.306 E0.00608
G1 X93.762 Y88.003 E0.00608
G1 X94.248 Y87.805 E0.00608
G1 X94.766 Y87.723 E0.00608
G1 X117.145 Y87.721 E0.25916
G1 X117.680 Y87.786 E0.00625
G1 X158.357 Y97.795 E0.48510
G1 X158.864 Y97.980 E0.00626
G1 X159.314 Y98.264 E0.00616
G1 X159.708 Y98.651 E0.00640
G1 X160.016 Y99.128 E0.00658
G1 X160.206 Y99.649 E0.00642
G1 X160.278 Y100.199 E0.00643
G1 X160.278 Y119.810 E0.22710
G1 X160.130 Y120.605 E0.00937
G1 X159.734 Y121.317 E0.00944
G1 X159.340 Y121.716 E0.00649
G1 X158.865 Y122.019 E0.00653
G1 X158.327 Y122.212 E0.00662
G1 X157.767 Y122.278 E0.00653
G1 X94.839 Y122.278 E0.72872
G1 X94.101 Y122.149 E0.00868
G1 X93.447 Y121.789 E0.00864
G1 X93.089 Y121.436 E0.00582
G1 X92.816 Y121.011 E0.00586
G1 X92.643 Y120.535 E0.00586
G1 X92.580 Y120.033 E0.00586
G1 X92.580 Y89.970 E0.34813
G1 X92.683 Y89.341 E0.00738
M204 S1000
G1 F8640.000
G1 X92.987 Y88.700 E-0.16384
G1 X93.334 Y88.306 E-0.12114
G1 X93.762 Y88.003 E-0.12114
G1 X94.248 Y87.805 E-0.12114
G1 X94.766 Y87.723 E-0.12114
G1 X95.249 Y87.723 E-0.11158
G1 E-0.04000 F2100.00000
G1 Z0.700 F10800.000
G1 X151.557 Y96.266
G1 Z0.100
G1 E0.80000 F2100.00000
M204 S500
G1 F1200.000
G1 X150.773 Y96.864 E0.01142
G1 X150.015 Y97.894 E0.01481
G1 X149.538 Y99.097 E0.01499
G1 X149.426 Y120.165 E0.24398
G1 X149.712 Y121.464 E0.01540
G1 X150.034 Y122.139 E0.00867
M204 S1000
G1 X150.400 Y122.696 F10800.000
M204 S500
G1 F1200.000
G1 X150.457 Y122.783 E0.00121
G1 X151.624 Y123.809 E0.01800
G1 X153.060 Y124.398 E0.01797
G1 X159.080 Y124.370 E0.06971
G1 X160.245 Y123.885 E0.01461
G1 X161.225 Y123.138 E0.01427
G1 X161.984 Y122.108 E0.01481
G1 X162.461 Y120.905 E0.01500
G1 X162.570 Y99.804 E0.24436
G1 X162.176 Y98.276 E0.01827
G1 X161.323 Y96.965 E0.01811
G1 X160.299 Y96.136 E0.01526
G1 X159.552 Y95.784 E0.00956
M204 S1000
M204 S500
G1 X158.770 Y95.565 E0.00941
G1 X152.916 Y95.631 E0.06779
G1 X152.319 Y95.880 E0.00749
M204 S1000
G1 X152.773 Y95.991 F10800.000
M204 S500
G1 F1200.000
G1 X152.998 Y95.898 E0.00281
G1 X158.714 Y95.838 E0.06620
M204 S1000
M204 S500
G1 X159.465 Y96.049 E0.00904
G1 X160.164 Y96.381 E0.00896
G1 X161.130 Y97.167 E0.01442
G1 X161.929 Y98.408 E0.01709
G1 X162.296 Y99.855 E0.01729
G1 X162.183 Y120.876 E0.24343
G1 X161.732 Y121.987 E0.01388
G1 X161.014 Y122.955 E0.01397
G1 X160.092 Y123.652 E0.01338
G1 X158.999 Y124.103 E0.01369
G1 X153.141 Y124.129 E0.06785
G1 X151.752 Y123.560 E0.01738
G1 X150.772 Y122.696 E0.01513
M204 S1000
G1 X150.367 Y122.139 F10800.000
M204 S500
G1 F1200.000
G1 X150.273 Y121.996 E0.00199
G1 X149.970 Y121.359 E0.00816
G1 X149.702 Y120.121 E0.01467
G1 X149.816 Y99.125 E0.24314
G1 X150.266 Y98.015 E0.01387
G1 X150.985 Y97.046 E0.01397
G1 X151.904 Y96.351 E0.01334
M204 S1000
G1 X152.354 Y96.462 F10800.000
M204 S500
G1 F1200.000
G1 X152.060 Y96.582 E0.00368
G1 X151.169 Y97.256 E0.01294
G1 X150.501 Y98.165 E0.01307
G1 X150.085 Y99.204 E0.01296
G1 X149.977 Y120.078 E0.24172
G1 X150.229 Y121.255 E0.01394
G1 X150.512 Y121.852 E0.00766
G1 X150.698 Y122.139 E0.00395
M204 S1000
G1 X151.189 Y122.696 F10800.000
M204 S500
G1 F1200.000
G1 X151.881 Y123.313 E0.01073
G1 X153.168 Y123.851 E0.01615
G1 X158.919 Y123.835 E0.06660
G1 X159.939 Y123.419 E0.01275
G1 X160.829 Y122.746 E0.01293
G1 X161.497 Y121.836 E0.01306
G1 X161.915 Y120.797 E0.01297
G1 X162.021 Y99.905 E0.24194
G1 X161.682 Y98.538 E0.01632
G1 X160.936 Y97.368 E0.01607
G1 X160.030 Y96.625 E0.01357
G1 X159.357 Y96.306 E0.00862
M204 S1000
M204 S500
G1 X158.658 Y96.112 E0.00840
G1 X153.469 Y96.163 E0.06009
M204 S1000
G1 X152.814 Y96.575 F10800.000
M204 S500
G1 F1200.000
G1 X152.183 Y96.833 E0.00790
G1 X151.355 Y97.465 E0.01206
G1 X150.737 Y98.314 E0.01216
G1 X150.353 Y99.282 E0.01206
G1 X150.253 Y120.035 E0.24032
G1 X150.488 Y121.150 E0.01320
G1 X150.760 Y121.725 E0.00736
G1 X151.029 Y122.139 E0.00572
M204 S1000
G1 X151.605 Y122.696 F10800.000
M204 S500
G1 F1200.000
G1 X152.048 Y123.088 E0.00685
G1 X153.249 Y123.583 E0.01504
G1 X158.840 Y123.566 E0.06475
G1 X159.787 Y123.185 E0.01182
G1 X160.618 Y122.563 E0.01202
G1 X161.246 Y121.716 E0.01221
G1 X161.646 Y120.718 E0.01245
G1 X161.747 Y99.954 E0.24045
G1 X161.435 Y98.668 E0.01533
G1 X160.713 Y97.537 E0.01554
G1 X159.895 Y96.869 E0.01223
G1 X159.271 Y96.571 E0.00801
G1 X158.602 Y96.386 E0.00803
M204 S1000
M204 S500
G1 X154.524 Y96.422 E0.04723
M204 S1000
G1 F8640.000
G1 X157.815 Y96.393 E-0.76000
G1 E-0.04000 F2100.00000
G1 Z0.700 F10800.000
G1 X155.586 Y96.683
G1 Z0.100
G1 E0.80000 F2100.00000
M204 S500
G1 F1200.000
G1 X158.547 Y96.659 E0.03430
G1 X159.162 Y96.828 E0.00738
M204 S1000
M204 S500
G1 X159.759 Y97.113 E0.00766
G1 X160.518 Y97.737 E0.01138
G1 X161.186 Y98.796 E0.01450
G1 X161.472 Y100.002 E0.01435
G1 X161.378 Y120.640 E0.23899
G1 X161.010 Y121.566 E0.01154
G1 X160.433 Y122.353 E0.01130
G1 X159.665 Y122.933 E0.01114
G1 X158.761 Y123.298 E0.01130
G1 X153.328 Y123.314 E0.06292
G1 X152.213 Y122.863 E0.01392
G1 X152.023 Y122.696 E0.00293
M204 S1000
G1 X151.388 Y122.139 F10800.000
M204 S500
G1 F1200.000
G1 X151.326 Y122.084 E0.00096
G1 X150.999 Y121.581 E0.00695
G1 X150.747 Y121.047 E0.00684
G1 X150.528 Y119.993 E0.01247
G1 X150.622 Y99.361 E0.23893
G1 X150.990 Y98.434 E0.01155
G1 X151.567 Y97.646 E0.01131
G1 X152.335 Y97.066 E0.01115
G1 X153.238 Y96.702 E0.01127
G1 X153.329 Y96.702 E0.00105
M204 S1000
G1 F8640.000
G1 X153.238 Y96.702 E-0.02096
G1 X152.335 Y97.066 E-0.22481
G1 X151.567 Y97.646 E-0.22225
G1 X150.990 Y98.434 E-0.22553
G1 X150.883 Y98.701 E-0.06645
G1 E-0.04000 F2100.00000
G1 Z0.700 F10800.000
G1 X154.391 Y96.963
G1 Z0.100
G1 E0.80000 F2100.00000
M204 S500
G1 F1200.000
G1 X153.317 Y96.971 E0.01244
G1 X152.486 Y97.301 E0.01035
G1 X151.779 Y97.828 E0.01021
G1 X151.225 Y98.584 E0.01085
G1 X150.891 Y99.438 E0.01063
G1 X150.804 Y119.951 E0.23755
G1 X151.006 Y120.943 E0.01172
G1 X151.247 Y121.453 E0.00653
G1 X151.549 Y121.916 E0.00640
G1 X151.802 Y122.139 E0.00390
M204 S1000
G1 X152.537 Y122.696 F10800.000
M204 S500
G1 F1200.000
G1 X153.356 Y123.036 E0.01026
G1 X158.683 Y123.029 E0.06169
G1 X159.514 Y122.699 E0.01036
G1 X160.221 Y122.172 E0.01021
G1 X160.775 Y121.416 E0.01084
G1 X161.109 Y120.562 E0.01062
G1 X161.197 Y100.048 E0.23756
G1 X160.937 Y98.923 E0.01337
G1 X160.323 Y97.937 E0.01346
G1 X159.623 Y97.356 E0.01053
G1 X159.076 Y97.093 E0.00703
G1 X158.492 Y96.933 E0.00701
M204 S1000
M204 S500
G1 X156.655 Y96.946 E0.02127
M204 S1000
G1 F8640.000
G1 X158.492 Y96.933 E-0.42420
G1 E-0.37580 F2100.00000
G1 Z0.700 F10800.000
G1 X157.731 Y97.211
G1 Z0.100
G1 E0.80000 F2100.00000
M204 S500
G1 F1200.000
G1 X158.437 Y97.207 E0.00817
G1 X158.989 Y97.359 E0.00664
M204 S1000
M204 S500
G1 X159.485 Y97.599 E0.00638
G1 X160.126 Y98.136 E0.00968
G1 X160.688 Y99.049 E0.01241
G1 X160.922 Y100.093 E0.01240
G1 X160.831 Y120.534 E0.23671
G1 X160.523 Y121.295 E0.00950
G1 X160.010 Y121.989 E0.00999
G1 X159.365 Y122.463 E0.00928
G1 X158.606 Y122.761 E0.00944
G1 X153.435 Y122.768 E0.05988
G1 X153.260 Y122.696 E0.00219
M204 S1000
G1 F8640.000
G1 X153.435 Y122.768 E-0.04376
G1 X156.537 Y122.763 E-0.71624
G1 E-0.04000 F2100.00000
G1 Z0.700 F10800.000
G1 X152.220 Y122.139
G1 Z0.100
G1 E0.80000 F2100.00000
M204 S500
G1 F1200.000
G1 X151.771 Y121.748 E0.00690
G1 X151.485 Y121.310 E0.00606
G1 X151.266 Y120.841 E0.00599
G1 X151.080 Y119.911 E0.01098
G1 X151.169 Y99.467 E0.23675
G1 X151.476 Y98.705 E0.00951
G1 X151.990 Y98.011 E0.01000
G1 X152.636 Y97.537 E0.00928
G1 X153.394 Y97.240 E0.00943
G1 X155.460 Y97.226 E0.02393
M204 S1000
G1 F8640.000
G1 X153.394 Y97.240 E-0.47705
G1 X152.636 Y97.537 E-0.18803
G1 X152.305 Y97.780 E-0.09493
G1 E-0.04000 F2100.00000
G1 Z0.700 F10800.000
G1 X152.643 Y122.139
G1 Z0.100
G1 E0.80000 F2100.00000
M204 S500
G1 F1200.000
G1 X151.993 Y121.578 E0.00994
G1 X151.733 Y121.182 E0.00549
G1 X151.525 Y120.739 E0.00567
G1 X151.356 Y119.871 E0.01023
G1 X151.437 Y99.545 E0.23539
G1 X151.712 Y98.854 E0.00861
G1 X152.173 Y98.222 E0.00905
G1 X152.785 Y97.772 E0.00881
G1 X153.470 Y97.509 E0.00850
G1 X156.537 Y97.491 E0.03551
M204 S1000
G1 F8640.000
G1 X153.470 Y97.509 E-0.70807
G1 X153.260 Y97.589 E-0.05193
G1 E-0.04000 F2100.00000
G1 Z0.700 F10800.000
G1 X153.343 Y122.139
G1 Z0.100
G1 E0.80000 F2100.00000
M204 S500
G1 F1200.000
G1 X152.798 Y121.915 E0.00683
G1 X152.215 Y121.410 E0.00893
G1 X151.972 Y121.038 E0.00515
G1 X151.785 Y120.637 E0.00512
G1 X151.632 Y119.833 E0.00948
G1 X151.706 Y99.623 E0.23403
G1 X151.964 Y98.974 E0.00809
G1 X152.383 Y98.406 E0.00818
G1 X152.933 Y98.009 E0.00785
G1 X153.545 Y97.778 E0.00758
G1 X157.620 Y97.758 E0.04720
M204 S1000
G1 F8640.000
G1 X154.329 Y97.774 E-0.76000
G1 E-0.04000 F2100.00000
G1 Z0.700 F10800.000
G1 X159.506 Y98.696
G1 Z0.100
G1 E0.80000 F2100.00000
M204 S500
G1 F1200.000
G1 X159.920 Y99.379 E0.00925
G1 X160.089 Y100.166 E0.00931
G1 X160.025 Y120.300 E0.23317
G1 X159.799 Y120.878 E0.00718
G1 X159.434 Y121.383 E0.00722
G1 X158.951 Y121.737 E0.00693
G1 X158.380 Y121.953 E0.00707
G1 X153.620 Y121.952 E0.05513
G1 X152.961 Y121.688 E0.00822
G1 X152.437 Y121.239 E0.00799
G1 X152.220 Y120.911 E0.00456
G1 X152.045 Y120.536 E0.00479
G1 X151.911 Y119.821 E0.00843
G1 X151.975 Y99.700 E0.23300
G1 X152.201 Y99.122 E0.00719
G1 X152.566 Y98.617 E0.00722
G1 X153.049 Y98.263 E0.00693
G1 X153.620 Y98.047 E0.00707
G1 X158.274 Y98.028 E0.05390
G1 X158.684 Y98.136 E0.00490
G1 X159.071 Y98.327 E0.00500
G1 X159.477 Y98.672 E0.00617
M204 S1000
G1 X159.653 Y99.463 F10800.000
M204 S500
G1 F1200.000
G1 X159.810 Y100.180 E0.00850
G1 X159.756 Y120.223 E0.23210
G1 X159.546 Y120.759 E0.00667
G1 X159.223 Y121.200 E0.00634
G1 X158.835 Y121.483 E0.00555
G1 X158.305 Y121.683 E0.00656
G1 X153.696 Y121.683 E0.05338
G1 X153.122 Y121.459 E0.00714
G1 X152.658 Y121.068 E0.00703
G1 X152.458 Y120.767 E0.00419
G1 X152.306 Y120.435 E0.00422
G1 X152.189 Y119.808 E0.00738
G1 X152.244 Y99.778 E0.23196
M73 Q1 S61
G1 X152.453 Y99.241 E0.00667
M73 P1 R61
G1 X152.778 Y98.799 E0.00634
G1 X153.165 Y98.517 E0.00555
G1 X153.695 Y98.317 E0.00656
G1 X158.221 Y98.302 E0.05241
G1 X158.598 Y98.402 E0.00452
G1 X158.932 Y98.568 E0.00432
G1 X159.281 Y98.862 E0.00529
G1 X159.633 Y99.431 E0.00775
M204 S1000
G1 X159.396 Y99.575 F10800.000
M204 S500
G1 F1200.000
G1 X159.532 Y100.194 E0.00734
G1 X159.487 Y120.148 E0.23107
G1 X159.310 Y120.610 E0.00573
G1 X159.011 Y121.018 E0.00586
G1 X158.720 Y121.229 E0.00417
G1 X158.230 Y121.414 E0.00606
G1 X153.770 Y121.414 E0.05165
G1 X153.280 Y121.229 E0.00606
G1 X152.878 Y120.897 E0.00604
G1 X152.697 Y120.622 E0.00381
G1 X152.566 Y120.336 E0.00364
G1 X152.468 Y119.797 E0.00635
G1 X152.513 Y99.853 E0.23096
G1 X152.689 Y99.390 E0.00573
G1 X152.989 Y98.982 E0.00587
G1 X153.281 Y98.771 E0.00417
G1 X153.770 Y98.586 E0.00606
G1 X158.169 Y98.576 E0.05094
G1 X158.487 Y98.658 E0.00381
G1 X158.792 Y98.810 E0.00394
G1 X159.083 Y99.058 E0.00443
G1 X159.376 Y99.543 E0.00656
M204 S1000
G1 X159.135 Y99.669 F10800.000
M204 S500
G1 F1200.000
G1 X159.253 Y100.209 E0.00640
G1 X159.217 Y120.074 E0.23005
G1 X159.072 Y120.464 E0.00481
G1 X158.826 Y120.808 E0.00490
G1 X158.602 Y120.975 E0.00324
G1 X158.155 Y121.144 E0.00553
G1 X153.845 Y121.144 E0.04992
G1 X153.401 Y120.977 E0.00550
G1 X153.099 Y120.726 E0.00455
G1 X152.945 Y120.496 E0.00319
G1 X152.827 Y120.237 E0.00330
G1 X152.746 Y119.785 E0.00532
G1 X152.783 Y99.926 E0.22997
G1 X152.927 Y99.536 E0.00482
G1 X153.174 Y99.191 E0.00491
G1 X153.398 Y99.025 E0.00324
G1 X153.845 Y98.856 E0.00553
G1 X158.119 Y98.851 E0.04950
G1 X158.377 Y98.914 E0.00308
G1 X158.651 Y99.051 E0.00354
G1 X158.883 Y99.254 E0.00357
G1 X159.116 Y99.637 E0.00519
M204 S1000
G1 X158.877 Y99.778 F10800.000
M204 S500
G1 F1200.000
G1 X158.975 Y100.223 E0.00527
G1 X158.939 Y120.046 E0.22956
G1 X158.820 Y120.345 E0.00372
G1 X158.638 Y120.602 E0.00365
G1 X158.483 Y120.723 E0.00228
G1 X158.080 Y120.875 E0.00498
G1 X153.920 Y120.875 E0.04818
G1 X153.522 Y120.725 E0.00493
G1 X153.320 Y120.555 E0.00306
G1 X153.184 Y120.352 E0.00283
G1 X153.089 Y120.139 E0.00269
G1 X153.025 Y119.773 E0.00430
G1 X153.061 Y99.954 E0.22952
G1 X153.179 Y99.655 E0.00372
G1 X153.362 Y99.398 E0.00365
G1 X153.517 Y99.277 E0.00228
G1 X153.920 Y99.125 E0.00498
G1 X158.100 Y99.129 E0.04841
G1 X158.290 Y99.179 E0.00228
G1 X158.507 Y99.290 E0.00281
G1 X158.680 Y99.445 E0.00270
G1 X158.858 Y99.746 E0.00404
M204 S1000
G1 X158.176 Y99.434 F10800.000
M204 S500
G1 F1200.000
G1 X158.361 Y99.528 E0.00241
G1 X158.473 Y99.633 E0.00177
G1 X158.630 Y99.907 E0.00366
G1 X158.696 Y100.236 E0.00388
G1 X158.669 Y119.971 E0.22854
G1 X158.580 Y120.203 E0.00288
G1 X158.445 Y120.401 E0.00279
G1 X158.356 Y120.474 E0.00132
G1 X158.052 Y120.596 E0.00379
G1 X153.948 Y120.596 E0.04753
G1 X153.648 Y120.476 E0.00374
G1 X153.539 Y120.383 E0.00166
G1 X153.433 Y120.226 E0.00220
G1 X153.350 Y120.042 E0.00233
G1 X153.304 Y119.763 E0.00328
G1 X153.330 Y100.029 E0.22852
G1 X153.419 Y99.797 E0.00288
G1 X153.555 Y99.598 E0.00279
G1 X153.644 Y99.526 E0.00132
G1 X153.948 Y99.404 E0.00379
G1 X158.081 Y99.408 E0.04786
G1 X158.140 Y99.424 E0.00071
M204 S1000
G1 X158.217 Y99.767 F10800.000
M204 S500
G1 F1200.000
G1 X158.363 Y99.989 E0.00307
G1 X158.418 Y100.250 E0.00309
G1 X158.400 Y119.899 E0.22753
G1 X158.338 Y120.065 E0.00205
G1 X158.243 Y120.209 E0.00201
G1 X158.021 Y120.318 E0.00286
G1 X153.979 Y120.318 E0.04680
G1 X153.760 Y120.212 E0.00282
G1 X153.671 Y120.081 E0.00184
G1 X153.613 Y119.948 E0.00167
G1 X153.582 Y119.752 E0.00230
G1 X153.600 Y100.102 E0.22756
G1 X153.661 Y99.936 E0.00205
G1 X153.757 Y99.791 E0.00201
G1 X153.979 Y99.682 E0.00286
G1 X158.034 Y99.682 E0.04695
