; generated by PrusaSlicer 2.2.0 on 2020-07-30 at 14:42:38 UTC

; 

; external perimeters extrusion width = 0.25mm
; perimeters extrusion width = 0.25mm
; infill extrusion width = 0.25mm
; solid infill extrusion width = 0.25mm
; top infill extrusion width = 0.25mm
; support material extrusion width = 0.20mm
; first layer extrusion width = 0.30mm

M73 P0 R11
M73 Q0 S11
M201 X1000 Y1000 Z200 E5000 ; sets maximum accelerations, mm/sec^2
M203 X200 Y200 Z12 E120 ; sets maximum feedrates, mm/sec
M204 P1250 R1250 T1250 ; sets acceleration (P, T) and retract acceleration (R), mm/sec^2
M205 X8.00 Y8.00 Z0.40 E4.50 ; sets the jerk limits, mm/sec
M205 S0 T0 ; sets the minimum extruding and travel feed rate, mm/sec
M107
M862.3 P "MK3S" ; printer model check
M862.1 P0.25 ; nozzle diameter check
M115 U3.9.0 ; tell printer latest fw version
G90 ; use absolute coordinates
M83 ; extruder relative mode
M104 S215 ; set extruder temp
M140 S60 ; set bed temp
M190 S60 ; wait for bed temp
M109 S215 ; wait for extruder temp
G28 W ; home all without mesh bed level
G80 ; mesh bed leveling
G1 Y-3.0 F1000.0 ; go outside print area
G92 E0.0
G1 X60.0 E9.0 F1000.0 ; intro line
M73 Q0 S11
M73 P0 R11
G1 X100.0 E12.5 F1000.0 ; intro line
G92 E0.0
M221 S95
G21 ; set units to millimeters
G90 ; use absolute coordinates
M83 ; use relative distances for extrusion
M900 K0.06 ; Filament gcode LA 1.5
M900 K30 ; Filament gcode LA 1.0
;BEFORE_LAYER_CHANGE
G92 E0.0
;0.1


G1 E-0.80000 F2100.00000
G1 Z0.600 F10800.000
;AFTER_LAYER_CHANGE
;0.1
G1 X122.349 Y78.613
G1 Z0.100
G1 E0.80000 F2100.00000
M204 S500
G1 F1200.000
G1 X122.796 Y78.142 E0.00752
G1 X123.325 Y77.764 E0.00752
G1 X123.908 Y77.499 E0.00742
G1 X124.546 Y77.346 E0.00760
G1 X135.225 Y76.862 E0.12380
G1 X147.000 Y77.350 E0.13648
G1 X148.777 Y77.602 E0.02079
G1 X149.408 Y77.776 E0.00758
G1 X150.202 Y78.212 E0.01049
G1 X150.852 Y78.844 E0.01049
G1 X151.387 Y79.834 E0.01304
G1 X151.566 Y80.941 E0.01298
G1 X150.752 Y92.673 E0.13618
G1 X150.626 Y93.345 E0.00791
G1 X150.365 Y93.984 E0.00800
G1 X149.980 Y94.552 E0.00795
G1 X149.482 Y95.037 E0.00805
G1 X148.551 Y95.556 E0.01235
G1 X147.487 Y95.758 E0.01254
G1 X124.124 Y95.749 E0.27055
G1 X123.376 Y95.651 E0.00873
G1 X122.683 Y95.395 E0.00855
G1 X122.060 Y94.993 E0.00859
G1 X121.540 Y94.463 E0.00860
G1 X121.060 Y93.627 E0.01116
G1 X120.835 Y92.675 E0.01133
G1 X120.830 Y86.355 E0.07318
G1 X121.705 Y80.027 E0.07399
G1 X121.941 Y79.290 E0.00896
G1 X122.330 Y78.646 E0.00871
M204 S1000
G1 X122.202 Y79.389 F10800.000
M204 S500
G1 F1200.000
G1 X122.575 Y78.777 E0.00830
G1 X122.983 Y78.348 E0.00685
G1 X123.471 Y78.001 E0.00694
G1 X124.011 Y77.758 E0.00686
G1 X124.601 Y77.620 E0.00702
G1 X135.222 Y77.140 E0.12312
G1 X146.947 Y77.625 E0.13589
G1 X148.717 Y77.874 E0.02070
G1 X149.275 Y78.023 E0.00669
G1 X150.009 Y78.415 E0.00964
G1 X150.610 Y78.987 E0.00960
G1 X151.120 Y79.915 E0.01227
G1 X151.287 Y80.947 E0.01211
G1 X150.475 Y92.643 E0.13577
G1 X150.362 Y93.256 E0.00722
G1 X150.126 Y93.840 E0.00729
G1 X149.778 Y94.360 E0.00724
G1 X149.327 Y94.805 E0.00734
G1 X148.461 Y95.292 E0.01150
G1 X147.474 Y95.480 E0.01164
G1 X124.135 Y95.471 E0.27027
G1 X123.452 Y95.382 E0.00797
G1 X122.822 Y95.153 E0.00777
G1 X122.250 Y94.788 E0.00786
G1 X121.776 Y94.312 E0.00777
G1 X121.322 Y93.532 E0.01045
G1 X121.111 Y92.640 E0.01061
G1 X121.108 Y86.373 E0.07258
G1 X121.976 Y80.090 E0.07345
G1 X122.190 Y79.425 E0.00809
M204 S1000
G1 X122.454 Y79.510 F10800.000
M204 S500
G1 F1200.000
G1 X122.800 Y78.942 E0.00770
G1 X123.175 Y78.550 E0.00628
G1 X123.621 Y78.237 E0.00631
G1 X124.126 Y78.013 E0.00640
G1 X124.654 Y77.894 E0.00627
G1 X135.224 Y77.419 E0.12252
G1 X146.897 Y77.899 E0.13529
G1 X149.157 Y78.277 E0.02653
G1 X149.820 Y78.623 E0.00867
G1 X150.381 Y79.146 E0.00888
G1 X150.853 Y79.994 E0.01124
G1 X151.008 Y80.961 E0.01134
G1 X150.198 Y92.610 E0.13523
G1 X150.098 Y93.165 E0.00653
G1 X149.888 Y93.694 E0.00659
G1 X149.577 Y94.166 E0.00654
G1 X149.172 Y94.571 E0.00664
G1 X148.379 Y95.026 E0.01059
G1 X147.473 Y95.201 E0.01068
G1 X124.146 Y95.192 E0.27014
G1 X123.531 Y95.115 E0.00717
G1 X122.968 Y94.914 E0.00692
G1 X122.440 Y94.584 E0.00721
G1 X122.008 Y94.156 E0.00704
G1 X121.583 Y93.436 E0.00968
G1 X121.388 Y92.607 E0.00987
G1 X121.386 Y86.382 E0.07209
G1 X122.248 Y80.152 E0.07283
G1 X122.442 Y79.545 E0.00738
M204 S1000
G1 F8640.000
G1 X122.800 Y78.942 E-0.16195
G1 X123.175 Y78.550 E-0.12526
G1 X123.621 Y78.237 E-0.12585
G1 X124.126 Y78.013 E-0.12751
G1 X124.654 Y77.894 E-0.12509
G1 X125.063 Y77.876 E-0.09434
G1 E-0.04000 F2100.00000
G1 Z0.700 F10800.000
G1 X123.773 Y78.471
G1 Z0.100
G1 E0.80000 F2100.00000
M204 S500
G1 F1200.000
G1 X124.714 Y78.167 E0.01145
G1 X135.211 Y77.697 E0.12168
G1 X146.845 Y78.174 E0.13483
G1 X149.022 Y78.524 E0.02554
G1 X149.632 Y78.831 E0.00791
G1 X150.147 Y79.301 E0.00807
G1 X150.589 Y80.082 E0.01040
G1 X150.730 Y80.958 E0.01027
G1 X149.921 Y92.582 E0.13494
G1 X149.833 Y93.080 E0.00585
G1 X149.647 Y93.553 E0.00589
G1 X149.369 Y93.980 E0.00589
G1 X149.012 Y94.342 E0.00589
G1 X148.285 Y94.763 E0.00973
G1 X147.453 Y94.923 E0.00981
G1 X124.159 Y94.914 E0.26975
G1 X123.619 Y94.850 E0.00630
G1 X123.103 Y94.670 E0.00632
G1 X122.638 Y94.385 E0.00632
G1 X122.243 Y94.003 E0.00637
G1 X121.843 Y93.335 E0.00901
G1 X121.666 Y92.585 E0.00893
G1 X121.664 Y86.398 E0.07164
G1 X122.521 Y80.209 E0.07236
G1 X122.709 Y79.621 E0.00715
G1 X123.025 Y79.107 E0.00698
G1 X123.744 Y78.495 E0.01094
M204 S1000
G1 F8640.000
G1 X124.714 Y78.167 E-0.23641
G1 X126.980 Y78.066 E-0.52359
G1 E-0.04000 F2100.00000
G1 Z0.700 F10800.000
G1 X129.365 Y76.988
G1 Z0.100
G1 E0.80000 F2100.00000
M204 S500
G1 F1200.000
G1 X128.630 Y76.539 E0.00998
G1 X125.206 Y75.910 E0.04032
G1 X123.532 Y76.088 E0.01949
G1 X122.124 Y76.774 E0.01814
G1 X121.377 Y77.466 E0.01179
G1 X120.813 Y78.242 E0.01111
G1 X120.289 Y79.567 E0.01649
G1 X119.363 Y86.084 E0.07623
G1 X119.343 Y92.629 E0.07579
G1 X119.550 Y93.792 E0.01367
G1 X120.031 Y94.877 E0.01375
G1 X120.716 Y95.773 E0.01305
G1 X121.595 Y96.469 E0.01300
G1 X123.240 Y97.078 E0.02030
G1 X126.429 Y97.131 E0.03694
G1 X127.898 Y96.729 E0.01764
G1 X129.060 Y96.003 E0.01586
G1 X129.152 Y95.890 E0.00169
M204 S1000
G1 F8640.000
G1 X129.060 Y96.003 E-0.03363
G1 X127.898 Y96.729 E-0.31623
G1 X126.429 Y97.131 E-0.35174
G1 X126.176 Y97.126 E-0.05840
G1 E-0.04000 F2100.00000
G1 Z0.700 F10800.000
G1 X130.022 Y94.777
G1 Z0.100
G1 E0.80000 F2100.00000
M204 S500
G1 F1200.000
G1 X130.196 Y94.379 E0.00504
G1 X130.504 Y94.777 E0.00583
M204 S1000
G1 F8640.000
G1 X130.196 Y94.379 E-0.11625
G1 X130.022 Y94.777 E-0.10047
G1 E-0.58328 F2100.00000
G1 Z0.700 F10800.000
G1 X131.661 Y95.891
G1 Z0.100
G1 E0.80000 F2100.00000
M204 S500
G1 F1200.000
G1 X131.880 Y96.060 E0.00320
G1 X133.401 Y96.617 E0.01876
G1 X136.595 Y96.682 E0.03699
G1 X138.104 Y96.276 E0.01810
G1 X138.723 Y95.894 E0.00841
M204 S1000
G1 F8640.000
G1 X138.104 Y96.276 E-0.16777
G1 X136.595 Y96.682 E-0.36094
G1 X135.593 Y96.662 E-0.23129
G1 E-0.04000 F2100.00000
G1 Z0.700 F10800.000
G1 X139.893 Y94.781
G1 Z0.100
G1 E0.80000 F2100.00000
M204 S500
G1 F1200.000
G1 X140.178 Y94.436 E0.00519
G1 X140.771 Y92.972 E0.01829
G1 X140.979 Y92.993 E0.00242
G1 X141.135 Y93.832 E0.00989
G1 X141.556 Y94.781 E0.01202
M204 S1000
G1 F8640.000
G1 X141.135 Y93.832 E-0.23969
G1 X140.979 Y92.993 E-0.19722
G1 X140.771 Y92.972 E-0.04822
G1 X140.324 Y94.075 E-0.27487
G1 E-0.04000 F2100.00000
G1 Z0.700 F10800.000
G1 X142.442 Y95.895
G1 Z0.100
G1 E0.80000 F2100.00000
M204 S500
G1 F1200.000
G1 X143.209 Y96.500 E0.01131
G1 X144.768 Y97.079 E0.01926
G1 X148.003 Y97.140 E0.03747
G1 X149.473 Y96.739 E0.01764
G1 X150.565 Y96.074 E0.01480
G1 X151.546 Y94.901 E0.01771
G1 X152.116 Y93.520 E0.01730
G1 X152.242 Y86.970 E0.07586
G1 X153.039 Y80.576 E0.07462
G1 X152.809 Y79.413 E0.01373
G1 X152.313 Y78.339 E0.01370
G1 X151.323 Y77.223 E0.01727
G1 X150.059 Y76.495 E0.01689
G1 X146.779 Y75.919 E0.03856
G1 X145.105 Y76.098 E0.01950
G1 X143.627 Y76.834 E0.01912
G1 X143.388 Y77.061 E0.00381
M204 S1000
G1 F8640.000
G1 X143.627 Y76.834 E-0.07607
G1 X145.105 Y76.098 E-0.38132
G1 X146.408 Y75.958 E-0.30261
G1 E-0.04000 F2100.00000
G1 Z0.700 F10800.000
G1 X142.474 Y78.134
G1 Z0.100
G1 E0.80000 F2100.00000
M204 S500
G1 F1200.000
G1 X142.388 Y78.252 E0.00168
G1 X141.890 Y79.480 E0.01535
G1 X141.838 Y79.801 E0.00376
G1 X141.605 Y79.804 E0.00270
G1 X141.439 Y78.950 E0.01007
G1 X141.030 Y78.075 E0.01119
M204 S1000
G1 F8640.000
G1 X141.439 Y78.950 E-0.22313
G1 X141.605 Y79.804 E-0.20084
G1 X141.838 Y79.801 E-0.05388
G1 X141.890 Y79.480 E-0.07497
G1 X142.227 Y78.649 E-0.20718
G1 E-0.04000 F2100.00000
G1 Z0.700 F10800.000
G1 X140.109 Y76.925
G1 Z0.100
G1 E0.80000 F2100.00000
M204 S500
G1 F1200.000
G1 X139.990 Y76.790 E0.00208
G1 X138.788 Y76.068 E0.01624
M204 S1000
M204 S500
G1 X135.412 Y75.456 E0.03974
G1 X133.784 Y75.621 E0.01894
G1 X132.294 Y76.346 E0.01920
G1 X131.727 Y76.881 E0.00903
M204 S1000
G1 F8640.000
G1 X132.294 Y76.346 E-0.17996
G1 X133.784 Y75.621 E-0.38274
G1 X134.634 Y75.535 E-0.19729
G1 E-0.04000 F2100.00000
G1 Z0.700 F10800.000
G1 X130.923 Y78.028
G1 Z0.100
G1 E0.80000 F2100.00000
M204 S500
G1 F1200.000
G1 X130.784 Y78.362 E0.00419
G1 X130.503 Y78.047 E0.00489
M204 S1000
G1 F8640.000
G1 X130.784 Y78.362 E-0.09746
G1 X130.923 Y78.028 E-0.08346
G1 E-0.61908 F2100.00000
G1 Z0.700 F10800.000
G1 X142.804 Y78.147
G1 Z0.100
G1 E0.80000 F2100.00000
M204 S500
G1 F1200.000
G1 X142.640 Y78.372 E0.00322
G1 X142.155 Y79.568 E0.01494
G1 X141.216 Y86.123 E0.07669
G1 X141.197 Y92.627 E0.07531
G1 X141.396 Y93.735 E0.01304
G1 X141.838 Y94.731 E0.01262
G1 X141.876 Y94.781 E0.00073
M204 S1000
G1 F8640.000
G1 X141.838 Y94.731 E-0.01457
G1 X141.396 Y93.735 E-0.25160
G1 X141.197 Y92.627 E-0.26009
G1 X141.200 Y91.614 E-0.23374
G1 E-0.04000 F2100.00000
G1 Z0.700 F10800.000
G1 X142.883 Y95.895
G1 Z0.100
G1 E0.80000 F2100.00000
M204 S500
G1 F1200.000
G1 X143.326 Y96.247 E0.00655
G1 X144.843 Y96.809 E0.01873
G1 X147.949 Y96.866 E0.03597
G1 X149.380 Y96.475 E0.01718
G1 X150.399 Y95.849 E0.01385
G1 X151.318 Y94.739 E0.01669
G1 X151.838 Y93.488 E0.01569
G1 X151.964 Y86.950 E0.07573
G1 X152.759 Y80.564 E0.07452
G1 X152.549 Y79.514 E0.01241
G1 X152.091 Y78.508 E0.01280
G1 X151.129 Y77.425 E0.01677
G1 X149.987 Y76.765 E0.01528
G1 X146.751 Y76.197 E0.03805
M204 S1000
M204 S500
G1 X145.161 Y76.372 E0.01853
G1 X143.767 Y77.077 E0.01809
M204 S1000
G1 X144.326 Y77.100 F10800.000
M204 S500
G1 F1200.000
G1 X145.263 Y76.632 E0.01212
G1 X146.722 Y76.474 E0.01700
G1 X149.914 Y77.035 E0.03753
M204 S1000
M204 S500
G1 X150.969 Y77.654 E0.01417
G1 X151.846 Y78.643 E0.01531
G1 X152.279 Y79.585 E0.01200
G1 X152.482 Y80.597 E0.01196
G1 X151.686 Y86.930 E0.07392
G1 X151.571 Y93.407 E0.07501
G1 X151.089 Y94.579 E0.01468
G1 X150.232 Y95.625 E0.01566
G1 X149.286 Y96.212 E0.01289
G1 X147.934 Y96.587 E0.01625
G1 X144.872 Y96.531 E0.03546
G1 X143.481 Y96.014 E0.01718
G1 X143.330 Y95.896 E0.00223
M204 S1000
G1 F8640.000
G1 X143.481 Y96.014 E-0.04441
G1 X144.872 Y96.531 E-0.34258
G1 X146.487 Y96.561 E-0.37301
G1 E-0.04000 F2100.00000
G1 Z0.700 F10800.000
G1 X142.222 Y94.782
G1 Z0.100
G1 E0.80000 F2100.00000
M204 S500
G1 F1200.000
G1 X142.085 Y94.602 E0.00261
G1 X141.667 Y93.668 E0.01185
G1 X141.475 Y92.614 E0.01241
G1 X141.493 Y86.153 E0.07482
G1 X142.420 Y79.656 E0.07600
G1 X142.876 Y78.522 E0.01416
G1 X143.137 Y78.161 E0.00516
M204 S1000
G1 X143.471 Y78.175 F10800.000
M204 S500
G1 F1200.000
G1 X143.112 Y78.671 E0.00710
G1 X142.685 Y79.743 E0.01337
G1 X141.770 Y86.183 E0.07532
G1 X141.754 Y92.602 E0.07434
G1 X141.938 Y93.601 E0.01176
G1 X142.333 Y94.473 E0.01109
G1 X142.568 Y94.782 E0.00450
M204 S1000
G1 F8640.000
G1 X142.333 Y94.473 E-0.08966
G1 X141.938 Y93.601 E-0.22105
G1 X141.754 Y92.602 E-0.23449
G1 X141.756 Y91.672 E-0.21480
G1 E-0.04000 F2100.00000
G1 Z0.700 F10800.000
G1 X143.942 Y95.896
G1 Z0.100
G1 E0.80000 F2100.00000
M204 S500
G1 F1200.000
G1 X144.901 Y96.253 E0.01185
G1 X147.918 Y96.308 E0.03495
G1 X149.191 Y95.950 E0.01531
G1 X150.064 Y95.402 E0.01194
G1 X150.859 Y94.420 E0.01463
G1 X151.303 Y93.326 E0.01367
G1 X151.408 Y86.911 E0.07431
G1 X152.204 Y80.630 E0.07332
G1 X152.009 Y79.656 E0.01150
G1 X151.602 Y78.779 E0.01120
G1 X150.808 Y77.881 E0.01388
G1 X149.840 Y77.304 E0.01305
G1 X146.694 Y76.752 E0.03699
M204 S1000
M204 S500
G1 X145.319 Y76.906 E0.01602
G1 X144.886 Y77.123 E0.00561
M204 S1000
G1 X145.561 Y77.151 F10800.000
M204 S500
G1 F1200.000
G1 X146.665 Y77.030 E0.01286
G1 X149.766 Y77.574 E0.03646
M204 S1000
M204 S500
G1 X150.645 Y78.108 E0.01191
G1 X151.358 Y78.914 E0.01247
G1 X151.749 Y79.758 E0.01077
G1 X151.927 Y80.661 E0.01066
G1 X151.486 Y84.107 E0.04023
M204 S1000
G1 F8640.000
G1 X151.904 Y80.842 E-0.76000
G1 E-0.04000 F2100.00000
G1 Z0.700 F10800.000
G1 X151.085 Y89.885
G1 Z0.100
G1 E0.80000 F2100.00000
M204 S500
G1 F1200.000
G1 X151.035 Y93.247 E0.03893
G1 X150.629 Y94.263 E0.01267
G1 X149.894 Y95.180 E0.01360
G1 X149.094 Y95.688 E0.01098
G1 X147.902 Y96.030 E0.01436
G1 X144.930 Y95.975 E0.03443
G1 X144.718 Y95.896 E0.00262
M204 S1000
G1 F8640.000
G1 X144.930 Y95.975 E-0.05217
G1 X147.902 Y96.030 E-0.68647
G1 X147.991 Y96.004 E-0.02137
G1 E-0.04000 F2100.00000
G1 Z0.700 F10800.000
G1 X142.913 Y94.782
G1 Z0.100
G1 E0.80000 F2100.00000
M204 S500
G1 F1200.000
G1 X142.579 Y94.343 E0.00639
G1 X142.209 Y93.532 E0.01032
G1 X142.032 Y92.589 E0.01111
G1 X142.047 Y86.212 E0.07385
G1 X142.950 Y79.830 E0.07465
G1 X143.348 Y78.819 E0.01258
G1 X143.815 Y78.189 E0.00909
M204 S1000
G1 F8640.000
G1 X143.348 Y78.819 E-0.18117
G1 X142.950 Y79.830 E-0.25075
G1 X142.751 Y81.237 E-0.32809
G1 E-0.04000 F2100.00000
G1 Z0.700 F10800.000
G1 X143.265 Y94.782
G1 Z0.100
G1 E0.80000 F2100.00000
M204 S500
G1 F1200.000
G1 X142.811 Y94.188 E0.00866
G1 X142.479 Y93.464 E0.00923
G1 X142.311 Y92.577 E0.01045
G1 X142.324 Y86.241 E0.07337
G1 X143.216 Y79.915 E0.07398
G1 X143.584 Y78.968 E0.01178
G1 X143.993 Y78.401 E0.00808
G1 X144.199 Y78.205 E0.00330
M204 S1000
G1 F8640.000
G1 X143.993 Y78.401 E-0.06585
G1 X143.584 Y78.968 E-0.16120
G1 X143.216 Y79.915 E-0.23482
G1 X143.035 Y81.194 E-0.29813
G1 E-0.04000 F2100.00000
G1 Z0.700 F10800.000
G1 X143.716 Y94.782
G1 Z0.100
G1 E0.80000 F2100.00000
M204 S500
G1 F1200.000
G1 X143.434 Y94.560 E0.00416
G1 X143.044 Y94.034 E0.00759
G1 X142.749 Y93.394 E0.00815
G1 X142.590 Y92.564 E0.00980
G1 X142.601 Y86.270 E0.07288
G1 X143.481 Y80.000 E0.07332
G1 X143.821 Y79.115 E0.01098
G1 X144.195 Y78.594 E0.00742
G1 X144.586 Y78.220 E0.00627
M204 S1000
G1 F8640.000
G1 X144.195 Y78.594 E-0.12492
G1 X143.821 Y79.115 E-0.14799
G1 X143.481 Y80.000 E-0.21897
G1 X143.320 Y81.150 E-0.26812
G1 E-0.04000 F2100.00000
G1 Z0.700 F10800.000
G1 X144.159 Y94.782
G1 Z0.100
G1 E0.80000 F2100.00000
M204 S500
G1 F1200.000
G1 X143.623 Y94.355 E0.00794
G1 X143.277 Y93.881 E0.00680
G1 X143.019 Y93.324 E0.00711
G1 X142.868 Y92.550 E0.00913
G1 X142.878 Y86.300 E0.07239
G1 X143.747 Y80.084 E0.07268
G1 X144.059 Y79.261 E0.01019
G1 X144.397 Y78.786 E0.00675
G1 X144.834 Y78.369 E0.00699
G1 X145.098 Y78.241 E0.00341
M204 S1000
G1 X145.672 Y78.265 F10800.000
M204 S500
G1 F1200.000
G1 X145.009 Y78.587 E0.00854
G1 X144.616 Y78.959 E0.00627
G1 X144.297 Y79.407 E0.00637
G1 X144.014 Y80.167 E0.00938
G1 X143.156 Y86.328 E0.07204
G1 X143.147 Y92.537 E0.07189
G1 X143.289 Y93.253 E0.00846
G1 X143.511 Y93.730 E0.00609
G1 X143.813 Y94.151 E0.00601
G1 X144.347 Y94.584 E0.00796
G1 X144.847 Y94.783 E0.00623
M204 S1000
G1 F8640.000
G1 X144.347 Y94.584 E-0.12415
G1 X143.813 Y94.151 E-0.15864
G1 X143.511 Y93.730 E-0.11981
G1 X143.289 Y93.253 E-0.12137
G1 X143.147 Y92.537 E-0.16867
G1 X143.147 Y92.245 E-0.06736
G1 E-0.04000 F2100.00000
G1 Z0.700 F10800.000
G1 X149.990 Y89.579
G1 Z0.100
G1 E0.80000 F2100.00000
M204 S500
G1 F1200.000
G1 X150.016 Y86.812 E0.03205
G1 X150.367 Y84.166 E0.03091
M204 S1000
G1 F8640.000
G1 X150.016 Y86.812 E-0.61633
G1 X150.010 Y87.434 E-0.14367
G1 E-0.04000 F2100.00000
G1 Z0.700 F10800.000
G1 X149.283 Y78.881
G1 Z0.100
G1 E0.80000 F2100.00000
M204 S500
G1 F1200.000
G1 X149.782 Y79.202 E0.00686
