; generated by PrusaSlicer 2.2.0 on 2020-07-29 at 17:01:05 UTC

; 

; external perimeters extrusion width = 0.25mm
; perimeters extrusion width = 0.25mm
; infill extrusion width = 0.25mm
; solid infill extrusion width = 0.25mm
; top infill extrusion width = 0.25mm
; support material extrusion width = 0.20mm
; first layer extrusion width = 0.30mm

M73 P0 R20
M73 Q0 S20
M201 X1000 Y1000 Z200 E5000 ; sets maximum accelerations, mm/sec^2
M203 X200 Y200 Z12 E120 ; sets maximum feedrates, mm/sec
M204 P1250 R1250 T1250 ; sets acceleration (P, T) and retract acceleration (R), mm/sec^2
M205 X8.00 Y8.00 Z0.40 E4.50 ; sets the jerk limits, mm/sec
M205 S0 T0 ; sets the minimum extruding and travel feed rate, mm/sec
M107
M862.3 P "MK3S" ; printer model check
M862.1 P0.25 ; nozzle diameter check
M115 U3.9.0 ; tell printer latest fw version
G90 ; use absolute coordinates
M83 ; extruder relative mode
M104 S215 ; set extruder temp
M140 S60 ; set bed temp
M190 S60 ; wait for bed temp
M109 S215 ; wait for extruder temp
G28 W ; home all without mesh bed level
G80 ; mesh bed leveling
G1 Y-3.0 F1000.0 ; go outside print area
G92 E0.0
G1 X60.0 E9.0 F1000.0 ; intro line
M73 Q0 S20
M73 P0 R20
G1 X100.0 E12.5 F1000.0 ; intro line
G92 E0.0
M221 S95
G21 ; set units to millimeters
G90 ; use absolute coordinates
M83 ; use relative distances for extrusion
M900 K0.06 ; Filament gcode LA 1.5
M900 K30 ; Filament gcode LA 1.0
;BEFORE_LAYER_CHANGE
G92 E0.0
;0.1


G1 E-0.80000 F2100.00000
G1 Z0.600 F10800.000
;AFTER_LAYER_CHANGE
;0.1
G1 X123.607 Y79.793
G1 Z0.100
G1 E0.80000 F2100.00000
M204 S500
G1 F1200.000
G1 X124.076 Y79.320 E0.00771
G1 X124.621 Y78.967 E0.00752
G1 X125.235 Y78.733 E0.00761
G1 X125.881 Y78.635 E0.00756
G1 X149.865 Y78.641 E0.27775
G1 X152.156 Y78.942 E0.02676
G1 X153.160 Y79.361 E0.01260
G1 X176.772 Y95.930 E0.33404
G1 X177.370 Y96.485 E0.00944
G1 X177.894 Y97.404 E0.01226
G1 X178.076 Y98.443 E0.01221
G1 X178.072 Y110.108 E0.13508
G1 X177.877 Y111.040 E0.01103
G1 X177.399 Y111.878 E0.01118
G1 X176.982 Y112.306 E0.00691
G1 X176.501 Y112.640 E0.00679
G1 X175.957 Y112.879 E0.00687
G1 X175.406 Y113.006 E0.00656
G1 X163.655 Y113.707 E0.13631
G1 X124.144 Y113.835 E0.45756
G1 X123.131 Y113.651 E0.01192
G1 X122.251 Y113.157 E0.01169
G1 X121.802 Y112.715 E0.00729
G1 X121.455 Y112.195 E0.00724
G1 X121.218 Y111.612 E0.00729
G1 X121.106 Y111.000 E0.00720
G1 X121.099 Y99.117 E0.13761
G1 X122.159 Y87.013 E0.14071
G1 X122.994 Y81.108 E0.06906
G1 X123.224 Y80.409 E0.00852
G1 X123.587 Y79.825 E0.00796
M204 S1000
G1 X123.823 Y79.972 F10800.000
M204 S500
G1 F1200.000
G1 X124.259 Y79.531 E0.00718
G1 X124.757 Y79.210 E0.00686
G1 X125.324 Y78.998 E0.00702
G1 X125.903 Y78.913 E0.00677
G1 X149.865 Y78.920 E0.27749
G1 X152.078 Y79.210 E0.02584
G1 X153.019 Y79.601 E0.01180
G1 X176.612 Y96.158 E0.33377
G1 X177.150 Y96.655 E0.00848
G1 X177.630 Y97.495 E0.01120
G1 X177.798 Y98.444 E0.01116
G1 X177.794 Y110.084 E0.13479
G1 X177.617 Y110.941 E0.01013
G1 X177.176 Y111.711 E0.01027
G1 X176.794 Y112.100 E0.00632
G1 X176.350 Y112.405 E0.00624
G1 X175.862 Y112.617 E0.00616
G1 X175.341 Y112.734 E0.00618
G1 X163.647 Y113.429 E0.13566
G1 X124.150 Y113.557 E0.45740
G1 X123.238 Y113.394 E0.01072
G1 X122.423 Y112.938 E0.01081
G1 X122.020 Y112.542 E0.00654
G1 X121.702 Y112.066 E0.00664
G1 X121.487 Y111.539 E0.00659
G1 X121.383 Y110.967 E0.00673
G1 X121.377 Y99.124 E0.13715
G1 X122.434 Y87.052 E0.14032
G1 X123.265 Y81.171 E0.06878
G1 X123.477 Y80.526 E0.00787
G1 X123.803 Y80.004 E0.00712
M204 S1000
G1 F8640.000
G1 X124.259 Y79.531 E-0.15168
G1 X124.757 Y79.210 E-0.13678
G1 X125.324 Y78.998 E-0.13998
G1 X125.903 Y78.913 E-0.13500
G1 X126.754 Y78.913 E-0.19656
G1 E-0.04000 F2100.00000
G1 Z0.700 F10800.000
G1 X176.207 Y112.166
G1 Z0.100
G1 E0.80000 F2100.00000
M204 S500
G1 F1200.000
G1 X175.294 Y112.459 E0.01110
G1 X163.639 Y113.150 E0.13521
G1 X124.159 Y113.278 E0.45720
G1 X123.328 Y113.130 E0.00977
G1 X122.584 Y112.710 E0.00990
G1 X122.219 Y112.344 E0.00598
G1 X121.936 Y111.913 E0.00598
G1 X121.747 Y111.432 E0.00598
G1 X121.659 Y110.924 E0.00598
G1 X121.656 Y99.130 E0.13657
G1 X122.703 Y87.150 E0.13926
G1 X123.536 Y81.236 E0.06916
G1 X123.730 Y80.642 E0.00724
G1 X124.055 Y80.125 E0.00707
G1 X124.443 Y79.740 E0.00634
G1 X124.895 Y79.452 E0.00619
G1 X125.398 Y79.266 E0.00622
G1 X125.933 Y79.190 E0.00626
G1 X149.865 Y79.198 E0.27714
G1 X152.010 Y79.481 E0.02506
G1 X152.870 Y79.837 E0.01077
G1 X176.452 Y96.385 E0.33362
G1 X176.932 Y96.830 E0.00758
G1 X177.369 Y97.589 E0.01015
G1 X177.519 Y98.446 E0.01007
G1 X177.516 Y110.065 E0.13456
G1 X177.355 Y110.846 E0.00923
G1 X176.951 Y111.545 E0.00935
G1 X176.235 Y112.142 E0.01079
M204 S1000
G1 F8640.000
G1 X175.294 Y112.459 E-0.22936
G1 X173.000 Y112.595 E-0.53064
G1 E-0.04000 F2100.00000
G1 Z0.700 F10800.000
G1 X129.498 Y77.524
G1 Z0.100
G1 E0.80000 F2100.00000
M204 S500
G1 F1200.000
G1 X130.727 Y78.224 E0.01638
G1 X130.969 Y78.497 E0.00422
M204 S1000
G1 F8640.000
G1 X130.727 Y78.224 E-0.08421
G1 X129.498 Y77.524 E-0.32664
G1 E-0.38915 F2100.00000
G1 Z0.700 F10800.000
G1 X131.711 Y79.332
G1 Z0.100
G1 E0.80000 F2100.00000
M204 S500
G1 F1200.000
G1 X131.774 Y79.403 E0.00110
G1 X132.247 Y80.442 E0.01323
G1 X132.476 Y81.561 E0.01322
G1 X131.681 Y87.998 E0.07511
G1 X131.596 Y94.342 E0.07348
G1 X131.020 Y95.871 E0.01892
G1 X130.268 Y96.860 E0.01439
G1 X130.075 Y97.015 E0.00287
G1 X130.321 Y97.459 E0.00587
G1 X130.652 Y98.904 E0.01717
G1 X130.594 Y111.564 E0.14661
G1 X130.201 Y112.818 E0.01522
G1 X130.009 Y113.120 E0.00414
M204 S1000
G1 F8640.000
G1 X130.201 Y112.818 E-0.08259
G1 X130.594 Y111.564 E-0.30342
G1 X130.601 Y109.944 E-0.37398
G1 E-0.04000 F2100.00000
G1 Z0.700 F10800.000
G1 X129.437 Y113.957
G1 Z0.100
G1 E0.80000 F2100.00000
M204 S500
G1 F1200.000
G1 X128.473 Y114.793 E0.01477
G1 X127.212 Y115.349 E0.01595
G1 X123.332 Y115.458 E0.04495
G1 X121.797 Y114.948 E0.01873
G1 X120.566 Y113.983 E0.01811
G1 X120.035 Y113.257 E0.01042
G1 X119.682 Y112.564 E0.00900
G1 X119.377 Y111.353 E0.01446
G1 X119.406 Y98.438 E0.14956
G1 X119.865 Y97.045 E0.01699
G1 X120.504 Y96.084 E0.01337
G1 X120.933 Y95.699 E0.00667
G1 X120.595 Y94.928 E0.00975
G1 X120.357 Y93.669 E0.01483
G1 X120.371 Y87.200 E0.07491
G1 X121.320 Y80.543 E0.07788
G1 X121.843 Y79.252 E0.01612
G1 X122.373 Y78.525 E0.01042
G1 X123.032 Y77.887 E0.01063
G1 X124.544 Y77.127 E0.01960
G1 X126.218 Y76.948 E0.01950
G1 X129.498 Y77.524 E0.03857
M204 S1000
G1 F8640.000
G1 X126.256 Y76.955 E-0.76000
G1 E-0.04000 F2100.00000
G1 Z0.700 F10800.000
G1 X130.606 Y78.497
G1 Z0.100
G1 E0.80000 F2100.00000
M204 S500
G1 F1200.000
G1 X130.568 Y78.454 E0.00066
G1 X129.426 Y77.794 E0.01528
G1 X126.190 Y77.226 E0.03805
M204 S1000
M204 S500
G1 X124.599 Y77.401 E0.01853
G1 X123.210 Y78.102 E0.01802
G1 X122.591 Y78.699 E0.00997
G1 X122.078 Y79.402 E0.01007
G1 X121.585 Y80.631 E0.01533
G1 X120.650 Y87.211 E0.07696
G1 X120.635 Y93.657 E0.07465
G1 X120.865 Y94.860 E0.01418
G1 X121.255 Y95.737 E0.01112
M204 S1000
G1 X121.250 Y95.792 F10800.000
M204 S500
G1 F1200.000
G1 X120.725 Y96.253 E0.00809
G1 X120.108 Y97.184 E0.01293
G1 X119.684 Y98.461 E0.01558
G1 X119.651 Y111.302 E0.14871
G1 X119.938 Y112.452 E0.01372
G1 X120.268 Y113.103 E0.00845
G1 X120.755 Y113.777 E0.00963
G1 X121.910 Y114.692 E0.01706
G1 X123.349 Y115.179 E0.01760
G1 X127.176 Y115.072 E0.04434
G1 X128.339 Y114.548 E0.01477
G1 X129.019 Y113.959 E0.01041
M204 S1000
G1 F8640.000
G1 X128.339 Y114.548 E-0.20760
G1 X127.176 Y115.072 E-0.29454
G1 X126.060 Y115.103 E-0.25786
G1 E-0.04000 F2100.00000
G1 Z0.700 F10800.000
G1 X129.682 Y113.121
G1 Z0.100
G1 E0.80000 F2100.00000
M204 S500
G1 F1200.000
G1 X129.941 Y112.716 E0.00557
G1 X130.316 Y111.541 E0.01427
G1 X130.373 Y98.919 E0.14617
G1 X130.055 Y97.543 E0.01636
G1 X129.708 Y96.939 E0.00807
G1 X130.060 Y96.673 E0.00510
G1 X130.767 Y95.752 E0.01345
G1 X131.317 Y94.314 E0.01783
G1 X131.403 Y87.979 E0.07337
G1 X132.198 Y81.594 E0.07451
G1 X131.987 Y80.543 E0.01241
G1 X131.529 Y79.537 E0.01280
G1 X131.347 Y79.331 E0.00319
M204 S1000
G1 X130.983 Y79.331 F10800.000
M204 S500
G1 F1200.000
G1 X131.285 Y79.672 E0.00528
G1 X131.717 Y80.614 E0.01200
G1 X131.920 Y81.626 E0.01196
G1 X131.125 Y87.959 E0.07392
G1 X131.039 Y94.285 E0.07326
G1 X130.534 Y95.598 E0.01629
G1 X129.852 Y96.487 E0.01297
G1 X129.338 Y96.861 E0.00736
G1 X129.788 Y97.628 E0.01030
G1 X130.095 Y98.934 E0.01554
G1 X130.037 Y111.518 E0.14573
G1 X129.682 Y112.612 E0.01332
G1 X129.354 Y113.122 E0.00703
M204 S1000
G1 F8640.000
G1 X129.682 Y112.612 E-0.14015
G1 X130.037 Y111.518 E-0.26555
G1 X130.044 Y109.984 E-0.35430
G1 E-0.04000 F2100.00000
G1 Z0.700 F10800.000
G1 X128.600 Y113.960
G1 Z0.100
G1 E0.80000 F2100.00000
M204 S500
G1 F1200.000
G1 X128.204 Y114.303 E0.00607
G1 X127.140 Y114.794 E0.01358
G1 X123.367 Y114.900 E0.04371
G1 X122.023 Y114.437 E0.01646
G1 X120.969 Y113.599 E0.01559
G1 X120.500 Y112.949 E0.00928
G1 X120.194 Y112.341 E0.00788
G1 X119.926 Y111.253 E0.01299
G1 X119.963 Y98.484 E0.14786
G1 X120.350 Y97.323 E0.01418
G1 X120.947 Y96.424 E0.01249
G1 X121.215 Y96.192 E0.00411
M204 S1000
G1 F8640.000
G1 X120.947 Y96.424 E-0.08197
G1 X120.350 Y97.323 E-0.24911
G1 X119.963 Y98.484 E-0.28275
G1 X119.961 Y99.117 E-0.14616
G1 E-0.04000 F2100.00000
G1 Z0.700 F10800.000
G1 X121.305 Y95.168
G1 Z0.100
G1 E0.80000 F2100.00000
M204 S500
G1 F1200.000
G1 X121.135 Y94.791 E0.00479
G1 X120.914 Y93.644 E0.01353
G1 X120.928 Y87.221 E0.07438
G1 X121.850 Y80.718 E0.07606
G1 X122.314 Y79.551 E0.01454
G1 X122.793 Y78.891 E0.00945
G1 X123.388 Y78.317 E0.00957
G1 X124.701 Y77.661 E0.01700
G1 X126.161 Y77.503 E0.01700
G1 X129.352 Y78.064 E0.03753
M204 S1000
M204 S500
G1 X130.091 Y78.497 E0.00991
M204 S1000
G1 X129.552 Y78.497 F10800.000
M204 S500
G1 F1200.000
G1 X129.279 Y78.334 E0.00369
G1 X126.132 Y77.781 E0.03699
M204 S1000
M204 S500
G1 X124.757 Y77.935 E0.01602
G1 X123.566 Y78.533 E0.01544
G1 X123.011 Y79.065 E0.00890
G1 X122.550 Y79.700 E0.00909
G1 X122.115 Y80.804 E0.01374
G1 X121.207 Y87.231 E0.07516
G1 X121.192 Y93.631 E0.07411
G1 X121.362 Y94.514 E0.01041
M204 S1000
G1 F8640.000
G1 X121.192 Y93.631 E-0.20755
G1 X121.198 Y91.238 E-0.55245
G1 E-0.04000 F2100.00000
G1 Z0.700 F10800.000
G1 X121.181 Y96.583
G1 Z0.100
G1 E0.80000 F2100.00000
M204 S500
G1 F1200.000
G1 X120.592 Y97.462 E0.01225
G1 X120.241 Y98.508 E0.01278
G1 X120.200 Y111.203 E0.14702
G1 X120.450 Y112.231 E0.01225
G1 X120.734 Y112.797 E0.00733
G1 X121.159 Y113.395 E0.00850
G1 X122.139 Y114.182 E0.01456
G1 X123.385 Y114.621 E0.01530
G1 X127.102 Y114.517 E0.04306
G1 X128.067 Y114.060 E0.01237
G1 X128.181 Y113.962 E0.00174
M204 S1000
G1 F8640.000
G1 X128.067 Y114.060 E-0.03476
G1 X127.102 Y114.517 E-0.24657
G1 X125.030 Y114.575 E-0.47867
G1 E-0.04000 F2100.00000
G1 Z0.700 F10800.000
G1 X129.023 Y113.123
G1 Z0.100
G1 E0.80000 F2100.00000
M204 S500
G1 F1200.000
G1 X129.423 Y112.507 E0.00851
G1 X129.759 Y111.494 E0.01235
G1 X129.816 Y98.950 E0.14527
G1 X129.523 Y97.714 E0.01471
G1 X128.966 Y96.783 E0.01257
G1 X129.644 Y96.300 E0.00964
G1 X130.301 Y95.444 E0.01249
G1 X130.761 Y94.256 E0.01475
G1 X130.846 Y87.940 E0.07316
G1 X131.643 Y81.659 E0.07332
G1 X131.447 Y80.685 E0.01150
G1 X131.041 Y79.808 E0.01120
G1 X130.619 Y79.331 E0.00737
M204 S1000
G1 X130.255 Y79.331 F10800.000
M204 S500
G1 F1200.000
G1 X130.797 Y79.943 E0.00947
G1 X131.188 Y80.787 E0.01077
G1 X131.365 Y81.690 E0.01066
G1 X130.568 Y87.920 E0.07273
G1 X130.483 Y94.227 E0.07305
G1 X130.069 Y95.290 E0.01321
G1 X129.437 Y96.113 E0.01201
G1 X128.591 Y96.703 E0.01195
G1 X129.257 Y97.801 E0.01487
G1 X129.538 Y98.966 E0.01388
G1 X129.480 Y111.470 E0.14481
G1 X129.166 Y112.400 E0.01137
G1 X128.691 Y113.124 E0.01003
M204 S1000
G1 F8640.000
G1 X129.166 Y112.400 E-0.19995
G1 X129.480 Y111.470 E-0.22667
G1 X129.487 Y110.026 E-0.33338
G1 E-0.04000 F2100.00000
G1 Z0.700 F10800.000
G1 X127.630 Y113.963
G1 Z0.100
G1 E0.80000 F2100.00000
M204 S500
G1 F1200.000
G1 X127.064 Y114.239 E0.00730
G1 X123.404 Y114.342 E0.04240
G1 X122.256 Y113.929 E0.01412
G1 X121.351 Y113.191 E0.01352
G1 X120.968 Y112.646 E0.00772
G1 X120.707 Y112.121 E0.00678
G1 X120.475 Y111.155 E0.01151
G1 X120.519 Y98.531 E0.14618
G1 X120.834 Y97.601 E0.01138
G1 X121.131 Y97.154 E0.00621
M204 S1000
G1 F8640.000
G1 X120.834 Y97.601 E-0.12390
G1 X120.519 Y98.531 E-0.22686
G1 X120.513 Y100.304 E-0.40924
G1 E-0.04000 F2100.00000
G1 Z0.700 F10800.000
G1 X122.051 Y96.206
G1 Z0.100
G1 E0.80000 F2100.00000
M204 S500
G1 F1200.000
G1 X122.106 Y96.159 E0.00084
G1 X122.467 Y95.979 E0.00466
G1 X122.114 Y95.491 E0.00698
M204 S1000
G1 F8640.000
G1 X122.467 Y95.979 E-0.13925
G1 X122.106 Y96.159 E-0.09301
G1 X122.051 Y96.206 E-0.01668
G1 E-0.55107 F2100.00000
G1 Z0.700 F10800.000
G1 X121.472 Y93.259
G1 Z0.100
G1 E0.80000 F2100.00000
M204 S500
G1 F1200.000
G1 X121.486 Y87.241 E0.06969
G1 X122.380 Y80.890 E0.07427
G1 X122.786 Y79.849 E0.01295
G1 X123.213 Y79.257 E0.00845
G1 X123.743 Y78.749 E0.00850
G1 X124.858 Y78.196 E0.01442
G1 X126.104 Y78.059 E0.01450
G1 X128.595 Y78.496 E0.02930
M204 S1000
G1 F8640.000
G1 X126.104 Y78.059 E-0.58412
G1 X125.346 Y78.142 E-0.17588
G1 E-0.04000 F2100.00000
G1 Z0.700 F10800.000
G1 X129.868 Y79.331
G1 Z0.100
G1 E0.80000 F2100.00000
M204 S500
G1 F1200.000
G1 X129.919 Y79.363 E0.00070
G1 X130.553 Y80.080 E0.01109
G1 X130.918 Y80.858 E0.00995
G1 X131.088 Y81.722 E0.01020
G1 X130.290 Y87.900 E0.07214
G1 X130.205 Y94.198 E0.07294
G1 X129.836 Y95.136 E0.01167
G1 X129.229 Y95.925 E0.01153
G1 X128.507 Y96.422 E0.01015
G1 X127.990 Y96.594 E0.00632
G1 X128.463 Y97.020 E0.00737
G1 X128.992 Y97.888 E0.01177
G1 X129.259 Y98.982 E0.01304
G1 X129.202 Y111.445 E0.14434
G1 X128.909 Y112.292 E0.01037
G1 X128.419 Y113.033 E0.01029
G1 X128.310 Y113.126 E0.00166
M204 S1000
G1 F8640.000
G1 X128.419 Y113.033 E-0.03302
G1 X128.909 Y112.292 E-0.20516
G1 X129.202 Y111.445 E-0.20679
G1 X129.208 Y110.081 E-0.31503
G1 E-0.04000 F2100.00000
G1 Z0.700 F10800.000
G1 X126.990 Y113.965
G1 Z0.100
G1 E0.80000 F2100.00000
M204 S500
G1 F1200.000
G1 X123.424 Y114.063 E0.04131
G1 X122.376 Y113.676 E0.01294
G1 X121.544 Y112.990 E0.01249
G1 X121.203 Y112.497 E0.00694
G1 X120.964 Y112.013 E0.00625
G1 X120.750 Y111.107 E0.01077
M73 Q5 S19
G1 X120.798 Y98.556 E0.14535
M73 P5 R19
G1 X121.079 Y97.744 E0.00995
M204 S1000
G1 F8640.000
G1 X120.798 Y98.556 E-0.19846
G1 X120.789 Y100.988 E-0.56154
G1 E-0.04000 F2100.00000
G1 Z0.700 F10800.000
G1 X122.017 Y96.596
G1 Z0.100
G1 E0.80000 F2100.00000
M204 S500
G1 F1200.000
G1 X122.270 Y96.385 E0.00382
G1 X122.987 Y96.043 E0.00920
G1 X122.661 Y95.771 E0.00492
G1 X122.221 Y95.169 E0.00864
G1 X122.155 Y95.021 E0.00188
M204 S1000
G1 F8640.000
G1 X122.221 Y95.169 E-0.03752
G1 X122.661 Y95.771 E-0.17220
G1 X122.987 Y96.043 E-0.09803
G1 X122.270 Y96.385 E-0.18337
G1 X122.017 Y96.596 E-0.07612
G1 E-0.23275 F2100.00000
G1 Z0.700 F10800.000
G1 X121.757 Y90.003
G1 Z0.100
G1 E0.80000 F2100.00000
M204 S500
G1 F1200.000
G1 X121.763 Y87.271 E0.03164
G1 X122.646 Y80.975 E0.07362
G1 X123.023 Y79.997 E0.01214
G1 X123.431 Y79.431 E0.00808
G1 X123.919 Y78.965 E0.00781
G1 X124.959 Y78.457 E0.01340
G1 X126.074 Y78.337 E0.01300
M204 S1000
M204 S500
G1 X126.982 Y78.496 E0.01067
M204 S1000
G1 F8640.000
G1 X126.074 Y78.337 E-0.21271
G1 E-0.58729 F2100.00000
G1 Z0.700 F10800.000
G1 X129.350 Y79.331
G1 Z0.100
G1 E0.80000 F2100.00000
M204 S500
G1 F1200.000
G1 X129.752 Y79.587 E0.00553
G1 X130.309 Y80.216 E0.00973
G1 X130.658 Y80.960 E0.00951
G1 X130.810 Y81.752 E0.00934
G1 X130.011 Y87.880 E0.07157
G1 X129.936 Y94.122 E0.07228
G1 X129.603 Y94.982 E0.01069
G1 X129.023 Y95.737 E0.01103
G1 X128.370 Y96.178 E0.00913
G1 X127.424 Y96.475 E0.01148
G1 X128.236 Y97.184 E0.01249
G1 X128.743 Y98.014 E0.01126
G1 X128.980 Y98.997 E0.01171
G1 X128.923 Y111.420 E0.14386
G1 X128.652 Y112.181 E0.00936
G1 X128.198 Y112.861 E0.00947
G1 X127.884 Y113.127 E0.00477
M204 S1000
G1 F8640.000
G1 X128.198 Y112.861 E-0.09512
G1 X128.652 Y112.181 E-0.18883
G1 X128.923 Y111.420 E-0.18657
G1 X128.929 Y110.166 E-0.28948
G1 E-0.04000 F2100.00000
G1 Z0.700 F10800.000
G1 X121.983 Y96.982
G1 Z0.100
G1 E0.80000 F2100.00000
