; generated by PrusaSlicer 2.2.0 on 2020-07-29 at 06:06:52 UTC

; 

; external perimeters extrusion width = 0.25mm
; perimeters extrusion width = 0.25mm
; infill extrusion width = 0.25mm
; solid infill extrusion width = 0.25mm
; top infill extrusion width = 0.25mm
; first layer extrusion width = 0.30mm

M73 P0 R3
M73 Q0 S3
M201 X1000 Y1000 Z200 E5000 ; sets maximum accelerations, mm/sec^2
M203 X200 Y200 Z12 E120 ; sets maximum feedrates, mm/sec
M204 P1250 R1250 T1250 ; sets acceleration (P, T) and retract acceleration (R), mm/sec^2
M205 X8.00 Y8.00 Z0.40 E4.50 ; sets the jerk limits, mm/sec
M205 S0 T0 ; sets the minimum extruding and travel feed rate, mm/sec
M107
M862.3 P "MK3S" ; printer model check
M862.1 P0.25 ; nozzle diameter check
M115 U3.9.0 ; tell printer latest fw version
G90 ; use absolute coordinates
M83 ; extruder relative mode
M104 S215 ; set extruder temp
M140 S60 ; set bed temp
M190 S60 ; wait for bed temp
M109 S215 ; wait for extruder temp
G28 W ; home all without mesh bed level
G80 ; mesh bed leveling
G1 Y-3.0 F1000.0 ; go outside print area
G92 E0.0
G1 X60.0 E9.0 F1000.0 ; intro line
M73 Q2 S3
M73 P2 R3
G1 X100.0 E12.5 F1000.0 ; intro line
G92 E0.0
M221 S95
G21 ; set units to millimeters
G90 ; use absolute coordinates
M83 ; use relative distances for extrusion
M900 K0.06 ; Filament gcode LA 1.5
M900 K30 ; Filament gcode LA 1.0
;BEFORE_LAYER_CHANGE
G92 E0.0
;0.1


G1 E-0.80000 F2100.00000
G1 Z0.600 F10800.000
;AFTER_LAYER_CHANGE
;0.1
G1 X122.718 Y95.191
G1 Z0.100
G1 E0.80000 F2100.00000
M204 S500
G1 F1200.000
G1 X123.667 Y94.425 E0.01411
G1 X124.789 Y93.943 E0.01415
G1 X125.991 Y93.782 E0.01404
G1 X128.794 Y94.172 E0.03276
G1 X129.645 Y94.504 E0.01058
G1 X130.429 Y95.017 E0.01085
G1 X131.156 Y95.766 E0.01210
G1 X131.690 Y96.663 E0.01208
G1 X132.004 Y97.673 E0.01225
G1 X132.073 Y98.711 E0.01205
G1 X131.258 Y110.370 E0.13535
G1 X131.125 Y111.120 E0.00882
G1 X130.871 Y111.827 E0.00870
G1 X130.473 Y112.525 E0.00931
G1 X129.944 Y113.154 E0.00952
G1 X129.313 Y113.673 E0.00946
G1 X128.598 Y114.067 E0.00946
G1 X127.939 Y114.298 E0.00808
G1 X127.245 Y114.423 E0.00817
G1 X124.948 Y114.440 E0.02660
G1 X123.696 Y114.200 E0.01476
G1 X122.560 Y113.614 E0.01481
G1 X121.636 Y112.731 E0.01480
G1 X121.003 Y111.631 E0.01470
G1 X120.782 Y110.911 E0.00873
G1 X120.685 Y110.145 E0.00893
G1 X120.690 Y103.885 E0.07249
G1 X121.564 Y97.507 E0.07456
G1 X121.739 Y96.819 E0.00822
G1 X122.019 Y96.170 E0.00819
G1 X122.697 Y95.221 E0.01350
M204 S1000
G1 X122.889 Y95.416 F10800.000
M204 S500
G1 F1200.000
G1 X123.785 Y94.680 E0.01343
G1 X124.850 Y94.215 E0.01345
G1 X125.993 Y94.061 E0.01336
G1 X128.692 Y94.433 E0.03155
G1 X129.484 Y94.735 E0.00982
G1 X130.214 Y95.202 E0.01004
G1 X130.917 Y95.912 E0.01157
G1 X131.427 Y96.759 E0.01144
G1 X131.728 Y97.717 E0.01163
G1 X131.794 Y98.705 E0.01147
G1 X130.981 Y110.333 E0.13499
G1 X130.866 Y111.011 E0.00796
G1 X130.643 Y111.654 E0.00788
G1 X130.269 Y112.331 E0.00896
G1 X129.766 Y112.938 E0.00912
G1 X129.163 Y113.437 E0.00907
G1 X128.480 Y113.815 E0.00905
G1 X127.860 Y114.031 E0.00760
G1 X127.200 Y114.148 E0.00776
G1 X124.955 Y114.162 E0.02599
G1 X123.775 Y113.932 E0.01392
G1 X122.701 Y113.372 E0.01404
G1 X121.832 Y112.529 E0.01402
G1 X121.243 Y111.481 E0.01392
G1 X121.047 Y110.818 E0.00800
G1 X120.963 Y110.118 E0.00816
G1 X120.969 Y103.893 E0.07209
G1 X121.836 Y97.569 E0.07392
G1 X122.234 Y96.359 E0.01475
G1 X122.867 Y95.447 E0.01286
M204 S1000
G1 X123.071 Y95.629 F10800.000
M204 S500
G1 F1200.000
G1 X123.913 Y94.928 E0.01269
G1 X124.915 Y94.486 E0.01269
G1 X125.994 Y94.339 E0.01261
G1 X128.597 Y94.696 E0.03042
G1 X129.339 Y94.974 E0.00918
G1 X130.017 Y95.401 E0.00928
G1 X130.683 Y96.065 E0.01090
G1 X131.172 Y96.872 E0.01092
G1 X131.453 Y97.759 E0.01078
G1 X131.516 Y98.686 E0.01075
G1 X130.704 Y110.302 E0.13484
G1 X130.402 Y111.510 E0.01443
G1 X130.052 Y112.155 E0.00850
G1 X129.577 Y112.733 E0.00866
G1 X129.006 Y113.208 E0.00861
G1 X128.358 Y113.565 E0.00857
G1 X127.160 Y113.872 E0.01432
G1 X124.967 Y113.883 E0.02539
G1 X123.855 Y113.665 E0.01313
G1 X122.846 Y113.133 E0.01320
G1 X122.032 Y112.332 E0.01323
G1 X121.484 Y111.333 E0.01319
G1 X121.314 Y110.732 E0.00724
G1 X121.241 Y110.092 E0.00746
G1 X121.247 Y103.906 E0.07163
G1 X122.108 Y97.631 E0.07336
G1 X122.462 Y96.526 E0.01343
G1 X123.050 Y95.660 E0.01212
M204 S1000
G1 X123.261 Y95.834 F10800.000
M204 S500
G1 F1200.000
G1 X124.046 Y95.173 E0.01189
G1 X124.982 Y94.757 E0.01186
G1 X125.991 Y94.618 E0.01180
G1 X128.504 Y94.960 E0.02936
G1 X129.195 Y95.214 E0.00853
G1 X129.825 Y95.605 E0.00859
G1 X130.449 Y96.218 E0.01013
G1 X130.906 Y96.958 E0.01007
G1 X131.176 Y97.794 E0.01017
G1 X131.238 Y98.682 E0.01032
G1 X130.428 Y110.271 E0.13452
G1 X130.154 Y111.382 E0.01325
G1 X129.822 Y111.998 E0.00810
G1 X129.373 Y112.543 E0.00818
G1 X128.829 Y112.991 E0.00816
G1 X128.223 Y113.319 E0.00797
G1 X127.112 Y113.596 E0.01327
G1 X124.960 Y113.604 E0.02492
G1 X123.906 Y113.387 E0.01246
G1 X122.971 Y112.879 E0.01233
G1 X122.224 Y112.123 E0.01231
G1 X121.724 Y111.176 E0.01240
G1 X121.519 Y110.063 E0.01310
G1 X121.526 Y103.915 E0.07120
G1 X122.382 Y97.682 E0.07286
G1 X122.697 Y96.679 E0.01217
G1 X123.241 Y95.866 E0.01133
M204 S1000
G1 X123.450 Y96.042 F10800.000
M204 S500
G1 F1200.000
G1 X124.172 Y95.423 E0.01102
G1 X125.050 Y95.027 E0.01115
G1 X125.993 Y94.897 E0.01102
G1 X128.417 Y95.225 E0.02833
G1 X129.054 Y95.455 E0.00784
G1 X129.636 Y95.810 E0.00790
G1 X130.217 Y96.375 E0.00939
G1 X130.654 Y97.078 E0.00959
G1 X130.906 Y97.863 E0.00955
G1 X130.959 Y98.681 E0.00948
G1 X130.150 Y110.245 E0.13425
G1 X129.910 Y111.243 E0.01189
G1 X129.596 Y111.834 E0.00775
G1 X129.181 Y112.342 E0.00760
G1 X128.683 Y112.754 E0.00748
G1 X128.099 Y113.069 E0.00768
G1 X127.070 Y113.320 E0.01227
G1 X124.972 Y113.326 E0.02429
G1 X123.994 Y113.123 E0.01157
G1 X123.127 Y112.648 E0.01145
G1 X122.427 Y111.929 E0.01163
G1 X121.973 Y111.044 E0.01152
G1 X121.797 Y110.042 E0.01178
G1 X121.804 Y103.924 E0.07085
G1 X122.656 Y97.736 E0.07233
G1 X122.931 Y96.837 E0.01089
G1 X123.429 Y96.073 E0.01057
M204 S1000
G1 X123.633 Y96.255 F10800.000
M204 S500
G1 F1200.000
G1 X124.296 Y95.674 E0.01021
G1 X125.115 Y95.298 E0.01042
G1 X125.990 Y95.175 E0.01024
G1 X128.328 Y95.490 E0.02732
G1 X128.911 Y95.695 E0.00715
G1 X129.441 Y96.012 E0.00716
G1 X129.987 Y96.533 E0.00874
G1 X130.395 Y97.182 E0.00887
G1 X130.631 Y97.907 E0.00883
G1 X130.681 Y98.667 E0.00882
G1 X129.873 Y110.215 E0.13406
G1 X129.664 Y111.109 E0.01063
G1 X129.375 Y111.664 E0.00724
G1 X128.988 Y112.140 E0.00710
G1 X128.523 Y112.525 E0.00699
G1 X127.976 Y112.819 E0.00719
G1 X127.033 Y113.044 E0.01122
G1 X124.985 Y113.048 E0.02372
G1 X124.071 Y112.854 E0.01081
G1 X123.266 Y112.403 E0.01069
G1 X122.630 Y111.733 E0.01069
G1 X122.222 Y110.909 E0.01065
G1 X122.075 Y110.026 E0.01037
G1 X122.082 Y103.938 E0.07050
G1 X122.929 Y97.790 E0.07187
G1 X123.158 Y97.010 E0.00942
G1 X123.613 Y96.287 E0.00989
M204 S1000
G1 X123.827 Y96.458 F10800.000
M204 S500
G1 F1200.000
G1 X124.434 Y95.917 E0.00942
G1 X125.175 Y95.571 E0.00947
G1 X125.993 Y95.454 E0.00957
G1 X128.228 Y95.753 E0.02612
G1 X128.746 Y95.926 E0.00632
G1 X129.238 Y96.209 E0.00658
G1 X129.753 Y96.687 E0.00814
G1 X130.129 Y97.270 E0.00802
G1 X130.352 Y97.934 E0.00812
G1 X130.403 Y98.646 E0.00826
G1 X129.596 Y110.186 E0.13397
G1 X129.421 Y110.966 E0.00926
G1 X129.167 Y111.472 E0.00654
G1 X128.810 Y111.924 E0.00668
G1 X128.374 Y112.290 E0.00659
G1 X127.854 Y112.568 E0.00682
G1 X126.986 Y112.768 E0.01032
G1 X124.994 Y112.769 E0.02308
G1 X124.165 Y112.592 E0.00981
G1 X123.411 Y112.163 E0.01005
G1 X122.835 Y111.541 E0.00982
G1 X122.469 Y110.767 E0.00991
G1 X122.353 Y110.010 E0.00887
G1 X122.360 Y103.951 E0.07016
G1 X123.203 Y97.839 E0.07146
G1 X123.396 Y97.160 E0.00817
G1 X123.807 Y96.490 E0.00909
M204 S1000
G1 X123.845 Y96.903 F10800.000
M204 S500
G1 F1200.000
G1 X124.406 Y96.280 E0.00971
G1 X125.140 Y95.875 E0.00971
G1 X125.979 Y95.732 E0.00985
G1 X128.115 Y96.013 E0.02495
G1 X128.953 Y96.352 E0.01047
G1 X129.418 Y96.731 E0.00694
G1 X129.782 Y97.210 E0.00697
G1 X130.019 Y97.752 E0.00686
G1 X130.125 Y98.344 E0.00696
G1 X129.265 Y110.518 E0.14134
G1 X128.962 Y111.275 E0.00944
G1 X128.433 Y111.895 E0.00944
G1 X127.736 Y112.315 E0.00943
G1 X126.947 Y112.491 E0.00935
G1 X124.897 Y112.482 E0.02374
G1 X123.946 Y112.185 E0.01154
G1 X123.425 Y111.807 E0.00745
G1 X123.020 Y111.314 E0.00739
G1 X122.754 Y110.746 E0.00727
G1 X122.636 Y110.115 E0.00743
G1 X122.645 Y103.876 E0.07225
G1 X123.515 Y97.692 E0.07231
G1 X123.831 Y96.938 E0.00947
M204 S1000
G1 F8640.000
G1 X124.406 Y96.280 E-0.20177
G1 X125.140 Y95.875 E-0.19359
G1 X125.979 Y95.732 E-0.19642
G1 X126.701 Y95.827 E-0.16821
G1 E-0.04000 F2100.00000
G1 Z0.700 F10800.000
G1 X129.458 Y94.067
G1 Z0.100
G1 E0.80000 F2100.00000
M204 S500
G1 F1200.000
G1 X130.687 Y94.768 E0.01638
G1 X131.712 Y95.911 E0.01778
G1 X132.217 Y97.015 E0.01406
G1 X132.437 Y98.148 E0.01337
G1 X132.015 Y101.541 E0.03959
M204 S1000
G1 F8640.000
G1 X132.421 Y98.275 E-0.76000
G1 E-0.04000 F2100.00000
G1 Z0.700 F10800.000
G1 X131.579 Y107.778
G1 Z0.100
G1 E0.80000 F2100.00000
M204 S500
G1 F1200.000
G1 X131.515 Y111.092 E0.03838
G1 X130.944 Y112.473 E0.01730
G1 X129.997 Y113.617 E0.01720
G1 X128.907 Y114.295 E0.01487
G1 X127.362 Y114.717 E0.01854
G1 X124.213 Y114.660 E0.03648
G1 X122.607 Y114.072 E0.01980
G1 X121.689 Y113.354 E0.01350
G1 X121.005 Y112.458 E0.01305
G1 X120.533 Y111.405 E0.01337
G1 X120.317 Y110.210 E0.01405
G1 X120.337 Y103.666 E0.07579
G1 X121.280 Y97.084 E0.07700
G1 X121.803 Y95.794 E0.01612
G1 X122.348 Y95.051 E0.01067
G1 X123.025 Y94.406 E0.01083
G1 X124.504 Y93.670 E0.01912
G1 X126.178 Y93.491 E0.01950
G1 X129.458 Y94.067 E0.03857
M204 S1000
G1 F8640.000
G1 X126.216 Y93.498 E-0.76000
G1 E-0.04000 F2100.00000
G1 Z0.700 F10800.000
G1 X123.157 Y94.658
G1 Z0.100
G1 E0.80000 F2100.00000
M204 S500
G1 F1200.000
G1 X123.177 Y94.641 E0.00031
M204 S1000
G1 F8640.000
G1 X123.157 Y94.658 E-0.00612
G1 E-0.79388 F2100.00000
G1 Z0.700 F10800.000
G1 X129.392 Y106.738
G1 Z0.100
G1 E0.80000 F2100.00000
M204 S500
G1 F1200.000
G1 X129.415 Y104.384 E0.02726
G1 X129.723 Y102.061 E0.02713
M204 S1000
G1 F8640.000
G1 X129.415 Y104.384 E-0.54105
G1 X129.406 Y105.332 E-0.21895
G1 E-0.04000 F2100.00000
G1 Z0.700 F10800.000
G1 X128.682 Y96.454
G1 Z0.100
G1 E0.80000 F2100.00000
M204 S500
G1 F1200.000
G1 X129.180 Y96.774 E0.00686
G1 X129.560 Y97.201 E0.00661
G1 X129.827 Y97.775 E0.00733
G1 X129.936 Y98.382 E0.00714
G1 X129.136 Y104.365 E0.06990
G1 X129.087 Y110.443 E0.07039
G1 X128.858 Y111.072 E0.00776
G1 X128.423 Y111.659 E0.00846
G1 X127.985 Y111.960 E0.00616
G1 X127.214 Y112.207 E0.00937
G1 X124.479 Y112.157 E0.03167
G1 X123.872 Y111.907 E0.00760
G1 X123.404 Y111.521 E0.00702
G1 X123.144 Y111.152 E0.00523
G1 X122.957 Y110.753 E0.00510
G1 X122.824 Y110.095 E0.00778
G1 X122.833 Y103.911 E0.07162
G1 X123.686 Y97.792 E0.07154
G1 X123.934 Y97.125 E0.00824
G1 X124.216 Y96.723 E0.00568
G1 X124.583 Y96.377 E0.00585
G1 X125.227 Y96.071 E0.00826
G1 X125.924 Y95.991 E0.00812
G1 X128.645 Y96.447 E0.03195
M204 S1000
G1 X128.557 Y96.704 F10800.000
M204 S500
G1 F1200.000
G1 X128.985 Y96.975 E0.00586
G1 X129.337 Y97.370 E0.00613
G1 X129.566 Y97.873 E0.00640
G1 X129.658 Y98.408 E0.00628
G1 X128.858 Y104.345 E0.06938
G1 X128.817 Y110.372 E0.06980
G1 X128.620 Y110.926 E0.00680
G1 X128.243 Y111.445 E0.00743
G1 X127.876 Y111.703 E0.00519
G1 X127.195 Y111.928 E0.00832
G1 X124.512 Y111.879 E0.03107
G1 X124.003 Y111.660 E0.00643
G1 X123.599 Y111.321 E0.00611
G1 X123.380 Y111.003 E0.00447
G1 X123.226 Y110.680 E0.00415
G1 X123.102 Y110.081 E0.00709
G1 X123.110 Y103.940 E0.07112
G1 X123.960 Y97.845 E0.07126
G1 X124.172 Y97.270 E0.00710
G1 X124.435 Y96.896 E0.00530
G1 X124.756 Y96.596 E0.00509
G1 X125.323 Y96.333 E0.00724
G1 X125.898 Y96.269 E0.00670
G1 X128.520 Y96.698 E0.03077
M204 S1000
G1 X128.433 Y96.955 F10800.000
M204 S500
G1 F1200.000
G1 X128.819 Y97.199 E0.00529
G1 X129.112 Y97.536 E0.00518
G1 X129.304 Y97.969 E0.00548
G1 X129.380 Y98.432 E0.00543
G1 X128.579 Y104.325 E0.06888
G1 X128.546 Y110.304 E0.06924
G1 X128.381 Y110.782 E0.00586
G1 X128.060 Y111.234 E0.00642
G1 X127.765 Y111.447 E0.00421
G1 X127.175 Y111.649 E0.00723
G1 X124.547 Y111.601 E0.03043
G1 X124.137 Y111.416 E0.00521
G1 X123.795 Y111.123 E0.00522
G1 X123.626 Y110.872 E0.00350
G1 X123.495 Y110.604 E0.00346
G1 X123.381 Y110.066 E0.00637
G1 X123.387 Y103.969 E0.07061
G1 X124.234 Y97.898 E0.07098
G1 X124.411 Y97.414 E0.00598
G1 X124.637 Y97.089 E0.00458
G1 X124.929 Y96.816 E0.00463
G1 X125.416 Y96.596 E0.00619
G1 X125.872 Y96.547 E0.00531
G1 X128.396 Y96.949 E0.02959
M204 S1000
G1 X128.312 Y97.207 F10800.000
M204 S500
G1 F1200.000
G1 X128.626 Y97.401 E0.00427
G1 X128.868 Y97.672 E0.00421
G1 X129.032 Y98.033 E0.00459
G1 X129.102 Y98.456 E0.00497
G1 X128.301 Y104.306 E0.06837
G1 X128.275 Y110.238 E0.06869
G1 X128.140 Y110.641 E0.00493
G1 X127.874 Y111.025 E0.00541
G1 X127.650 Y111.192 E0.00324
G1 X127.152 Y111.371 E0.00612
G1 X124.633 Y111.335 E0.02918
G1 X124.300 Y111.189 E0.00421
G1 X124.014 Y110.949 E0.00432
G1 X123.872 Y110.741 E0.00292
G1 X123.753 Y110.498 E0.00313
G1 X123.659 Y110.052 E0.00528
G1 X123.664 Y103.998 E0.07011
G1 X124.508 Y97.951 E0.07070
G1 X124.651 Y97.557 E0.00485
G1 X124.856 Y97.261 E0.00418
G1 X125.099 Y97.037 E0.00382
G1 X125.506 Y96.860 E0.00514
G1 X125.847 Y96.825 E0.00397
G1 X128.275 Y97.201 E0.02844
M204 S1000
G1 X128.190 Y97.459 F10800.000
M204 S500
G1 F1200.000
G1 X128.463 Y97.627 E0.00371
G1 X128.624 Y97.807 E0.00279
G1 X128.770 Y98.130 E0.00411
G1 X128.824 Y98.478 E0.00408
G1 X128.022 Y104.286 E0.06790
G1 X128.003 Y110.174 E0.06818
G1 X127.897 Y110.504 E0.00401
G1 X127.685 Y110.820 E0.00441
G1 X127.530 Y110.940 E0.00227
G1 X127.128 Y111.092 E0.00498
G1 X124.719 Y111.069 E0.02790
G1 X124.430 Y110.942 E0.00365
G1 X124.233 Y110.776 E0.00298
G1 X124.108 Y110.593 E0.00257
G1 X124.011 Y110.393 E0.00257
G1 X123.938 Y110.038 E0.00420
G1 X123.941 Y104.026 E0.06961
G1 X124.781 Y98.004 E0.07042
G1 X124.891 Y97.699 E0.00375
G1 X125.057 Y97.454 E0.00342
G1 X125.269 Y97.260 E0.00333
G1 X125.592 Y97.126 E0.00405
G1 X125.823 Y97.103 E0.00269
G1 X128.153 Y97.454 E0.02728
M204 S1000
G1 X128.068 Y97.711 F10800.000
M204 S500
G1 F1200.000
G1 X128.297 Y97.852 E0.00311
G1 X128.397 Y97.969 E0.00179
G1 X128.507 Y98.222 E0.00318
G1 X128.545 Y98.496 E0.00321
G1 X127.744 Y104.266 E0.06746
G1 X127.725 Y110.149 E0.06812
G1 X127.640 Y110.396 E0.00302
G1 X127.491 Y110.620 E0.00311
G1 X127.403 Y110.691 E0.00131
G1 X127.100 Y110.813 E0.00379
G1 X124.804 Y110.802 E0.02659
G1 X124.561 Y110.695 E0.00308
G1 X124.451 Y110.603 E0.00166
G1 X124.354 Y110.462 E0.00198
G1 X124.270 Y110.288 E0.00224
G1 X124.216 Y110.024 E0.00311
G1 X124.219 Y104.055 E0.06912
G1 X125.055 Y98.056 E0.07015
G1 X125.133 Y97.837 E0.00269
G1 X125.259 Y97.647 E0.00264
G1 X125.437 Y97.484 E0.00280
G1 X125.673 Y97.393 E0.00292
G1 X125.800 Y97.381 E0.00148
G1 X128.031 Y97.706 E0.02611
M204 S1000
G1 X128.131 Y98.077 F10800.000
M204 S500
G1 F1200.000
G1 X128.234 Y98.281 E0.00265
G1 X128.267 Y98.515 E0.00273
G1 X127.465 Y104.247 E0.06702
G1 X127.446 Y110.121 E0.06803
G1 X127.386 Y110.282 E0.00199
G1 X127.290 Y110.427 E0.00201
G1 X127.068 Y110.535 E0.00286
G1 X124.889 Y110.535 E0.02524
G1 X124.671 Y110.430 E0.00281
G1 X124.530 Y110.187 E0.00325
G1 X124.493 Y109.987 E0.00236
G1 X124.496 Y104.084 E0.06835
G1 X125.324 Y98.131 E0.06960
G1 X125.376 Y97.975 E0.00191
G1 X125.481 Y97.817 E0.00219
G1 X125.598 Y97.712 E0.00182
G1 X125.777 Y97.659 E0.00216
G1 X127.947 Y97.964 E0.02537
G1 X128.099 Y98.057 E0.00207
M204 S1000
G1 X127.922 Y98.270 F10800.000
M204 S500
G1 F1200.000
G1 X127.972 Y98.379 E0.00138
G1 X127.988 Y98.496 E0.00137
G1 X127.187 Y104.227 E0.06702
G1 X127.176 Y110.052 E0.06746
G1 X127.088 Y110.227 E0.00227
G1 X127.031 Y110.256 E0.00074
G1 X124.927 Y110.257 E0.02437
G1 X124.867 Y110.226 E0.00077
G1 X124.836 Y110.182 E0.00063
G1 X124.790 Y110.086 E0.00124
G1 X124.771 Y109.975 E0.00130
G1 X124.774 Y104.094 E0.06811
G1 X125.598 Y98.184 E0.06910
G1 X125.632 Y98.086 E0.00121
