; generated by PrusaSlicer 2.2.0 on 2020-07-30 at 13:28:11 UTC

; 

; external perimeters extrusion width = 0.25mm
; perimeters extrusion width = 0.25mm
; infill extrusion width = 0.25mm
; solid infill extrusion width = 0.25mm
; top infill extrusion width = 0.25mm
; support material extrusion width = 0.20mm
; first layer extrusion width = 0.30mm

M73 P0 R28
M73 Q0 S28
M201 X1000 Y1000 Z200 E5000 ; sets maximum accelerations, mm/sec^2
M203 X200 Y200 Z12 E120 ; sets maximum feedrates, mm/sec
M204 P1250 R1250 T1250 ; sets acceleration (P, T) and retract acceleration (R), mm/sec^2
M205 X8.00 Y8.00 Z0.40 E4.50 ; sets the jerk limits, mm/sec
M205 S0 T0 ; sets the minimum extruding and travel feed rate, mm/sec
M107
M862.3 P "MK3S" ; printer model check
M862.1 P0.25 ; nozzle diameter check
M115 U3.9.0 ; tell printer latest fw version
G90 ; use absolute coordinates
M83 ; extruder relative mode
M104 S215 ; set extruder temp
M140 S60 ; set bed temp
M190 S60 ; wait for bed temp
M109 S215 ; wait for extruder temp
G28 W ; home all without mesh bed level
G80 ; mesh bed leveling
G1 Y-3.0 F1000.0 ; go outside print area
G92 E0.0
G1 X60.0 E9.0 F1000.0 ; intro line
M73 Q0 S28
M73 P0 R28
G1 X100.0 E12.5 F1000.0 ; intro line
G92 E0.0
M221 S95
G21 ; set units to millimeters
G90 ; use absolute coordinates
M83 ; use relative distances for extrusion
M900 K0.06 ; Filament gcode LA 1.5
M900 K30 ; Filament gcode LA 1.0
;BEFORE_LAYER_CHANGE
G92 E0.0
;0.1


G1 E-0.80000 F2100.00000
G1 Z0.600 F10800.000
;AFTER_LAYER_CHANGE
;0.1
G1 X122.699 Y79.078
G1 Z0.100
G1 E0.80000 F2100.00000
M204 S500
G1 F1200.000
G1 X123.193 Y78.535 E0.00850
G1 X123.810 Y78.139 E0.00849
G1 X124.514 Y77.915 E0.00855
G1 X135.224 Y77.419 E0.12416
G1 X172.797 Y78.085 E0.43517
G1 X173.755 Y78.291 E0.01135
G1 X174.590 Y78.819 E0.01144
G1 X174.946 Y79.213 E0.00616
G1 X175.222 Y79.667 E0.00615
G1 X175.494 Y80.682 E0.01216
G1 X176.172 Y100.824 E0.23339
G1 X176.168 Y112.549 E0.13578
G1 X175.952 Y113.486 E0.01113
G1 X175.435 Y114.291 E0.01108
G1 X175.035 Y114.651 E0.00623
G1 X174.584 Y114.923 E0.00610
G1 X174.068 Y115.112 E0.00637
G1 X173.543 Y115.196 E0.00616
G1 X158.862 Y115.382 E0.17001
G1 X134.978 Y114.194 E0.27693
G1 X123.987 Y113.550 E0.12750
G1 X123.071 Y113.328 E0.01091
G1 X122.288 Y112.822 E0.01079
G1 X121.918 Y112.411 E0.00640
G1 X121.633 Y111.927 E0.00650
G1 X121.451 Y111.401 E0.00646
G1 X121.376 Y110.845 E0.00650
G1 X121.379 Y86.631 E0.28041
G1 X122.226 Y80.284 E0.07414
G1 X122.366 Y79.721 E0.00672
G1 X122.682 Y79.111 E0.00795
M204 S1000
G1 X122.928 Y79.239 F10800.000
M204 S500
G1 F1200.000
G1 X123.381 Y78.741 E0.00780
G1 X123.945 Y78.383 E0.00773
G1 X124.588 Y78.185 E0.00780
G1 X135.211 Y77.697 E0.12314
G1 X172.781 Y78.363 E0.43515
G1 X173.646 Y78.547 E0.01023
G1 X174.401 Y79.023 E0.01034
G1 X174.969 Y79.785 E0.01101
G1 X175.218 Y80.715 E0.01115
G1 X175.893 Y100.832 E0.23309
G1 X175.891 Y112.526 E0.13542
G1 X175.698 Y113.370 E0.01003
G1 X175.234 Y114.098 E0.00999
G1 X174.452 Y114.678 E0.01127
G1 X173.523 Y114.918 E0.01112
G1 X158.870 Y115.103 E0.16970
G1 X134.992 Y113.916 E0.27686
G1 X124.008 Y113.273 E0.12742
G1 X123.183 Y113.073 E0.00983
G1 X122.477 Y112.618 E0.00974
G1 X122.135 Y112.235 E0.00594
G1 X121.881 Y111.799 E0.00585
G1 X121.716 Y111.313 E0.00594
G1 X121.654 Y110.820 E0.00575
G1 X121.658 Y86.623 E0.28021
G1 X122.502 Y80.323 E0.07361
G1 X122.628 Y79.818 E0.00603
G1 X122.911 Y79.272 E0.00712
M204 S1000
G1 F8640.000
G1 X123.381 Y78.741 E-0.16394
G1 X123.945 Y78.383 E-0.15408
G1 X124.588 Y78.185 E-0.15549
G1 X125.828 Y78.128 E-0.28648
G1 E-0.04000 F2100.00000
G1 Z0.700 F10800.000
G1 X166.933 Y78.399
G1 Z0.100
G1 E0.80000 F2100.00000
M204 S500
G1 F1200.000
G1 X166.758 Y78.655 E0.00360
G1 X166.327 Y79.820 E0.01437
G1 X166.253 Y92.992 E0.15254
G1 X166.558 Y94.201 E0.01444
G1 X166.887 Y94.857 E0.00849
G1 X167.286 Y95.451 E0.00829
G1 X168.383 Y96.418 E0.01694
G1 X169.166 Y96.762 E0.00990
G1 X168.114 Y97.656 E0.01599
G1 X167.444 Y98.630 E0.01369
G1 X166.998 Y99.824 E0.01476
G1 X166.915 Y112.928 E0.15174
G1 X167.228 Y114.206 E0.01524
G1 X167.554 Y114.854 E0.00840
M204 S1000
G1 X167.929 Y115.406 F10800.000
M204 S500
G1 F1200.000
G1 X167.981 Y115.483 E0.00107
G1 X169.130 Y116.470 E0.01753
G1 X170.577 Y117.051 E0.01807
G1 X174.791 Y116.983 E0.04881
G1 X174.997 Y116.934 E0.00244
G1 X176.072 Y116.403 E0.01389
G1 X176.980 Y115.633 E0.01378
G1 X177.665 Y114.630 E0.01406
G1 X178.096 Y113.466 E0.01437
G1 X178.168 Y100.294 E0.15254
G1 X177.789 Y98.915 E0.01656
G1 X177.014 Y97.695 E0.01674
G1 X176.182 Y96.992 E0.01261
M204 S1000
G1 X175.613 Y96.636 F10800.000
M204 S500
G1 F1200.000
G1 X175.305 Y96.482 E0.00399
G1 X175.599 Y96.232 E0.00447
M204 S1000
G1 X176.141 Y95.771 F10800.000
M204 S500
G1 F1200.000
G1 X176.309 Y95.628 E0.00255
G1 X176.979 Y94.655 E0.01368
G1 X177.425 Y93.462 E0.01476
G1 X177.507 Y80.365 E0.15167
G1 X177.119 Y78.912 E0.01741
G1 X176.316 Y77.660 E0.01723
G1 X175.277 Y76.794 E0.01566
G1 X174.608 Y76.467 E0.00862
M204 S1000
M204 S500
G1 X173.889 Y76.233 E0.00876
G1 X169.558 Y76.315 E0.05016
G1 X169.442 Y76.343 E0.00138
G1 X168.351 Y76.881 E0.01408
G1 X167.444 Y77.652 E0.01379
G1 X167.309 Y77.848 E0.00276
M204 S1000
G1 X167.642 Y77.854 F10800.000
M204 S500
G1 F1200.000
G1 X168.517 Y77.105 E0.01334
G1 X169.579 Y76.593 E0.01365
G1 X173.825 Y76.505 E0.04918
M204 S1000
M204 S500
G1 X174.494 Y76.722 E0.00814
G1 X175.139 Y77.037 E0.00831
G1 X176.120 Y77.859 E0.01483
G1 X176.872 Y79.043 E0.01625
G1 X177.229 Y80.381 E0.01604
G1 X177.147 Y93.435 E0.15117
G1 X176.740 Y94.511 E0.01332
G1 X176.129 Y95.399 E0.01249
M204 S1000
G1 X175.588 Y95.878 F10800.000
M204 S500
G1 F1200.000
G1 X175.236 Y96.175 E0.00533
G1 X174.536 Y96.521 E0.00904
G1 X175.183 Y96.734 E0.00788
G1 X175.624 Y96.950 E0.00569
M204 S1000
G1 X176.195 Y97.364 F10800.000
M204 S500
G1 F1200.000
G1 X176.791 Y97.864 E0.00901
G1 X177.526 Y99.009 E0.01576
G1 X177.894 Y100.349 E0.01609
G1 X177.817 Y113.439 E0.15159
G1 X177.411 Y114.515 E0.01332
G1 X176.761 Y115.459 E0.01327
G1 X175.906 Y116.179 E0.01294
G1 X174.888 Y116.677 E0.01312
G1 X174.772 Y116.704 E0.00139
G1 X170.601 Y116.772 E0.04830
G1 X169.257 Y116.221 E0.01683
G1 X168.306 Y115.401 E0.01453
M204 S1000
G1 X167.887 Y114.850 F10800.000
M204 S500
G1 F1200.000
G1 X167.794 Y114.713 E0.00192
G1 X167.484 Y114.095 E0.00800
G1 X167.194 Y112.912 E0.01411
G1 X167.276 Y99.851 E0.15125
G1 X167.682 Y98.775 E0.01333
G1 X168.333 Y97.830 E0.01328
G1 X169.188 Y97.109 E0.01295
G1 X169.887 Y96.764 E0.00902
G1 X168.549 Y96.194 E0.01683
G1 X167.507 Y95.280 E0.01605
G1 X167.123 Y94.709 E0.00797
G1 X166.814 Y94.091 E0.00801
G1 X166.527 Y92.942 E0.01371
G1 X166.606 Y79.847 E0.15165
G1 X167.012 Y78.770 E0.01332
G1 X167.264 Y78.404 E0.00514
M204 S1000
G1 F8640.000
G1 X167.012 Y78.770 E-0.10253
G1 X166.606 Y79.847 E-0.26569
G1 X166.595 Y81.543 E-0.39178
G1 E-0.04000 F2100.00000
G1 Z0.700 F10800.000
G1 X175.069 Y96.988
G1 Z0.100
G1 E0.80000 F2100.00000
M204 S500
G1 F1200.000
G1 X175.634 Y97.266 E0.00729
M204 S1000
G1 X175.069 Y96.988 F10800.000
M204 S500
G1 F1200.000
G1 X174.432 Y96.782 E0.00775
G1 X170.301 Y96.875 E0.04785
G1 X169.353 Y97.334 E0.01221
G1 X168.551 Y98.004 E0.01210
G1 X167.936 Y98.891 E0.01250
G1 X167.554 Y99.879 E0.01226
G1 X167.473 Y112.897 E0.15076
G1 X167.741 Y113.985 E0.01298
G1 X168.030 Y114.565 E0.00751
G1 X168.219 Y114.846 E0.00391
M204 S1000
G1 X168.723 Y115.396 F10800.000
M204 S500
G1 F1200.000
G1 X169.385 Y115.973 E0.01017
G1 X170.626 Y116.493 E0.01558
G1 X174.752 Y116.426 E0.04778
G1 X175.741 Y115.954 E0.01269
G1 X176.543 Y115.285 E0.01210
G1 X177.157 Y114.399 E0.01248
G1 X177.539 Y113.412 E0.01226
G1 X177.620 Y100.403 E0.15065
G1 X177.280 Y99.142 E0.01513
G1 X176.568 Y98.032 E0.01526
G1 X176.207 Y97.731 E0.00545
M204 S1000
G1 X176.219 Y98.096 F10800.000
M204 S500
G1 F1200.000
G1 X176.346 Y98.201 E0.00190
G1 X177.034 Y99.273 E0.01476
G1 X177.346 Y100.456 E0.01417
G1 X177.270 Y113.336 E0.14915
G1 X176.918 Y114.255 E0.01140
G1 X176.350 Y115.083 E0.01163
G1 X175.576 Y115.729 E0.01167
G1 X174.702 Y116.148 E0.01124
G1 X170.706 Y116.225 E0.04628
G1 X169.550 Y115.747 E0.01448
G1 X169.138 Y115.391 E0.00631
M204 S1000
G1 X168.551 Y114.842 F10800.000
M204 S500
G1 F1200.000
G1 X168.266 Y114.418 E0.00592
G1 X167.997 Y113.875 E0.00701
G1 X167.747 Y112.848 E0.01224
G1 X167.824 Y99.954 E0.14931
G1 X168.175 Y99.035 E0.01140
G1 X168.744 Y98.206 E0.01164
G1 X169.518 Y97.560 E0.01167
G1 X170.395 Y97.139 E0.01126
G1 X174.369 Y97.054 E0.04603
M204 S1000
M204 S500
G1 X174.974 Y97.250 E0.00736
G1 X175.534 Y97.527 E0.00723
G1 X175.646 Y97.620 E0.00169
M204 S1000
G1 X175.659 Y97.989 F10800.000
M204 S500
G1 F1200.000
G1 X175.395 Y97.769 E0.00397
G1 X174.860 Y97.505 E0.00692
M204 S1000
M204 S500
G1 X174.306 Y97.326 E0.00674
G1 X170.487 Y97.404 E0.04423
G1 X169.681 Y97.786 E0.01032
G1 X168.962 Y98.380 E0.01081
G1 X168.429 Y99.150 E0.01084
G1 X168.093 Y100.030 E0.01092
G1 X168.022 Y112.799 E0.14787
G1 X168.254 Y113.766 E0.01151
G1 X168.504 Y114.272 E0.00654
G1 X168.817 Y114.746 E0.00658
G1 X168.921 Y114.837 E0.00160
M204 S1000
G1 X169.549 Y115.386 F10800.000
M204 S500
G1 F1200.000
G1 X169.678 Y115.499 E0.00199
G1 X170.785 Y115.956 E0.01388
G1 X174.609 Y115.884 E0.04429
G1 X175.413 Y115.503 E0.01030
G1 X176.132 Y114.909 E0.01081
G1 X176.664 Y114.140 E0.01083
G1 X177.001 Y113.260 E0.01091
G1 X177.072 Y100.508 E0.14767
G1 X176.786 Y99.403 E0.01322
G1 X176.234 Y98.533 E0.01194
M204 S1000
G1 X176.252 Y99.076 F10800.000
M204 S500
G1 F1200.000
G1 X176.538 Y99.532 E0.00624
G1 X176.798 Y100.559 E0.01226
G1 X176.731 Y113.185 E0.14621
G1 X176.424 Y113.997 E0.01005
G1 X175.938 Y114.707 E0.00997
G1 X175.277 Y115.259 E0.00997
G1 X174.517 Y115.620 E0.00975
G1 X170.864 Y115.688 E0.04231
G1 X170.103 Y115.379 E0.00951
M204 S1000
G1 X169.334 Y114.832 F10800.000
M204 S500
G1 F1200.000
G1 X169.039 Y114.576 E0.00452
G1 X168.750 Y114.140 E0.00605
G1 X168.511 Y113.657 E0.00624
G1 X168.297 Y112.752 E0.01077
G1 X168.362 Y100.105 E0.14645
G1 X168.669 Y99.293 E0.01006
G1 X169.155 Y98.581 E0.00998
G1 X169.817 Y98.030 E0.00997
G1 X170.579 Y97.668 E0.00977
G1 X174.242 Y97.599 E0.04243
M204 S1000
M204 S500
G1 X174.764 Y97.767 E0.00635
G1 X175.256 Y98.011 E0.00636
G1 X175.671 Y98.361 E0.00628
M204 S1000
G1 X175.684 Y98.735 F10800.000
M204 S500
G1 F1200.000
G1 X175.116 Y98.252 E0.00863
G1 X174.669 Y98.028 E0.00579
M204 S1000
M204 S500
G1 X174.179 Y97.871 E0.00596
G1 X170.670 Y97.933 E0.04064
G1 X169.980 Y98.256 E0.00883
G1 X169.374 Y98.755 E0.00909
G1 X168.909 Y99.436 E0.00955
G1 X168.632 Y100.179 E0.00919
G1 X168.572 Y112.705 E0.14505
G1 X168.768 Y113.549 E0.01004
G1 X168.987 Y113.994 E0.00574
G1 X169.260 Y114.406 E0.00572
G1 X169.750 Y114.827 E0.00748
M204 S1000
G1 F8640.000
G1 X169.260 Y114.406 E-0.14916
G1 X168.987 Y113.994 E-0.11409
G1 X168.768 Y113.549 E-0.11455
G1 X168.572 Y112.705 E-0.20010
G1 X168.576 Y111.916 E-0.18211
G1 E-0.04000 F2100.00000
G1 Z0.700 F10800.000
G1 X170.817 Y115.370
G1 Z0.100
G1 E0.80000 F2100.00000
M204 S500
G1 F1200.000
G1 X170.941 Y115.419 E0.00153
G1 X174.426 Y115.355 E0.04036
G1 X175.114 Y115.032 E0.00881
G1 X175.720 Y114.534 E0.00908
G1 X176.185 Y113.854 E0.00954
G1 X176.462 Y113.111 E0.00918
G1 X176.523 Y100.608 E0.14479
G1 X176.271 Y99.629 E0.01171
M204 S1000
G1 X175.700 Y99.227 F10800.000
M204 S500
G1 F1200.000
G1 X175.557 Y98.993 E0.00318
G1 X174.976 Y98.493 E0.00887
G1 X174.554 Y98.282 E0.00546
G1 X174.116 Y98.143 E0.00533
M204 S1000
M204 S500
G1 X170.762 Y98.198 E0.03885
G1 X170.114 Y98.501 E0.00828
G1 X169.568 Y98.956 E0.00824
G1 X169.149 Y99.577 E0.00867
G1 X168.902 Y100.252 E0.00833
G1 X168.847 Y112.659 E0.14367
G1 X169.025 Y113.441 E0.00930
G1 X169.224 Y113.848 E0.00524
G1 X169.481 Y114.235 E0.00538
G1 X170.175 Y114.821 E0.01052
M204 S1000
G1 X170.912 Y114.812 F10800.000
M204 S500
G1 F1200.000
G1 X170.328 Y114.590 E0.00723
G1 X169.701 Y114.063 E0.00948
G1 X169.470 Y113.717 E0.00483
G1 X169.283 Y113.334 E0.00493
G1 X169.122 Y112.613 E0.00855
G1 X169.171 Y100.325 E0.14231
G1 X169.405 Y99.689 E0.00784
G1 X169.786 Y99.130 E0.00784
G1 X170.276 Y98.728 E0.00734
G1 X170.851 Y98.463 E0.00733
G1 X174.053 Y98.415 E0.03708
G1 X174.459 Y98.544 E0.00493
M204 S1000
M204 S500
G1 X174.834 Y98.734 E0.00487
G1 X175.357 Y99.188 E0.00802
G1 X175.719 Y99.791 E0.00814
M204 S1000
G1 X175.156 Y99.382 F10800.000
M204 S500
G1 F1200.000
G1 X175.538 Y100.030 E0.00871
G1 X175.698 Y100.748 E0.00852
G1 X175.652 Y112.893 E0.14065
G1 X175.447 Y113.460 E0.00698
G1 X175.113 Y113.958 E0.00695
G1 X174.684 Y114.316 E0.00647
G1 X174.154 Y114.560 E0.00676
G1 X171.161 Y114.609 E0.03466
G1 X170.487 Y114.360 E0.00833
G1 X169.921 Y113.891 E0.00850
G1 X169.707 Y113.570 E0.00447
G1 X169.541 Y113.228 E0.00441
G1 X169.398 Y112.569 E0.00780
G1 X169.442 Y100.397 E0.14097
G1 X169.646 Y99.829 E0.00698
G1 X169.981 Y99.331 E0.00696
G1 X170.410 Y98.973 E0.00647
G1 X170.941 Y98.728 E0.00677
G1 X173.991 Y98.688 E0.03532
G1 X174.344 Y98.798 E0.00428
G1 X174.693 Y98.974 E0.00453
G1 X175.128 Y99.357 E0.00671
M204 S1000
G1 X174.929 Y99.545 F10800.000
M204 S500
G1 F1200.000
G1 X175.271 Y100.113 E0.00768
G1 X175.423 Y100.794 E0.00807
G1 X175.381 Y112.823 E0.13931
G1 X175.205 Y113.322 E0.00613
G1 X174.919 Y113.758 E0.00604
G1 X174.521 Y114.089 E0.00600
G1 X174.066 Y114.294 E0.00577
G1 X171.234 Y114.339 E0.03280
G1 X170.606 Y114.107 E0.00776
G1 X170.141 Y113.720 E0.00700
G1 X169.953 Y113.440 E0.00391
G1 X169.799 Y113.122 E0.00409
G1 X169.673 Y112.527 E0.00705
G1 X169.712 Y100.467 E0.13966
G1 X169.888 Y99.967 E0.00613
G1 X170.175 Y99.531 E0.00605
G1 X170.573 Y99.199 E0.00600
G1 X171.029 Y98.994 E0.00578
G1 X173.928 Y98.960 E0.03358
G1 X174.249 Y99.061 E0.00389
G1 X174.551 Y99.215 E0.00393
G1 X174.901 Y99.520 E0.00538
M204 S1000
G1 X174.717 Y99.728 F10800.000
M204 S500
G1 F1200.000
G1 X175.019 Y100.234 E0.00682
G1 X175.148 Y100.836 E0.00713
G1 X175.111 Y112.754 E0.13802
G1 X174.962 Y113.184 E0.00526
G1 X174.698 Y113.586 E0.00557
G1 X174.361 Y113.861 E0.00504
G1 X173.980 Y114.028 E0.00481
G1 X171.303 Y114.069 E0.03100
G1 X170.763 Y113.875 E0.00665
G1 X170.361 Y113.547 E0.00601
G1 X170.190 Y113.293 E0.00354
G1 X170.058 Y113.017 E0.00354
G1 X169.949 Y112.485 E0.00629
G1 X169.983 Y100.535 E0.13839
G1 X170.131 Y100.105 E0.00527
G1 X170.396 Y99.703 E0.00558
G1 X170.733 Y99.428 E0.00504
G1 X171.114 Y99.260 E0.00482
G1 X173.867 Y99.233 E0.03189
G1 X174.133 Y99.314 E0.00322
G1 X174.408 Y99.454 E0.00357
G1 X174.689 Y99.703 E0.00434
M204 S1000
G1 F8640.000
G1 X175.019 Y100.234 E-0.14436
G1 X175.148 Y100.836 E-0.14224
G1 X175.141 Y102.887 E-0.47340
G1 E-0.04000 F2100.00000
G1 Z0.700 F10800.000
G1 X171.200 Y99.527
G1 Z0.100
G1 E0.80000 F2100.00000
M204 S500
G1 F1200.000
G1 X173.808 Y99.505 E0.03020
G1 X174.019 Y99.568 E0.00255
G1 X174.264 Y99.694 E0.00320
G1 X174.523 Y99.928 E0.00405
G1 X174.766 Y100.352 E0.00566
G1 X174.869 Y100.850 E0.00588
G1 X174.839 Y112.688 E0.13709
G1 X174.718 Y113.050 E0.00442
G1 X174.502 Y113.387 E0.00464
G1 X174.230 Y113.614 E0.00410
G1 X173.894 Y113.762 E0.00425
G1 X171.374 Y113.798 E0.02918
G1 X170.879 Y113.621 E0.00608
G1 X170.580 Y113.374 E0.00450
G1 X170.437 Y113.163 E0.00296
G1 X170.317 Y112.913 E0.00320
G1 X170.225 Y112.446 E0.00552
G1 X170.254 Y100.602 E0.13715
G1 X170.376 Y100.239 E0.00443
G1 X170.592 Y99.902 E0.00464
G1 X170.864 Y99.675 E0.00411
G1 X171.166 Y99.542 E0.00382
M204 S1000
G1 X171.278 Y99.797 F10800.000
M204 S500
G1 F1200.000
G1 X173.751 Y99.778 E0.02863
G1 X173.904 Y99.823 E0.00185
G1 X174.122 Y99.934 E0.00283
G1 X174.295 Y100.089 E0.00270
G1 X174.499 Y100.433 E0.00463
G1 X174.591 Y100.864 E0.00510
G1 X174.568 Y112.620 E0.13614
G1 X174.460 Y112.944 E0.00395
G1 X174.281 Y113.217 E0.00378
G1 X174.100 Y113.367 E0.00272
G1 X173.808 Y113.495 E0.00370
G1 X171.398 Y113.519 E0.02790
G1 X171.001 Y113.370 E0.00492
G1 X170.800 Y113.202 E0.00303
G1 X170.673 Y113.015 E0.00261
G1 X170.576 Y112.810 E0.00263
G1 X170.503 Y112.433 E0.00445
G1 X170.525 Y100.669 E0.13623
G1 X170.634 Y100.346 E0.00395
G1 X170.813 Y100.072 E0.00378
G1 X170.994 Y99.922 E0.00273
G1 X171.244 Y99.812 E0.00316
M204 S1000
