; generated by PrusaSlicer 2.2.0 on 2020-07-23 at 20:57:12 UTC

; 

; external perimeters extrusion width = 0.25mm
; perimeters extrusion width = 0.25mm
; infill extrusion width = 0.25mm
; solid infill extrusion width = 0.25mm
; top infill extrusion width = 0.25mm
; support material extrusion width = 0.20mm
; first layer extrusion width = 0.30mm

M73 P0 R62
M73 Q0 S62
M201 X1000 Y1000 Z200 E5000 ; sets maximum accelerations, mm/sec^2
M203 X200 Y200 Z12 E120 ; sets maximum feedrates, mm/sec
M204 P1250 R1250 T1250 ; sets acceleration (P, T) and retract acceleration (R), mm/sec^2
M205 X8.00 Y8.00 Z0.40 E4.50 ; sets the jerk limits, mm/sec
M205 S0 T0 ; sets the minimum extruding and travel feed rate, mm/sec
M107
M862.3 P "MK3S" ; printer model check
M862.1 P0.25 ; nozzle diameter check
M115 U3.9.0 ; tell printer latest fw version
G90 ; use absolute coordinates
M83 ; extruder relative mode
M104 S215 ; set extruder temp
M140 S60 ; set bed temp
M190 S60 ; wait for bed temp
M109 S215 ; wait for extruder temp
G28 W ; home all without mesh bed level
G80 ; mesh bed leveling
G1 Y-3.0 F1000.0 ; go outside print area
G92 E0.0
G1 X60.0 E9.0 F1000.0 ; intro line
M73 Q0 S62
M73 P0 R62
G1 X100.0 E12.5 F1000.0 ; intro line
G92 E0.0
M221 S95
G21 ; set units to millimeters
G90 ; use absolute coordinates
M83 ; use relative distances for extrusion
M900 K0.06 ; Filament gcode LA 1.5
M900 K30 ; Filament gcode LA 1.0
;BEFORE_LAYER_CHANGE
G92 E0.0
;0.1


G1 E-0.80000 F2100.00000
G1 Z0.600 F10800.000
;AFTER_LAYER_CHANGE
;0.1
G1 X112.436 Y85.474
G1 Z0.100
G1 E0.80000 F2100.00000
M204 S500
G1 F1200.000
G1 X112.844 Y84.863 E0.00850
G1 X113.395 Y84.377 E0.00850
G1 X114.048 Y84.051 E0.00846
G1 X114.767 Y83.901 E0.00850
G1 X133.356 Y83.893 E0.21527
G1 X134.144 Y84.005 E0.00922
G1 X134.871 Y84.332 E0.00922
G1 X135.477 Y84.847 E0.00922
G1 X135.917 Y85.511 E0.00922
G1 X138.953 Y95.666 E0.12274
G1 X138.977 Y123.421 E0.32142
G1 X138.900 Y124.052 E0.00736
G1 X138.685 Y124.649 E0.00736
G1 X138.267 Y125.273 E0.00869
G1 X137.700 Y125.765 E0.00869
G1 X137.020 Y126.092 E0.00874
G1 X136.282 Y126.228 E0.00869
G1 X113.825 Y126.232 E0.26005
G1 X113.195 Y126.153 E0.00736
G1 X112.602 Y125.938 E0.00731
G1 X111.954 Y125.497 E0.00908
G1 X111.451 Y124.895 E0.00908
G1 X111.134 Y124.183 E0.00903
G1 X111.023 Y123.407 E0.00908
G1 X111.025 Y96.053 E0.31677
G1 X112.168 Y86.353 E0.11311
G1 X112.425 Y85.509 E0.01021
M204 S1000
G1 X112.689 Y85.591 F10800.000
M204 S500
G1 F1200.000
G1 X113.058 Y85.041 E0.00766
G1 X113.559 Y84.603 E0.00771
G1 X114.152 Y84.309 E0.00766
G1 X114.804 Y84.178 E0.00771
G1 X133.356 Y84.172 E0.21484
G1 X134.073 Y84.275 E0.00839
G1 X134.733 Y84.574 E0.00839
G1 X135.282 Y85.047 E0.00839
G1 X135.678 Y85.658 E0.00843
G1 X138.679 Y95.712 E0.12150
G1 X138.699 Y123.420 E0.32087
G1 X138.628 Y123.995 E0.00671
G1 X138.431 Y124.536 E0.00667
G1 X138.051 Y125.097 E0.00785
G1 X137.534 Y125.541 E0.00789
G1 X136.922 Y125.831 E0.00785
G1 X136.255 Y125.951 E0.00785
G1 X113.831 Y125.953 E0.25968
G1 X113.260 Y125.882 E0.00667
G1 X112.719 Y125.685 E0.00667
G1 X112.137 Y125.287 E0.00816
G1 X111.686 Y124.745 E0.00816
G1 X111.399 Y124.097 E0.00821
G1 X111.301 Y123.399 E0.00816
G1 X111.303 Y96.063 E0.31657
G1 X112.444 Y86.392 E0.11276
G1 X112.678 Y85.627 E0.00927
M204 S1000
G1 X112.941 Y85.710 F10800.000
M204 S500
G1 F1200.000
G1 X113.274 Y85.217 E0.00689
G1 X113.724 Y84.827 E0.00689
G1 X114.255 Y84.568 E0.00685
G1 X114.839 Y84.455 E0.00689
G1 X133.356 Y84.451 E0.21443
G1 X134.003 Y84.544 E0.00757
G1 X134.597 Y84.818 E0.00757
G1 X135.089 Y85.250 E0.00757
G1 X135.436 Y85.799 E0.00753
G1 X138.404 Y95.758 E0.12033
G1 X138.420 Y123.415 E0.32028
G1 X138.357 Y123.928 E0.00599
G1 X138.178 Y124.418 E0.00603
G1 X137.837 Y124.918 E0.00702
G1 X137.379 Y125.310 E0.00698
G1 X136.831 Y125.568 E0.00702
G1 X136.234 Y125.673 E0.00702
G1 X113.836 Y125.675 E0.25937
G1 X113.323 Y125.611 E0.00599
G1 X112.837 Y125.433 E0.00599
G1 X112.336 Y125.092 E0.00702
G1 X111.945 Y124.634 E0.00698
G1 X111.688 Y124.089 E0.00698
G1 X111.582 Y123.492 E0.00702
G1 X111.580 Y96.150 E0.31663
G1 X112.719 Y86.434 E0.11328
G1 X112.930 Y85.746 E0.00833
M204 S1000
G1 F8640.000
G1 X113.274 Y85.217 E-0.14568
G1 X113.724 Y84.827 E-0.13738
G1 X114.255 Y84.568 E-0.13653
G1 X114.839 Y84.455 E-0.13738
G1 X115.718 Y84.455 E-0.20303
G1 E-0.04000 F2100.00000
G1 Z0.700 F10800.000
G1 X110.244 Y93.165
G1 Z0.100
G1 E0.80000 F2100.00000
M204 S500
G1 F1200.000
G1 X110.244 Y86.285 E0.07967
G1 X110.711 Y84.628 E0.01994
G1 X110.848 Y84.407 E0.00301
G1 X112.278 Y82.811 E0.02481
G1 X112.998 Y82.433 E0.00942
G1 X114.513 Y81.994 E0.01827
G1 X124.867 Y81.994 E0.11990
G1 X125.265 Y82.084 E0.00472
G1 X125.664 Y81.994 E0.00475
G1 X133.910 Y82.004 E0.09549
G1 X135.948 Y82.745 E0.02511
G1 X136.549 Y83.234 E0.00897
G1 X137.571 Y84.540 E0.01921
G1 X138.075 Y86.156 E0.01959
G1 X138.088 Y90.764 E0.05336
G1 X138.240 Y90.929 E0.00260
G1 X138.610 Y91.451 E0.00741
G1 X138.919 Y92.272 E0.01015
G1 X139.201 Y92.456 E0.00390
G1 X140.195 Y93.584 E0.01742
G1 X140.877 Y95.506 E0.02361
G1 X140.877 Y103.718 E0.09510
G1 X140.271 Y105.572 E0.02259
G1 X139.763 Y106.221 E0.00955
G1 X139.763 Y113.207 E0.08090
G1 X140.271 Y113.856 E0.00955
G1 X140.877 Y115.710 E0.02259
G1 X140.877 Y123.843 E0.09418
G1 X140.541 Y125.224 E0.01646
G1 X140.471 Y125.353 E0.00170
G1 X139.068 Y127.081 E0.02578
G1 X138.048 Y127.666 E0.01361
G1 X136.910 Y127.963 E0.01362
G1 X136.155 Y127.979 E0.00875
G1 X135.883 Y128.006 E0.00316
G1 X134.733 Y128.006 E0.01332
G1 X134.531 Y127.988 E0.00235
G1 X133.170 Y128.007 E0.01576
G1 X130.829 Y128.006 E0.02711
G1 X130.637 Y127.988 E0.00223
G1 X130.292 Y128.006 E0.00400
G1 X129.162 Y128.006 E0.01308
G1 X128.960 Y127.988 E0.00235
G1 X127.600 Y128.007 E0.01575
G1 X120.802 Y128.006 E0.07872
G1 X120.610 Y127.988 E0.00224
G1 X120.265 Y128.006 E0.00401
G1 X119.135 Y128.006 E0.01308
G1 X118.932 Y127.988 E0.00235
G1 X117.572 Y128.007 E0.01575
G1 X114.128 Y128.006 E0.03989
G1 X112.983 Y127.954 E0.01327
G1 X111.896 Y127.660 E0.01303
G1 X109.952 Y126.082 E0.02900
G1 X109.549 Y125.345 E0.00973
G1 X109.123 Y123.901 E0.01744
G1 X109.123 Y115.710 E0.09485
G1 X109.729 Y113.856 E0.02259
G1 X110.237 Y113.207 E0.00955
G1 X110.237 Y106.318 E0.07978
G1 X109.798 Y105.785 E0.00800
G1 X109.123 Y103.907 E0.02311
G1 X109.123 Y95.675 E0.09533
G1 X109.729 Y93.821 E0.02259
G1 X110.220 Y93.194 E0.00922
M204 S1000
G1 F8640.000
G1 X110.231 Y89.903 E-0.76000
G1 E-0.04000 F2100.00000
G1 Z0.700 F10800.000
G1 X110.516 Y106.215
G1 Z0.100
G1 E0.80000 F2100.00000
M204 S500
G1 F1200.000
G1 X110.050 Y105.665 E0.00834
G1 X109.402 Y103.882 E0.02197
G1 X109.402 Y95.697 E0.09478
G1 X109.985 Y93.933 E0.02152
G1 X110.522 Y93.264 E0.00994
G1 X110.522 Y86.304 E0.08059
G1 X110.958 Y84.756 E0.01863
G1 X111.065 Y84.582 E0.00236
G1 X112.431 Y83.045 E0.02381
G1 X113.090 Y82.696 E0.00864
G1 X114.534 Y82.272 E0.01742
G1 X124.850 Y82.272 E0.11947
G1 X125.265 Y82.370 E0.00493
G1 X125.681 Y82.272 E0.00495
G1 X133.885 Y82.282 E0.09501
G1 X135.791 Y82.976 E0.02349
G1 X136.341 Y83.420 E0.00818
G1 X137.314 Y84.649 E0.01816
G1 X137.796 Y86.178 E0.01857
G1 X137.810 Y90.875 E0.05439
G1 X138.019 Y91.098 E0.00354
G1 X138.371 Y91.597 E0.00707
G1 X138.690 Y92.458 E0.01064
G1 X139.007 Y92.657 E0.00433
G1 X139.943 Y93.704 E0.01626
G1 X140.598 Y95.530 E0.02247
G1 X140.598 Y103.696 E0.09456
G1 X140.015 Y105.460 E0.02152
G1 X139.484 Y106.123 E0.00983
G1 X139.484 Y113.306 E0.08318
G1 X140.015 Y113.968 E0.00983
G1 X140.598 Y115.733 E0.02152
G1 X140.598 Y123.826 E0.09372
G1 X140.286 Y125.111 E0.01531
G1 X140.245 Y125.190 E0.00104
G1 X138.905 Y126.853 E0.02473
G1 X137.959 Y127.401 E0.01267
G1 X136.888 Y127.685 E0.01283
G1 X136.137 Y127.701 E0.00869
G1 X135.876 Y127.728 E0.00304
G1 X134.740 Y127.728 E0.01316
G1 X134.542 Y127.709 E0.00230
G1 X133.169 Y127.729 E0.01590
G1 X130.836 Y127.728 E0.02702
G1 X130.644 Y127.709 E0.00224
G1 X130.288 Y127.728 E0.00412
G1 X129.169 Y127.728 E0.01296
G1 X128.971 Y127.709 E0.00230
G1 X127.599 Y127.729 E0.01589
G1 X120.810 Y127.728 E0.07862
G1 X120.616 Y127.709 E0.00225
G1 X120.261 Y127.728 E0.00412
G1 X119.142 Y127.728 E0.01296
G1 X118.944 Y127.709 E0.00230
G1 X117.571 Y127.729 E0.01589
G1 X114.131 Y127.728 E0.03984
G1 X113.011 Y127.676 E0.01298
G1 X111.998 Y127.399 E0.01216
G1 X110.183 Y125.924 E0.02709
G1 X109.811 Y125.251 E0.00891
G1 X109.402 Y123.880 E0.01656
G1 X109.402 Y115.733 E0.09435
G1 X109.985 Y113.968 E0.02152
G1 X110.516 Y113.306 E0.00983
G1 X110.516 Y106.252 E0.08168
M204 S1000
G1 F8640.000
G1 X110.050 Y105.665 E-0.17296
G1 X109.402 Y103.882 E-0.43810
G1 X109.402 Y103.237 E-0.14894
G1 E-0.04000 F2100.00000
G1 Z0.700 F10800.000
G1 X133.861 Y82.561
G1 Z0.100
G1 E0.80000 F2100.00000
M204 S500
G1 F1200.000
G1 X135.635 Y83.208 E0.02187
G1 X136.133 Y83.606 E0.00739
G1 X137.057 Y84.759 E0.01710
G1 X137.518 Y86.200 E0.01753
G1 X137.530 Y90.419 E0.04885
M204 S1000
G1 X137.777 Y91.246 F10800.000
M204 S500
G1 F1200.000
G1 X138.133 Y91.742 E0.00707
G1 X138.462 Y92.647 E0.01115
G1 X138.816 Y92.861 E0.00478
G1 X139.690 Y93.826 E0.01508
G1 X140.320 Y95.555 E0.02131
G1 X140.320 Y103.673 E0.09401
G1 X139.759 Y105.347 E0.02044
G1 X139.206 Y106.022 E0.01011
G1 X139.206 Y113.406 E0.08551
G1 X139.759 Y114.082 E0.01011
G1 X140.320 Y115.755 E0.02044
G1 X140.320 Y123.809 E0.09327
G1 X140.016 Y125.030 E0.01457
G1 X138.743 Y126.625 E0.02364
G1 X137.835 Y127.151 E0.01215
G1 X136.865 Y127.407 E0.01162
G1 X136.119 Y127.422 E0.00864
G1 X135.868 Y127.449 E0.00292
G1 X134.747 Y127.449 E0.01299
G1 X134.554 Y127.430 E0.00225
G1 X133.168 Y127.450 E0.01605
G1 X130.844 Y127.449 E0.02692
G1 X130.651 Y127.429 E0.00225
G1 X130.284 Y127.449 E0.00425
G1 X129.176 Y127.449 E0.01284
G1 X128.983 Y127.430 E0.00225
G1 X127.598 Y127.450 E0.01604
G1 X120.817 Y127.449 E0.07853
G1 X120.623 Y127.429 E0.00225
G1 X120.257 Y127.449 E0.00425
G1 X119.149 Y127.449 E0.01284
G1 X118.956 Y127.430 E0.00225
G1 X117.570 Y127.450 E0.01604
G1 X114.134 Y127.449 E0.03979
G1 X113.040 Y127.399 E0.01269
G1 X112.100 Y127.139 E0.01129
G1 X110.413 Y125.766 E0.02519
G1 X110.073 Y125.155 E0.00809
G1 X109.680 Y123.859 E0.01568
G1 X109.680 Y115.755 E0.09385
G1 X110.241 Y114.082 E0.02044
G1 X110.794 Y113.406 E0.01011
G1 X110.794 Y106.109 E0.08450
G1 X110.302 Y105.544 E0.00868
G1 X109.680 Y103.857 E0.02082
G1 X109.680 Y95.720 E0.09423
G1 X110.241 Y94.046 E0.02044
G1 X110.801 Y93.364 E0.01022
G1 X110.801 Y86.323 E0.08154
G1 X111.207 Y84.882 E0.01734
G1 X111.283 Y84.756 E0.00170
G1 X112.584 Y83.279 E0.02280
G1 X113.183 Y82.959 E0.00787
G1 X114.554 Y82.551 E0.01656
G1 X124.833 Y82.551 E0.11903
G1 X125.265 Y82.658 E0.00515
G1 X125.698 Y82.551 E0.00517
G1 X133.861 Y82.561 E0.09452
M204 S1000
G1 F8640.000
G1 X130.569 Y82.557 E-0.76000
G1 E-0.04000 F2100.00000
G1 Z0.700 F10800.000
G1 X137.249 Y89.478
G1 Z0.100
G1 E0.80000 F2100.00000
M204 S500
G1 F1200.000
G1 X137.239 Y86.223 E0.03769
G1 X136.800 Y84.870 E0.01648
G1 X135.927 Y83.794 E0.01604
G1 X135.480 Y83.440 E0.00661
G1 X133.836 Y82.839 E0.02027
G1 X125.716 Y82.829 E0.09403
M204 S1000
M204 S500
G1 X125.264 Y82.946 E0.00540
G1 X124.814 Y82.829 E0.00538
G1 X114.575 Y82.829 E0.11858
G1 X113.278 Y83.221 E0.01569
G1 X112.739 Y83.512 E0.00709
G1 X111.502 Y84.928 E0.02177
G1 X111.457 Y85.005 E0.00104
G1 X111.079 Y86.342 E0.01609
G1 X111.079 Y93.466 E0.08250
G1 X110.496 Y94.161 E0.01051
G1 X109.959 Y95.743 E0.01935
G1 X109.959 Y103.832 E0.09367
G1 X110.554 Y105.421 E0.01965
G1 X110.885 Y105.792 E0.00575
M204 S1000
G1 F8640.000
G1 X110.554 Y105.421 E-0.11475
G1 X109.959 Y103.832 E-0.39177
G1 X109.959 Y102.734 E-0.25348
G1 E-0.04000 F2100.00000
G1 Z0.700 F10800.000
G1 X110.884 Y113.733
G1 Z0.100
G1 E0.80000 F2100.00000
M204 S500
G1 F1200.000
G1 X110.496 Y114.197 E0.00700
G1 X109.959 Y115.779 E0.01935
G1 X109.959 Y123.838 E0.09333
G1 X110.335 Y125.058 E0.01478
G1 X110.643 Y125.606 E0.00728
G1 X112.204 Y126.878 E0.02332
G1 X113.069 Y127.121 E0.01040
G1 X114.138 Y127.171 E0.01239
G1 X117.569 Y127.171 E0.03974
G1 X118.968 Y127.152 E0.01620
G1 X119.156 Y127.171 E0.00219
G1 X120.253 Y127.171 E0.01271
G1 X120.631 Y127.150 E0.00438
G1 X120.825 Y127.171 E0.00226
G1 X127.597 Y127.171 E0.07843
G1 X128.995 Y127.152 E0.01619
G1 X129.183 Y127.171 E0.00219
G1 X130.281 Y127.171 E0.01271
G1 X130.658 Y127.150 E0.00438
G1 X130.851 Y127.171 E0.00225
G1 X133.167 Y127.171 E0.02682
G1 X134.566 Y127.152 E0.01620
G1 X134.754 Y127.171 E0.00219
G1 X135.861 Y127.171 E0.01281
G1 X136.101 Y127.144 E0.00280
G1 X136.842 Y127.129 E0.00859
G1 X137.745 Y126.887 E0.01082
G1 X138.579 Y126.398 E0.01120
G1 X139.769 Y124.893 E0.02222
G1 X140.041 Y123.792 E0.01313
G1 X140.041 Y115.779 E0.09280
G1 X139.504 Y114.197 E0.01935
G1 X139.108 Y113.724 E0.00714
M204 S1000
G1 F8640.000
G1 X139.504 Y114.197 E-0.14236
G1 X140.041 Y115.779 E-0.38575
G1 X140.041 Y116.783 E-0.23189
G1 E-0.04000 F2100.00000
G1 Z0.700 F10800.000
G1 X139.101 Y105.712
G1 Z0.100
G1 E0.80000 F2100.00000
M204 S500
G1 F1200.000
G1 X139.504 Y105.232 E0.00726
G1 X140.041 Y103.650 E0.01935
G1 X140.041 Y95.580 E0.09345
G1 X139.439 Y93.949 E0.02014
G1 X138.626 Y93.066 E0.01390
G1 X138.257 Y92.850 E0.00495
M204 S1000
G1 X138.372 Y93.235 F10800.000
M204 S500
G1 F1200.000
G1 X138.439 Y93.273 E0.00089
G1 X139.188 Y94.073 E0.01270
G1 X139.763 Y95.605 E0.01895
G1 X139.763 Y103.626 E0.09289
G1 X139.250 Y105.115 E0.01823
G1 X139.101 Y105.289 E0.00265
M204 S1000
G1 F8640.000
G1 X139.250 Y105.115 E-0.05285
G1 X139.763 Y103.626 E-0.36358
G1 X139.763 Y102.138 E-0.34357
G1 E-0.04000 F2100.00000
G1 Z0.700 F10800.000
G1 X139.108 Y114.148
G1 Z0.100
G1 E0.80000 F2100.00000
M204 S500
G1 F1200.000
G1 X139.250 Y114.313 E0.00252
G1 X139.763 Y115.802 E0.01823
G1 X139.763 Y123.775 E0.09233
G1 X139.507 Y124.796 E0.01219
G1 X138.415 Y126.172 E0.02034
G1 X137.653 Y126.623 E0.01026
G1 X136.819 Y126.850 E0.01001
G1 X136.082 Y126.866 E0.00854
G1 X135.852 Y126.892 E0.00268
G1 X134.762 Y126.892 E0.01263
G1 X134.579 Y126.873 E0.00213
G1 X133.167 Y126.893 E0.01636
G1 X130.860 Y126.892 E0.02672
G1 X130.666 Y126.871 E0.00226
G1 X130.277 Y126.892 E0.00451
G1 X129.191 Y126.892 E0.01257
G1 X129.008 Y126.873 E0.00213
G1 X127.596 Y126.893 E0.01636
G1 X120.832 Y126.892 E0.07833
G1 X120.639 Y126.871 E0.00226
G1 X120.249 Y126.892 E0.00451
G1 X119.163 Y126.892 E0.01257
G1 X118.981 Y126.873 E0.00213
G1 X117.569 Y126.893 E0.01636
G1 X114.149 Y126.892 E0.03960
G1 X113.953 Y126.871 E0.00229
G1 X113.126 Y126.848 E0.00957
G1 X112.307 Y126.618 E0.00986
G1 X110.872 Y125.446 E0.02145
G1 X110.596 Y124.960 E0.00647
G1 X110.237 Y123.817 E0.01388
G1 X110.237 Y115.802 E0.09281
G1 X110.750 Y114.313 E0.01823
G1 X110.884 Y114.157 E0.00239
M204 S1000
G1 F8640.000
G1 X110.750 Y114.313 E-0.04757
G1 X110.237 Y115.802 E-0.36358
G1 X110.237 Y117.313 E-0.34886
G1 E-0.04000 F2100.00000
G1 Z0.700 F10800.000
G1 X110.885 Y105.384
G1 Z0.100
G1 E0.80000 F2100.00000
M204 S500
G1 F1200.000
G1 X110.804 Y105.296 E0.00138
G1 X110.237 Y103.806 E0.01846
G1 X110.237 Y95.767 E0.09310
G1 X110.750 Y94.278 E0.01823
G1 X111.148 Y93.814 E0.00708
M204 S1000
G1 F8640.000
G1 X110.750 Y94.278 E-0.14122
G1 X110.237 Y95.767 E-0.36358
G1 X110.237 Y96.872 E-0.25521
G1 E-0.04000 F2100.00000
G1 Z0.700 F10800.000
G1 X111.358 Y92.039
G1 Z0.100
G1 E0.80000 F2100.00000
M73 Q1 S61
M204 S500
G1 F1200.000
G1 X111.358 Y86.362 E0.06574
M73 P1 R61
G1 X111.724 Y85.097 E0.01525
G1 X112.895 Y83.744 E0.02072
G1 X113.374 Y83.483 E0.00631
G1 X114.596 Y83.108 E0.01480
G1 X124.795 Y83.108 E0.11811
G1 X125.264 Y83.234 E0.00563
G1 X125.735 Y83.108 E0.00565
G1 X133.811 Y83.118 E0.09352
M204 S1000
M204 S500
G1 X135.326 Y83.673 E0.01868
G1 X135.722 Y83.983 E0.00583
G1 X136.544 Y84.983 E0.01498
G1 X136.961 Y86.246 E0.01541
G1 X136.967 Y88.538 E0.02654
M204 S1000
G1 X136.686 Y87.598 F10800.000
M204 S500
G1 F1200.000
G1 X136.682 Y86.270 E0.01537
G1 X136.288 Y85.097 E0.01433
G1 X135.519 Y84.174 E0.01391
G1 X135.172 Y83.906 E0.00507
G1 X133.786 Y83.396 E0.01710
G1 X125.755 Y83.386 E0.09301
M204 S1000
M204 S500
G1 X125.264 Y83.524 E0.00590
G1 X124.775 Y83.386 E0.00589
G1 X114.617 Y83.386 E0.11763
