; generated by PrusaSlicer 2.2.0 on 2020-07-23 at 03:07:07 UTC

; 

; external perimeters extrusion width = 0.25mm
; perimeters extrusion width = 0.25mm
; infill extrusion width = 0.25mm
; solid infill extrusion width = 0.25mm
; top infill extrusion width = 0.25mm
; first layer extrusion width = 0.30mm

M73 P0 R56
M73 Q0 S56
M201 X1000 Y1000 Z200 E5000 ; sets maximum accelerations, mm/sec^2
M203 X200 Y200 Z12 E120 ; sets maximum feedrates, mm/sec
M204 P1250 R1250 T1250 ; sets acceleration (P, T) and retract acceleration (R), mm/sec^2
M205 X8.00 Y8.00 Z0.40 E4.50 ; sets the jerk limits, mm/sec
M205 S0 T0 ; sets the minimum extruding and travel feed rate, mm/sec
M107
M862.3 P "MK3S" ; printer model check
M862.1 P0.25 ; nozzle diameter check
M115 U3.9.0 ; tell printer latest fw version
G90 ; use absolute coordinates
M83 ; extruder relative mode
M104 S215 ; set extruder temp
M140 S60 ; set bed temp
M190 S60 ; wait for bed temp
M109 S215 ; wait for extruder temp
G28 W ; home all without mesh bed level
G80 ; mesh bed leveling
G1 Y-3.0 F1000.0 ; go outside print area
G92 E0.0
G1 X60.0 E9.0 F1000.0 ; intro line
M73 Q0 S56
M73 P0 R55
G1 X100.0 E12.5 F1000.0 ; intro line
G92 E0.0
M221 S95
G21 ; set units to millimeters
G90 ; use absolute coordinates
M83 ; use relative distances for extrusion
M900 K0.06 ; Filament gcode LA 1.5
M900 K30 ; Filament gcode LA 1.0
;BEFORE_LAYER_CHANGE
G92 E0.0
;0.1


G1 E-0.80000 F2100.00000
G1 Z0.600 F10800.000
;AFTER_LAYER_CHANGE
;0.1
G1 X114.807 Y98.251
G1 Z0.100
G1 E0.80000 F2100.00000
M204 S500
G1 F1200.000
G1 X115.735 Y97.278 E0.01557
G1 X116.706 Y96.558 E0.01401
G1 X117.773 Y96.028 E0.01379
G1 X118.999 Y95.691 E0.01473
G1 X119.960 Y95.607 E0.01117
G1 X129.992 Y95.607 E0.11618
G1 X131.057 Y95.700 E0.01238
G1 X132.203 Y96.018 E0.01377
G1 X133.181 Y96.491 E0.01259
G1 X134.163 Y97.190 E0.01396
G1 X134.946 Y97.958 E0.01269
G1 X135.717 Y98.975 E0.01479
G1 X136.346 Y100.113 E0.01505
G1 X136.837 Y101.368 E0.01561
G1 X137.181 Y102.728 E0.01625
G1 X137.361 Y104.112 E0.01616
G1 X137.383 Y105.500 E0.01607
G1 X137.257 Y106.821 E0.01537
G1 X136.952 Y108.247 E0.01689
G1 X136.532 Y109.465 E0.01492
G1 X135.908 Y110.717 E0.01620
G1 X135.202 Y111.739 E0.01439
G1 X134.115 Y112.851 E0.01801
G1 X132.959 Y113.635 E0.01618
G1 X131.666 Y114.160 E0.01616
G1 X130.338 Y114.383 E0.01559
G1 X119.431 Y114.366 E0.12630
G1 X118.484 Y114.201 E0.01113
G1 X117.574 Y113.891 E0.01114
G1 X116.794 Y113.495 E0.01014
G1 X115.981 Y112.930 E0.01146
G1 X115.281 Y112.288 E0.01101
G1 X114.735 Y111.660 E0.00963
G1 X113.743 Y110.072 E0.02168
G1 X113.328 Y109.109 E0.01214
G1 X113.005 Y108.091 E0.01237
G1 X112.655 Y106.080 E0.02364
G1 X112.654 Y103.927 E0.02494
G1 X112.788 Y102.897 E0.01202
G1 X113.054 Y101.732 E0.01384
G1 X113.776 Y99.861 E0.02322
G1 X114.253 Y99.022 E0.01118
G1 X114.785 Y98.281 E0.01056
M204 S1000
G1 X115.144 Y98.280 F10800.000
M204 S500
G1 F1200.000
G1 X115.976 Y97.437 E0.01372
G1 X116.992 Y96.712 E0.01445
G1 X118.018 Y96.233 E0.01311
G1 X119.086 Y95.958 E0.01278
G1 X119.964 Y95.886 E0.01020
G1 X129.992 Y95.886 E0.11613
G1 X131.007 Y95.974 E0.01180
G1 X132.110 Y96.281 E0.01325
G1 X133.046 Y96.734 E0.01205
G1 X133.995 Y97.412 E0.01351
G1 X134.837 Y98.258 E0.01382
G1 X135.489 Y99.136 E0.01266
G1 X136.098 Y100.240 E0.01461
G1 X136.584 Y101.492 E0.01555
G1 X136.909 Y102.791 E0.01550
G1 X137.086 Y104.169 E0.01609
G1 X137.103 Y105.525 E0.01571
G1 X136.948 Y106.993 E0.01709
G1 X136.617 Y108.400 E0.01674
G1 X136.187 Y109.563 E0.01436
G1 X135.552 Y110.764 E0.01574
G1 X134.865 Y111.710 E0.01354
G1 X133.894 Y112.672 E0.01582
G1 X132.779 Y113.415 E0.01553
G1 X131.567 Y113.899 E0.01511
G1 X130.272 Y114.108 E0.01518
G1 X119.445 Y114.087 E0.12539
G1 X118.534 Y113.926 E0.01071
G1 X117.633 Y113.613 E0.01105
G1 X116.778 Y113.158 E0.01121
G1 X116.011 Y112.592 E0.01104
G1 X115.419 Y112.029 E0.00945
G1 X114.811 Y111.299 E0.01100
G1 X113.885 Y109.724 E0.02116
G1 X113.502 Y108.767 E0.01194
G1 X113.208 Y107.758 E0.01217
G1 X112.912 Y105.790 E0.02305
G1 X112.954 Y103.721 E0.02396
G1 X113.340 Y101.743 E0.02334
G1 X113.714 Y100.669 E0.01317
G1 X114.116 Y99.810 E0.01098
G1 X115.123 Y98.311 E0.02091
M204 S1000
G1 X115.355 Y98.467 F10800.000
M204 S500
G1 F1200.000
G1 X116.258 Y97.563 E0.01480
G1 X117.141 Y96.947 E0.01246
G1 X118.118 Y96.493 E0.01248
G1 X119.145 Y96.231 E0.01227
G1 X119.968 Y96.164 E0.00957
G1 X129.992 Y96.164 E0.11608
G1 X131.072 Y96.270 E0.01257
G1 X132.020 Y96.545 E0.01143
G1 X133.023 Y97.046 E0.01298
G1 X133.851 Y97.656 E0.01191
G1 X134.659 Y98.478 E0.01336
G1 X135.364 Y99.461 E0.01400
G1 X135.944 Y100.575 E0.01455
G1 X136.379 Y101.775 E0.01478
G1 X136.680 Y103.092 E0.01564
G1 X136.821 Y104.424 E0.01551
G1 X136.813 Y105.726 E0.01508
G1 X136.669 Y106.972 E0.01453
G1 X136.349 Y108.325 E0.01609
G1 X135.930 Y109.456 E0.01397
G1 X135.313 Y110.622 E0.01528
G1 X134.635 Y111.551 E0.01332
G1 X133.716 Y112.458 E0.01494
G1 X132.647 Y113.170 E0.01488
G1 X131.489 Y113.631 E0.01443
G1 X130.252 Y113.830 E0.01451
G1 X119.478 Y113.810 E0.12478
G1 X118.605 Y113.657 E0.01026
G1 X117.738 Y113.356 E0.01063
G1 X116.921 Y112.920 E0.01072
G1 X116.170 Y112.362 E0.01083
G1 X115.029 Y111.125 E0.01949
G1 X114.134 Y109.598 E0.02050
G1 X113.477 Y107.687 E0.02341
G1 X113.189 Y105.762 E0.02254
G1 X113.231 Y103.749 E0.02332
G1 X113.608 Y101.819 E0.02277
G1 X113.973 Y100.773 E0.01283
G1 X114.365 Y99.935 E0.01072
G1 X115.334 Y98.498 E0.02006
M204 S1000
G1 X115.565 Y98.656 F10800.000
M204 S500
G1 F1200.000
G1 X115.606 Y98.597 E0.00083
G1 X116.441 Y97.774 E0.01358
G1 X117.289 Y97.183 E0.01197
G1 X118.218 Y96.753 E0.01185
G1 X119.202 Y96.504 E0.01176
G1 X119.973 Y96.443 E0.00895
G1 X129.992 Y96.443 E0.11602
G1 X131.029 Y96.545 E0.01207
G1 X131.952 Y96.817 E0.01114
G1 X132.912 Y97.305 E0.01248
G1 X133.782 Y97.967 E0.01265
G1 X134.465 Y98.680 E0.01144
G1 X135.142 Y99.631 E0.01352
G1 X135.692 Y100.696 E0.01387
G1 X136.123 Y101.890 E0.01470
G1 X136.407 Y103.147 E0.01492
G1 X136.545 Y104.467 E0.01537
G1 X136.533 Y105.738 E0.01472
G1 X136.358 Y107.127 E0.01622
G1 X136.067 Y108.295 E0.01393
G1 X135.587 Y109.537 E0.01542
G1 X135.044 Y110.526 E0.01306
G1 X134.318 Y111.491 E0.01399
G1 X133.398 Y112.355 E0.01462
G1 X132.388 Y112.989 E0.01380
G1 X131.277 Y113.399 E0.01372
G1 X130.217 Y113.552 E0.01240
G1 X119.513 Y113.534 E0.12396
G1 X118.676 Y113.387 E0.00984
G1 X117.848 Y113.099 E0.01016
G1 X117.065 Y112.681 E0.01027
G1 X116.331 Y112.134 E0.01060
G1 X115.232 Y110.930 E0.01888
G1 X114.734 Y110.159 E0.01063
G1 X114.301 Y109.289 E0.01125
G1 X113.736 Y107.570 E0.02096
G1 X113.455 Y105.534 E0.02380
G1 X113.535 Y103.547 E0.02303
G1 X113.933 Y101.705 E0.02182
G1 X114.627 Y100.035 E0.02094
G1 X115.544 Y98.687 E0.01889
M204 S1000
G1 F8640.000
G1 X115.606 Y98.597 E-0.02513
G1 X116.441 Y97.774 E-0.27076
G1 X117.289 Y97.183 E-0.23865
G1 X118.175 Y96.773 E-0.22546
G1 E-0.04000 F2100.00000
G1 Z0.700 F10800.000
G1 X114.960 Y100.009
G1 Z0.100
G1 E0.80000 F2100.00000
M204 S500
G1 F1200.000
G1 X115.931 Y98.649 E0.01935
G1 X116.670 Y97.947 E0.01180
G1 X117.577 Y97.342 E0.01263
G1 X118.473 Y96.961 E0.01127
G1 X119.372 Y96.762 E0.01067
G1 X129.991 Y96.721 E0.12297
G1 X130.977 Y96.819 E0.01147
G1 X131.852 Y97.077 E0.01056
G1 X132.766 Y97.542 E0.01187
G1 X133.603 Y98.180 E0.01218
G1 X134.253 Y98.860 E0.01090
G1 X134.907 Y99.781 E0.01308
G1 X135.438 Y100.808 E0.01339
G1 X135.858 Y101.980 E0.01441
G1 X136.132 Y103.194 E0.01441
G1 X136.267 Y104.481 E0.01499
G1 X136.256 Y105.717 E0.01431
G1 X136.083 Y107.081 E0.01591
G1 X135.801 Y108.212 E0.01350
G1 X135.333 Y109.424 E0.01504
G1 X134.725 Y110.505 E0.01436
G1 X134.080 Y111.339 E0.01221
G1 X133.217 Y112.143 E0.01367
G1 X132.242 Y112.751 E0.01329
G1 X131.185 Y113.135 E0.01303
G1 X130.123 Y113.277 E0.01241
G1 X119.417 Y113.244 E0.12398
G1 X118.568 Y113.068 E0.01003
G1 X117.788 Y112.765 E0.00969
G1 X117.043 Y112.332 E0.00999
G1 X116.380 Y111.804 E0.00981
G1 X115.346 Y110.610 E0.01829
G1 X114.542 Y109.145 E0.01935
G1 X113.962 Y107.303 E0.02236
G1 X113.732 Y105.474 E0.02135
G1 X113.812 Y103.577 E0.02199
G1 X114.206 Y101.765 E0.02147
G1 X114.945 Y100.043 E0.02170
M204 S1000
G1 F8640.000
G1 X115.931 Y98.649 E-0.39427
G1 X116.670 Y97.947 E-0.23532
G1 X117.140 Y97.634 E-0.13041
G1 E-0.04000 F2100.00000
G1 Z0.700 F10800.000
G1 X117.712 Y101.489
G1 Z0.100
G1 E0.80000 F2100.00000
M204 S500
G1 F1200.000
G1 X117.928 Y101.146 E0.00469
G1 X118.167 Y100.835 E0.00454
G1 X118.419 Y100.568 E0.00425
G1 X118.686 Y100.342 E0.00405
G1 X118.942 Y100.172 E0.00356
G1 X119.289 Y100.006 E0.00445
G1 X119.626 Y99.911 E0.00405
G1 X119.907 Y99.877 E0.00328
G1 X120.228 Y99.888 E0.00372
G1 X120.568 Y99.959 E0.00403
G1 X120.876 Y100.077 E0.00382
G1 X121.175 Y100.244 E0.00397
G1 X121.466 Y100.465 E0.00423
G1 X121.755 Y100.746 E0.00466
G1 X121.971 Y101.007 E0.00392
G1 X122.194 Y101.330 E0.00455
G1 X122.379 Y101.654 E0.00432
G1 X122.607 Y102.146 E0.00628
G1 X122.737 Y102.494 E0.00430
G1 X122.889 Y103.001 E0.00613
G1 X123.008 Y103.550 E0.00651
G1 X123.073 Y103.982 E0.00505
G1 X123.122 Y104.537 E0.00646
G1 X123.135 Y104.972 E0.00504
G1 X123.120 Y105.500 E0.00611
G1 X123.070 Y106.040 E0.00628
G1 X122.909 Y106.916 E0.01030
G1 X122.773 Y107.399 E0.00582
G1 X122.609 Y107.849 E0.00554
G1 X122.429 Y108.250 E0.00509
G1 X122.222 Y108.623 E0.00494
G1 X121.997 Y108.958 E0.00467
G1 X121.752 Y109.256 E0.00447
G1 X121.503 Y109.503 E0.00406
G1 X121.183 Y109.750 E0.00469
G1 X120.924 Y109.900 E0.00346
G1 X120.621 Y110.025 E0.00380
G1 X120.307 Y110.101 E0.00374
G1 X120.000 Y110.125 E0.00356
G1 X119.675 Y110.098 E0.00378
G1 X119.385 Y110.027 E0.00346
G1 X119.100 Y109.912 E0.00357
G1 X118.798 Y109.737 E0.00404
G1 X118.536 Y109.537 E0.00382
G1 X118.239 Y109.247 E0.00480
G1 X118.008 Y108.966 E0.00422
G1 X117.759 Y108.592 E0.00521
G1 X117.530 Y108.165 E0.00561
G1 X117.383 Y107.831 E0.00422
G1 X117.217 Y107.368 E0.00569
G1 X117.021 Y106.603 E0.00914
G1 X116.933 Y106.066 E0.00630
G1 X116.888 Y105.626 E0.00513
G1 X116.865 Y105.053 E0.00663
G1 X116.873 Y104.638 E0.00481
G1 X116.913 Y104.106 E0.00618
G1 X116.984 Y103.595 E0.00598
G1 X117.088 Y103.095 E0.00591
G1 X117.226 Y102.604 E0.00591
G1 X117.367 Y102.211 E0.00483
G1 X117.518 Y101.861 E0.00442
G1 X117.695 Y101.522 E0.00443
M204 S1000
G1 X117.103 Y101.166 F10800.000
M204 S500
G1 F1200.000
G1 X117.316 Y100.811 E0.00479
G1 X117.562 Y100.478 E0.00479
G1 X117.910 Y100.091 E0.00603
G1 X118.274 Y99.774 E0.00559
G1 X118.649 Y99.524 E0.00522
G1 X118.932 Y99.381 E0.00367
G1 X119.316 Y99.244 E0.00472
G1 X119.700 Y99.168 E0.00453
G1 X120.094 Y99.152 E0.00457
G1 X120.523 Y99.205 E0.00500
G1 X120.840 Y99.292 E0.00381
G1 X121.157 Y99.423 E0.00397
G1 X121.470 Y99.596 E0.00414
G1 X121.882 Y99.901 E0.00593
G1 X122.179 Y100.182 E0.00473
G1 X122.464 Y100.511 E0.00505
G1 X122.734 Y100.887 E0.00536
G1 X122.984 Y101.309 E0.00568
G1 X123.210 Y101.775 E0.00599
G1 X123.407 Y102.281 E0.00629
G1 X123.572 Y102.821 E0.00655
G1 X123.701 Y103.391 E0.00677
G1 X123.791 Y103.983 E0.00694
G1 X123.840 Y104.591 E0.00706
G1 X123.850 Y104.998 E0.00471
G1 X123.833 Y105.549 E0.00639
G1 X123.782 Y106.094 E0.00634
G1 X123.698 Y106.626 E0.00624
G1 X123.536 Y107.309 E0.00813
G1 X123.381 Y107.791 E0.00586
G1 X123.201 Y108.245 E0.00566
G1 X122.997 Y108.666 E0.00541
G1 X122.693 Y109.175 E0.00686
G1 X122.449 Y109.509 E0.00480
G1 X122.100 Y109.899 E0.00606
G1 X121.830 Y110.143 E0.00421
G1 X121.457 Y110.412 E0.00532
G1 X121.078 Y110.614 E0.00497
G1 X120.696 Y110.753 E0.00471
G1 X120.310 Y110.830 E0.00455
G1 X120.002 Y110.850 E0.00358
G1 X119.572 Y110.813 E0.00500
G1 X119.256 Y110.738 E0.00376
G1 X118.830 Y110.571 E0.00530
G1 X118.519 Y110.397 E0.00413
G1 X118.107 Y110.090 E0.00595
G1 X117.811 Y109.807 E0.00474
G1 X117.526 Y109.476 E0.00506
G1 X117.257 Y109.098 E0.00537
G1 X117.007 Y108.675 E0.00569
G1 X116.783 Y108.207 E0.00600
G1 X116.587 Y107.700 E0.00630
G1 X116.423 Y107.159 E0.00656
G1 X116.295 Y106.588 E0.00677
G1 X116.206 Y105.995 E0.00694
G1 X116.159 Y105.387 E0.00706
G1 X116.150 Y104.980 E0.00471
G1 X116.169 Y104.429 E0.00639
G1 X116.221 Y103.884 E0.00633
G1 X116.306 Y103.353 E0.00623
G1 X116.470 Y102.671 E0.00812
G1 X116.625 Y102.190 E0.00586
G1 X116.807 Y101.737 E0.00565
G1 X117.084 Y101.198 E0.00702
M204 S1000
G1 F8640.000
G1 X117.316 Y100.811 E-0.10421
G1 X117.562 Y100.478 E-0.09559
G1 X117.910 Y100.091 E-0.12017
G1 X118.274 Y99.774 E-0.11146
G1 X118.649 Y99.524 E-0.10409
G1 X118.932 Y99.381 E-0.07316
G1 X119.316 Y99.244 E-0.09414
G1 X119.559 Y99.196 E-0.05718
G1 E-0.04000 F2100.00000
G1 Z0.700 F10800.000
G1 X120.157 Y99.244
G1 Z0.100
G1 E0.80000 F2100.00000
M204 S500
G1 F1200.000
G1 X120.698 Y99.785 E0.00886
G1 X120.197 Y99.678 E0.00593
G1 X119.889 Y99.370 E0.00505
G1 X119.725 Y99.376 E0.00190
G1 X119.538 Y99.413 E0.00220
G1 X119.804 Y99.679 E0.00435
G1 X119.469 Y99.738 E0.00394
G1 X119.228 Y99.497 E0.00395
G1 X118.945 Y99.609 E0.00352
G1 X119.169 Y99.832 E0.00367
G1 X118.902 Y99.960 E0.00343
G1 X118.690 Y99.748 E0.00347
G1 X118.454 Y99.906 E0.00329
G1 X118.658 Y100.110 E0.00335
G1 X118.435 Y100.281 E0.00326
G1 X118.237 Y100.083 E0.00324
G1 X118.057 Y100.241 E0.00277
G1 X118.030 Y100.270 E0.00047
G1 X118.227 Y100.467 E0.00323
G1 X118.035 Y100.670 E0.00323
G1 X117.843 Y100.478 E0.00315
G1 X117.724 Y100.610 E0.00206
G1 X117.663 Y100.692 E0.00118
G1 X117.861 Y100.890 E0.00324
G1 X117.697 Y101.120 E0.00327
G1 X117.490 Y100.927 E0.00328
G1 X117.347 Y101.165 E0.00321
G1 X117.544 Y101.361 E0.00322
G1 X117.408 Y101.620 E0.00338
G1 X117.199 Y101.411 E0.00342
G1 X117.070 Y101.675 E0.00341
G1 X117.280 Y101.885 E0.00344
G1 X117.162 Y102.162 E0.00349
G1 X116.948 Y101.947 E0.00352
G1 X116.835 Y102.229 E0.00351
G1 X117.059 Y102.453 E0.00367
G1 X116.967 Y102.755 E0.00366
G1 X116.736 Y102.525 E0.00377
G1 X116.671 Y102.728 E0.00247
G1 X116.647 Y102.829 E0.00121
G1 X116.881 Y103.064 E0.00384
G1 X116.813 Y103.390 E0.00386
G1 X116.571 Y103.147 E0.00398
G1 X116.511 Y103.394 E0.00294
G1 X116.499 Y103.470 E0.00089
G1 X116.755 Y103.726 E0.00419
G1 X116.707 Y104.072 E0.00405
G1 X116.445 Y103.810 E0.00429
G1 X116.404 Y104.163 E0.00412
G1 X116.678 Y104.438 E0.00450
G1 X116.661 Y104.814 E0.00437
G1 X116.374 Y104.528 E0.00469
G1 X116.361 Y104.909 E0.00442
G1 X116.662 Y105.210 E0.00493
G1 X116.679 Y105.621 E0.00477
G1 X116.366 Y105.308 E0.00513
G1 X116.395 Y105.731 E0.00492
G1 X116.722 Y106.058 E0.00536
G1 X116.797 Y106.527 E0.00550
G1 X116.445 Y106.175 E0.00578
G1 X116.522 Y106.647 E0.00555
G1 X116.904 Y107.028 E0.00625
G1 X117.077 Y107.596 E0.00687
G1 X116.642 Y107.160 E0.00714
G1 X116.825 Y107.738 E0.00702
G1 X117.341 Y108.254 E0.00845
G1 X117.579 Y108.699 E0.00586
G1 X117.840 Y109.090 E0.00545
G1 X118.085 Y109.388 E0.00447
G1 X118.399 Y109.695 E0.00509
G1 X118.682 Y109.911 E0.00412
G1 X119.008 Y110.100 E0.00437
G1 X119.308 Y110.221 E0.00376
G1 X119.702 Y110.614 E0.00645
G1 X120.115 Y110.633 E0.00479
G1 X119.800 Y110.318 E0.00517
G1 X120.000 Y110.335 E0.00233
G1 X120.195 Y110.320 E0.00227
G1 X120.462 Y110.587 E0.00438
G1 X120.772 Y110.503 E0.00372
G1 X120.531 Y110.262 E0.00395
G1 X120.829 Y110.165 E0.00363
G1 X121.054 Y110.390 E0.00369
G1 X121.311 Y110.253 E0.00338
G1 X121.099 Y110.040 E0.00349
G1 X121.343 Y109.890 E0.00332
G1 X121.544 Y110.092 E0.00330
G1 X121.698 Y109.980 E0.00220
G1 X121.766 Y109.919 E0.00106
G1 X121.565 Y109.719 E0.00329
G1 X121.772 Y109.531 E0.00323
G1 X121.971 Y109.730 E0.00326
G1 X122.157 Y109.522 E0.00324
G1 X121.964 Y109.328 E0.00317
G1 X122.141 Y109.112 E0.00325
G1 X122.337 Y109.308 E0.00321
G1 X122.504 Y109.080 E0.00327
G1 X122.302 Y108.879 E0.00330
G1 X122.454 Y108.636 E0.00332
G1 X122.653 Y108.835 E0.00326
G1 X122.800 Y108.588 E0.00333
G1 X122.594 Y108.382 E0.00338
G1 X122.719 Y108.113 E0.00344
G1 X122.930 Y108.324 E0.00346
G1 X123.053 Y108.052 E0.00346
G1 X122.836 Y107.836 E0.00355
G1 X122.941 Y107.547 E0.00357
G1 X123.165 Y107.771 E0.00366
G1 X123.264 Y107.475 E0.00361
G1 X123.033 Y107.245 E0.00377
G1 X123.118 Y106.935 E0.00372
G1 X123.354 Y107.171 E0.00386
G1 X123.429 Y106.852 E0.00380
G1 X123.179 Y106.602 E0.00410
G1 X123.241 Y106.269 E0.00392
G1 X123.501 Y106.530 E0.00427
