; generated by PrusaSlicer 2.2.0 on 2020-07-28 at 01:00:17 UTC

; 

; external perimeters extrusion width = 0.25mm
; perimeters extrusion width = 0.25mm
; infill extrusion width = 0.25mm
; solid infill extrusion width = 0.25mm
; top infill extrusion width = 0.25mm
; first layer extrusion width = 0.30mm

M73 P0 R25
M73 Q0 S25
M201 X1000 Y1000 Z200 E5000 ; sets maximum accelerations, mm/sec^2
M203 X200 Y200 Z12 E120 ; sets maximum feedrates, mm/sec
M204 P1250 R1250 T1250 ; sets acceleration (P, T) and retract acceleration (R), mm/sec^2
M205 X8.00 Y8.00 Z0.40 E4.50 ; sets the jerk limits, mm/sec
M205 S0 T0 ; sets the minimum extruding and travel feed rate, mm/sec
M107
M862.3 P "MK3S" ; printer model check
M862.1 P0.25 ; nozzle diameter check
M115 U3.9.0 ; tell printer latest fw version
G90 ; use absolute coordinates
M83 ; extruder relative mode
M104 S215 ; set extruder temp
M140 S60 ; set bed temp
M190 S60 ; wait for bed temp
M109 S215 ; wait for extruder temp
G28 W ; home all without mesh bed level
G80 ; mesh bed leveling
G1 Y-3.0 F1000.0 ; go outside print area
G92 E0.0
G1 X60.0 E9.0 F1000.0 ; intro line
M73 Q0 S25
M73 P0 R25
G1 X100.0 E12.5 F1000.0 ; intro line
G92 E0.0
M221 S95
G21 ; set units to millimeters
G90 ; use absolute coordinates
M83 ; use relative distances for extrusion
M900 K0.06 ; Filament gcode LA 1.5
M900 K30 ; Filament gcode LA 1.0
;BEFORE_LAYER_CHANGE
G92 E0.0
;0.1


G1 E-0.80000 F2100.00000
G1 Z0.600 F10800.000
;AFTER_LAYER_CHANGE
;0.1
G1 X113.147 Y84.829
G1 Z0.100
G1 E0.80000 F2100.00000
M204 S500
G1 F1200.000
G1 X113.906 Y84.513 E0.00952
G1 X114.430 Y84.444 E0.00612
G1 X116.437 Y84.443 E0.02324
G1 X117.112 Y84.535 E0.00789
G1 X117.735 Y84.800 E0.00785
G1 X157.737 Y108.848 E0.54050
G1 X158.229 Y109.225 E0.00718
G1 X158.592 Y109.651 E0.00648
G1 X158.864 Y110.142 E0.00650
G1 X159.032 Y110.677 E0.00649
G1 X159.091 Y111.235 E0.00650
G1 X159.087 Y122.915 E0.13526
G1 X158.858 Y123.871 E0.01138
G1 X158.313 Y124.691 E0.01140
G1 X157.904 Y125.043 E0.00625
G1 X157.431 Y125.312 E0.00630
G1 X156.931 Y125.481 E0.00611
G1 X156.386 Y125.555 E0.00636
G1 X134.461 Y125.551 E0.25390
G1 X94.899 Y121.522 E0.46051
G1 X94.218 Y121.383 E0.00806
G1 X93.539 Y121.130 E0.00838
G1 X92.851 Y120.732 E0.00920
G1 X92.298 Y120.276 E0.00830
G1 X91.801 Y119.708 E0.00874
G1 X91.364 Y118.986 E0.00978
G1 X91.094 Y118.287 E0.00867
G1 X90.932 Y117.464 E0.00971
G1 X90.918 Y116.715 E0.00867
G1 X91.047 Y115.885 E0.00973
G1 X91.289 Y115.178 E0.00865
G1 X91.693 Y114.444 E0.00970
G1 X112.526 Y85.373 E0.41417
G1 X113.119 Y84.854 E0.00913
M204 S1000
G1 X114.000 Y84.777 F10800.000
M204 S500
G1 F1200.000
G1 X116.436 Y84.721 E0.02823
G1 X117.037 Y84.803 E0.00702
G1 X117.595 Y85.040 E0.00702
G1 X157.593 Y109.087 E0.54046
G1 X158.029 Y109.420 E0.00635
G1 X158.359 Y109.805 E0.00588
G1 X158.607 Y110.250 E0.00589
G1 X158.760 Y110.734 E0.00589
G1 X158.813 Y111.237 E0.00585
G1 X158.809 Y122.887 E0.13491
G1 X158.606 Y123.751 E0.01027
G1 X158.117 Y124.492 E0.01029
G1 X157.317 Y125.058 E0.01135
G1 X156.361 Y125.277 E0.01136
G1 X134.475 Y125.273 E0.25344
G1 X94.938 Y121.246 E0.46022
G1 X94.294 Y121.115 E0.00761
G1 X93.660 Y120.879 E0.00783
G1 X93.009 Y120.502 E0.00872
G1 X92.495 Y120.079 E0.00771
G1 X92.027 Y119.546 E0.00821
G1 X91.615 Y118.865 E0.00922
G1 X91.363 Y118.212 E0.00810
G1 X91.209 Y117.436 E0.00916
G1 X91.196 Y116.736 E0.00810
G1 X91.318 Y115.950 E0.00922
G1 X91.543 Y115.293 E0.00804
G1 X91.925 Y114.597 E0.00919
G1 X112.737 Y85.555 E0.41376
G1 X113.302 Y85.061 E0.00868
G1 X113.965 Y84.791 E0.00829
M204 S1000
G1 F8640.000
G1 X116.436 Y84.721 E-0.57092
G1 X117.037 Y84.803 E-0.13994
G1 X117.233 Y84.886 E-0.04913
G1 E-0.04000 F2100.00000
G1 Z0.700 F10800.000
G1 X153.287 Y106.660
G1 Z0.100
G1 E0.80000 F2100.00000
M204 S500
G1 F1200.000
G1 X153.017 Y106.710 E0.00319
G1 X151.968 Y107.223 E0.01352
G1 X151.057 Y107.985 E0.01376
G1 X150.377 Y108.958 E0.01374
G1 X149.935 Y110.081 E0.01398
G1 X149.842 Y123.353 E0.15370
G1 X150.147 Y124.562 E0.01444
G1 X150.436 Y125.137 E0.00744
M204 S1000
G1 X150.801 Y125.693 F10800.000
M204 S500
G1 F1200.000
G1 X150.897 Y125.835 E0.00198
G1 X152.007 Y126.800 E0.01703
G1 X153.438 Y127.396 E0.01795
G1 X157.711 Y127.338 E0.04949
G1 X157.917 Y127.289 E0.00244
G1 X158.964 Y126.777 E0.01350
G1 X159.875 Y126.014 E0.01376
G1 X160.554 Y125.042 E0.01374
G1 X160.996 Y123.919 E0.01397
G1 X161.087 Y110.650 E0.15366
G1 X160.691 Y109.234 E0.01703
G1 X159.878 Y107.989 E0.01721
G1 X158.869 Y107.156 E0.01516
G1 X158.199 Y106.828 E0.00863
M204 S1000
M204 S500
G1 X157.480 Y106.594 E0.00877
G1 X154.341 Y106.644 E0.03636
M204 S1000
G1 X154.787 Y106.912 F10800.000
M204 S500
G1 F1200.000
G1 X157.416 Y106.866 E0.03044
M204 S1000
M204 S500
G1 X158.086 Y107.083 E0.00816
G1 X158.731 Y107.399 E0.00832
G1 X159.684 Y108.190 E0.01434
G1 X160.445 Y109.366 E0.01623
G1 X160.813 Y110.705 E0.01608
G1 X160.727 Y123.842 E0.15213
G1 X160.316 Y124.896 E0.01310
G1 X159.658 Y125.839 E0.01332
G1 X158.800 Y126.551 E0.01291
G1 X157.809 Y127.032 E0.01275
G1 X157.692 Y127.059 E0.00139
G1 X153.464 Y127.117 E0.04897
G1 X152.137 Y126.553 E0.01670
G1 X151.158 Y125.693 E0.01508
M204 S1000
G1 X150.758 Y125.137 F10800.000
M204 S500
G1 F1200.000
G1 X150.403 Y124.452 E0.00894
G1 X150.117 Y123.303 E0.01371
G1 X150.204 Y110.158 E0.15222
G1 X150.615 Y109.104 E0.01311
G1 X151.274 Y108.161 E0.01332
G1 X152.132 Y107.448 E0.01291
G1 X153.124 Y106.967 E0.01277
G1 X153.240 Y106.940 E0.00138
G1 X153.737 Y106.931 E0.00576
M204 S1000
G1 X154.185 Y107.200 F10800.000
M204 S500
G1 F1200.000
G1 X153.232 Y107.225 E0.01103
G1 X152.269 Y107.691 E0.01239
G1 X151.467 Y108.362 E0.01210
G1 X150.854 Y109.248 E0.01248
G1 X150.473 Y110.235 E0.01225
G1 X150.391 Y123.253 E0.15076
G1 X150.660 Y124.341 E0.01298
G1 X150.948 Y124.920 E0.00749
G1 X151.094 Y125.137 E0.00302
M204 S1000
G1 X151.575 Y125.694 F10800.000
M204 S500
G1 F1200.000
G1 X152.302 Y126.328 E0.01117
G1 X153.544 Y126.849 E0.01559
G1 X157.672 Y126.781 E0.04781
G1 X158.662 Y126.308 E0.01270
G1 X159.464 Y125.638 E0.01210
G1 X160.078 Y124.752 E0.01248
G1 X160.458 Y123.765 E0.01224
G1 X160.539 Y110.759 E0.15062
G1 X160.199 Y109.498 E0.01513
G1 X159.489 Y108.389 E0.01525
G1 X158.593 Y107.641 E0.01351
G1 X157.990 Y107.345 E0.00778
M204 S1000
M204 S500
G1 X157.352 Y107.138 E0.00777
G1 X155.232 Y107.179 E0.02456
M204 S1000
G1 X155.673 Y107.445 F10800.000
M204 S500
G1 F1200.000
G1 X157.289 Y107.410 E0.01871
M204 S1000
M204 S500
G1 X157.895 Y107.607 E0.00738
G1 X158.455 Y107.884 E0.00724
G1 X159.266 Y108.558 E0.01221
G1 X159.953 Y109.630 E0.01474
G1 X160.265 Y110.812 E0.01416
G1 X160.189 Y123.690 E0.14913
G1 X159.838 Y124.608 E0.01139
G1 X159.271 Y125.437 E0.01163
G1 X158.497 Y126.083 E0.01167
G1 X157.622 Y126.504 E0.01125
G1 X153.624 Y126.580 E0.04631
G1 X152.467 Y126.102 E0.01449
G1 X151.995 Y125.694 E0.00723
M204 S1000
G1 X151.429 Y125.137 F10800.000
M204 S500
G1 F1200.000
G1 X151.185 Y124.773 E0.00508
G1 X150.916 Y124.232 E0.00700
G1 X150.666 Y123.204 E0.01225
G1 X150.742 Y110.310 E0.14932
G1 X151.093 Y109.391 E0.01139
G1 X151.661 Y108.563 E0.01163
G1 X152.434 Y107.916 E0.01167
G1 X153.312 Y107.495 E0.01127
G1 X154.629 Y107.467 E0.01526
M204 S1000
G1 X155.060 Y107.726 F10800.000
M204 S500
G1 F1200.000
G1 X153.404 Y107.760 E0.01918
G1 X152.598 Y108.142 E0.01033
G1 X151.879 Y108.738 E0.01081
G1 X151.347 Y109.507 E0.01083
G1 X151.011 Y110.386 E0.01090
G1 X150.941 Y123.156 E0.14788
G1 X151.173 Y124.123 E0.01151
G1 X151.422 Y124.627 E0.00652
G1 X151.735 Y125.100 E0.00656
G1 X151.777 Y125.137 E0.00065
M204 S1000
G1 X152.413 Y125.694 F10800.000
M204 S500
G1 F1200.000
G1 X152.595 Y125.854 E0.00281
G1 X153.703 Y126.312 E0.01389
G1 X157.529 Y126.239 E0.04431
G1 X158.334 Y125.857 E0.01031
G1 X159.053 Y125.262 E0.01081
G1 X159.584 Y124.493 E0.01083
G1 X159.920 Y123.614 E0.01090
G1 X159.991 Y110.864 E0.14765
G1 X159.705 Y109.760 E0.01321
G1 X159.070 Y108.757 E0.01375
G1 X158.316 Y108.126 E0.01139
G1 X157.780 Y107.861 E0.00692
M204 S1000
M204 S500
G1 X157.225 Y107.682 E0.00675
G1 X156.106 Y107.705 E0.01297
M204 S1000
G1 X156.541 Y107.966 F10800.000
M204 S500
G1 F1200.000
G1 X157.162 Y107.954 E0.00720
M204 S1000
M204 S500
G1 X157.685 Y108.123 E0.00636
G1 X158.177 Y108.368 E0.00636
G1 X158.873 Y108.956 E0.01056
G1 X159.458 Y109.888 E0.01275
G1 X159.717 Y110.915 E0.01226
G1 X159.650 Y123.539 E0.14619
G1 X159.344 Y124.350 E0.01004
G1 X158.859 Y125.061 E0.00997
G1 X158.198 Y125.614 E0.00997
G1 X157.437 Y125.975 E0.00976
G1 X153.782 Y126.043 E0.04233
G1 X152.922 Y125.694 E0.01074
M204 S1000
G1 X152.195 Y125.137 F10800.000
M204 S500
G1 F1200.000
G1 X151.956 Y124.930 E0.00366
G1 X151.668 Y124.496 E0.00604
G1 X151.430 Y124.014 E0.00623
G1 X151.216 Y123.108 E0.01078
G1 X151.281 Y110.461 E0.14646
G1 X151.587 Y109.650 E0.01004
G1 X152.073 Y108.939 E0.00997
G1 X152.734 Y108.386 E0.00997
G1 X153.497 Y108.024 E0.00978
G1 X155.493 Y107.986 E0.02312
M204 S1000
G1 X155.927 Y108.247 F10800.000
M204 S500
G1 F1200.000
G1 X153.588 Y108.289 E0.02709
G1 X152.897 Y108.613 E0.00884
G1 X152.291 Y109.112 E0.00909
G1 X151.827 Y109.792 E0.00954
G1 X151.550 Y110.535 E0.00917
G1 X151.491 Y123.061 E0.14506
G1 X151.687 Y123.905 E0.01004
G1 X151.905 Y124.349 E0.00573
G1 X152.178 Y124.760 E0.00571
G1 X152.616 Y125.137 E0.00670
M204 S1000
G1 F8640.000
G1 X152.178 Y124.760 E-0.13365
G1 X151.905 Y124.349 E-0.11377
G1 X151.687 Y123.905 E-0.11424
G1 X151.491 Y123.061 E-0.20014
G1 X151.495 Y122.203 E-0.19820
G1 E-0.04000 F2100.00000
G1 Z0.700 F10800.000
G1 X153.658 Y125.694
G1 Z0.100
G1 E0.80000 F2100.00000
M204 S500
G1 F1200.000
G1 X153.859 Y125.774 E0.00251
G1 X157.345 Y125.710 E0.04038
G1 X158.035 Y125.387 E0.00882
G1 X158.640 Y124.888 E0.00909
G1 X159.105 Y124.207 E0.00954
G1 X159.381 Y123.465 E0.00917
G1 X159.442 Y110.964 E0.14477
G1 X159.209 Y110.016 E0.01131
G1 X158.676 Y109.153 E0.01174
G1 X158.037 Y108.609 E0.00972
G1 X157.589 Y108.385 E0.00580
M204 S1000
M204 S500
G1 X157.098 Y108.227 E0.00597
G1 X156.977 Y108.229 E0.00140
M204 S1000
G1 F8640.000
G1 X157.098 Y108.227 E-0.02800
G1 X157.589 Y108.385 E-0.11907
G1 E-0.65293 F2100.00000
G1 Z0.700 F10800.000
G1 X153.043 Y125.137
G1 Z0.100
G1 E0.80000 F2100.00000
M204 S500
G1 F1200.000
G1 X152.399 Y124.589 E0.00979
G1 X152.142 Y124.203 E0.00537
G1 X151.944 Y123.798 E0.00522
G1 X151.766 Y123.015 E0.00930
G1 X151.820 Y110.608 E0.14368
G1 X152.068 Y109.933 E0.00832
G1 X152.485 Y109.313 E0.00866
G1 X153.032 Y108.857 E0.00824
G1 X153.679 Y108.554 E0.00828
G1 X156.363 Y108.510 E0.03109
M204 S1000
G1 F8640.000
G1 X153.679 Y108.554 E-0.61989
G1 X153.130 Y108.811 E-0.14011
G1 E-0.04000 F2100.00000
G1 Z0.700 F10800.000
G1 X153.752 Y125.137
G1 Z0.100
G1 E0.80000 F2100.00000
M204 S500
G1 F1200.000
G1 X153.246 Y124.945 E0.00627
G1 X152.619 Y124.418 E0.00948
G1 X152.389 Y124.072 E0.00481
G1 X152.202 Y123.690 E0.00492
G1 X152.041 Y122.970 E0.00855
G1 X152.090 Y110.681 E0.14231
G1 X152.323 Y110.046 E0.00783
G1 X152.704 Y109.487 E0.00783
G1 X153.194 Y109.084 E0.00734
G1 X153.769 Y108.819 E0.00733
G1 X156.802 Y108.774 E0.03513
M204 S1000
G1 F8640.000
G1 X153.769 Y108.819 E-0.70048
G1 X153.535 Y108.927 E-0.05952
G1 E-0.04000 F2100.00000
G1 Z0.700 F10800.000
G1 X153.859 Y109.084
G1 Z0.100
G1 E0.80000 F2100.00000
M204 S500
G1 F1200.000
G1 X156.910 Y109.043 E0.03534
G1 X157.264 Y109.154 E0.00429
G1 X157.613 Y109.331 E0.00453
G1 X158.076 Y109.738 E0.00714
G1 X158.457 Y110.386 E0.00870
G1 X158.617 Y111.104 E0.00852
G1 X158.571 Y123.248 E0.14063
G1 X158.367 Y123.814 E0.00697
G1 X158.033 Y124.313 E0.00695
G1 X157.604 Y124.671 E0.00647
G1 X157.074 Y124.915 E0.00676
G1 X154.080 Y124.965 E0.03467
G1 X153.404 Y124.715 E0.00834
G1 X152.839 Y124.246 E0.00850
G1 X152.626 Y123.926 E0.00446
G1 X152.460 Y123.584 E0.00440
G1 X152.316 Y122.926 E0.00781
G1 X152.360 Y110.752 E0.14097
G1 X152.564 Y110.186 E0.00697
G1 X152.898 Y109.687 E0.00695
G1 X153.328 Y109.329 E0.00647
G1 X153.825 Y109.100 E0.00634
M204 S1000
G1 X153.939 Y109.353 F10800.000
M204 S500
G1 F1200.000
G1 X156.848 Y109.316 E0.03368
G1 X157.169 Y109.417 E0.00390
G1 X157.471 Y109.571 E0.00393
G1 X157.849 Y109.901 E0.00581
G1 X158.190 Y110.469 E0.00767
G1 X158.342 Y111.149 E0.00807
G1 X158.300 Y123.178 E0.13929
G1 X158.124 Y123.676 E0.00612
G1 X157.838 Y124.112 E0.00604
G1 X157.440 Y124.444 E0.00600
G1 X156.986 Y124.650 E0.00578
G1 X154.152 Y124.695 E0.03281
G1 X153.524 Y124.462 E0.00776
G1 X153.059 Y124.074 E0.00700
G1 X152.872 Y123.795 E0.00390
G1 X152.718 Y123.478 E0.00408
G1 X152.592 Y122.883 E0.00705
G1 X152.631 Y110.822 E0.13967
G1 X152.807 Y110.323 E0.00613
G1 X153.093 Y109.888 E0.00604
G1 X153.491 Y109.556 E0.00600
G1 X153.905 Y109.369 E0.00526
M204 S1000
G1 X154.017 Y109.623 F10800.000
M204 S500
G1 F1200.000
G1 X156.787 Y109.588 E0.03207
G1 X157.053 Y109.670 E0.00323
G1 X157.328 Y109.811 E0.00357
G1 X157.647 Y110.094 E0.00494
G1 X157.938 Y110.590 E0.00666
G1 X158.066 Y111.192 E0.00713
G1 X158.030 Y123.109 E0.13801
G1 X157.882 Y123.539 E0.00526
G1 X157.618 Y123.941 E0.00557
G1 X157.280 Y124.216 E0.00504
G1 X156.899 Y124.384 E0.00482
G1 X154.222 Y124.424 E0.03101
G1 X153.680 Y124.230 E0.00666
G1 X153.279 Y123.902 E0.00601
G1 X153.109 Y123.648 E0.00353
G1 X152.977 Y123.374 E0.00353
G1 X152.868 Y122.841 E0.00629
G1 X152.902 Y110.891 E0.13839
G1 X153.050 Y110.461 E0.00526
G1 X153.314 Y110.059 E0.00557
G1 X153.651 Y109.784 E0.00504
G1 X153.983 Y109.638 E0.00420
M204 S1000
G1 X154.095 Y109.893 F10800.000
M204 S500
G1 F1200.000
G1 X156.727 Y109.861 E0.03048
G1 X156.938 Y109.924 E0.00255
G1 X157.184 Y110.050 E0.00320
G1 X157.443 Y110.284 E0.00404
G1 X157.685 Y110.708 E0.00565
G1 X157.788 Y111.205 E0.00588
G1 X157.758 Y123.043 E0.13708
G1 X157.637 Y123.405 E0.00442
G1 X157.422 Y123.742 E0.00464
G1 X157.149 Y123.969 E0.00411
G1 X156.813 Y124.117 E0.00426
G1 X154.292 Y124.153 E0.02919
G1 X153.798 Y123.976 E0.00609
G1 X153.498 Y123.729 E0.00450
G1 X153.355 Y123.518 E0.00295
G1 X153.236 Y123.269 E0.00320
G1 X153.144 Y122.801 E0.00552
G1 X153.173 Y110.957 E0.13716
G1 X153.294 Y110.595 E0.00442
G1 X153.510 Y110.258 E0.00464
G1 X153.782 Y110.031 E0.00411
G1 X154.061 Y109.908 E0.00353
M204 S1000
G1 X154.173 Y110.163 F10800.000
M204 S500
G1 F1200.000
G1 X154.205 Y110.149 E0.00040
G1 X156.670 Y110.134 E0.02855
G1 X156.824 Y110.179 E0.00186
G1 X157.041 Y110.290 E0.00283
G1 X157.215 Y110.446 E0.00270
G1 X157.418 Y110.789 E0.00462
G1 X157.509 Y111.220 E0.00510
G1 X157.487 Y122.975 E0.13613
G1 X157.379 Y123.298 E0.00394
G1 X157.201 Y123.572 E0.00378
G1 X157.019 Y123.722 E0.00273
G1 X156.727 Y123.851 E0.00371
G1 X154.317 Y123.875 E0.02791
G1 X153.919 Y123.725 E0.00492
G1 X153.718 Y123.557 E0.00303
G1 X153.592 Y123.371 E0.00260
G1 X153.495 Y123.166 E0.00262
G1 X153.422 Y122.789 E0.00445
G1 X153.444 Y111.025 E0.13623
G1 X153.552 Y110.701 E0.00395
G1 X153.731 Y110.428 E0.00378
G1 X153.912 Y110.278 E0.00273
G1 X154.139 Y110.178 E0.00287
M204 S1000
G1 X154.042 Y110.525 F10800.000
M204 S500
G1 F1200.000
G1 X154.290 Y110.416 E0.00315
G1 X156.615 Y110.408 E0.02693
G1 X156.711 Y110.434 E0.00114
G1 X156.896 Y110.528 E0.00241
G1 X157.008 Y110.633 E0.00177
G1 X157.165 Y110.906 E0.00365
G1 X157.231 Y111.233 E0.00386
G1 X157.209 Y122.949 E0.13568
G1 X157.124 Y123.186 E0.00291
G1 X156.981 Y123.399 E0.00297
G1 X156.890 Y123.475 E0.00137
G1 X156.641 Y123.584 E0.00315
G1 X154.344 Y123.596 E0.02659
G1 X154.045 Y123.476 E0.00373
G1 X153.938 Y123.385 E0.00162
G1 X153.829 Y123.224 E0.00225
G1 X153.755 Y123.065 E0.00203
G1 X153.701 Y122.777 E0.00340
G1 X153.723 Y111.051 E0.13579
G1 X153.808 Y110.814 E0.00291
G1 X153.950 Y110.601 E0.00297
G1 X154.013 Y110.549 E0.00094
M204 S1000
G1 X154.177 Y110.770 F10800.000
M204 S500
G1 F1200.000
G1 X154.376 Y110.682 E0.00251
G1 X156.568 Y110.682 E0.02539
G1 X156.780 Y110.794 E0.00278
G1 X156.897 Y110.989 E0.00263
G1 X156.952 Y111.248 E0.00306
G1 X156.938 Y122.882 E0.13473
G1 X156.880 Y123.051 E0.00207
G1 X156.778 Y123.208 E0.00216
G1 X156.555 Y123.318 E0.00287
G1 X154.376 Y123.318 E0.02524
G1 X154.157 Y123.212 E0.00281
G1 X154.015 Y122.965 E0.00331
G1 X153.979 Y122.765 E0.00235
G1 X153.994 Y111.118 E0.13487
