; generated by PrusaSlicer 2.2.0 on 2020-07-26 at 20:04:09 UTC

; 

; external perimeters extrusion width = 0.25mm
; perimeters extrusion width = 0.25mm
; infill extrusion width = 0.25mm
; solid infill extrusion width = 0.25mm
; top infill extrusion width = 0.25mm
; support material extrusion width = 0.20mm
; first layer extrusion width = 0.30mm

M73 P0 R27
M73 Q0 S28
M201 X1000 Y1000 Z200 E5000 ; sets maximum accelerations, mm/sec^2
M203 X200 Y200 Z12 E120 ; sets maximum feedrates, mm/sec
M204 P1250 R1250 T1250 ; sets acceleration (P, T) and retract acceleration (R), mm/sec^2
M205 X8.00 Y8.00 Z0.40 E4.50 ; sets the jerk limits, mm/sec
M205 S0 T0 ; sets the minimum extruding and travel feed rate, mm/sec
M107
M862.3 P "MK3S" ; printer model check
M862.1 P0.25 ; nozzle diameter check
M115 U3.9.0 ; tell printer latest fw version
G90 ; use absolute coordinates
M83 ; extruder relative mode
M104 S215 ; set extruder temp
M140 S60 ; set bed temp
M190 S60 ; wait for bed temp
M109 S215 ; wait for extruder temp
G28 W ; home all without mesh bed level
G80 ; mesh bed leveling
G1 Y-3.0 F1000.0 ; go outside print area
G92 E0.0
G1 X60.0 E9.0 F1000.0 ; intro line
M73 Q0 S28
M73 P0 R27
G1 X100.0 E12.5 F1000.0 ; intro line
G92 E0.0
M221 S95
G21 ; set units to millimeters
G90 ; use absolute coordinates
M83 ; use relative distances for extrusion
M900 K0.06 ; Filament gcode LA 1.5
M900 K30 ; Filament gcode LA 1.0
;BEFORE_LAYER_CHANGE
G92 E0.0
;0.1


G1 E-0.80000 F2100.00000
G1 Z0.600 F10800.000
;AFTER_LAYER_CHANGE
;0.1
G1 X88.755 Y83.646
G1 Z0.100
G1 E0.80000 F2100.00000
M204 S500
G1 F1200.000
G1 X89.361 Y83.242 E0.00843
G1 X90.057 Y83.026 E0.00843
G1 X100.492 Y82.868 E0.12086
G1 X101.404 Y83.037 E0.01074
G1 X157.329 Y104.634 E0.69424
G1 X157.827 Y104.887 E0.00648
G1 X158.338 Y105.307 E0.00766
G1 X158.734 Y105.830 E0.00759
G1 X159.001 Y106.443 E0.00774
G1 X159.115 Y107.092 E0.00763
G1 X159.118 Y118.836 E0.13600
G1 X158.997 Y119.570 E0.00862
G1 X158.678 Y120.262 E0.00883
G1 X158.261 Y120.771 E0.00762
G1 X157.739 Y121.168 E0.00759
G1 X157.138 Y121.433 E0.00761
G1 X156.482 Y121.552 E0.00773
G1 X100.596 Y124.773 E0.64825
G1 X90.370 Y124.773 E0.11842
G1 X89.695 Y124.657 E0.00794
G1 X89.078 Y124.368 E0.00789
G1 X88.602 Y123.973 E0.00717
G1 X88.234 Y123.475 E0.00717
G1 X87.997 Y122.900 E0.00721
G1 X87.905 Y122.288 E0.00717
G1 X87.904 Y85.543 E0.42552
G1 X87.996 Y84.871 E0.00785
G1 X88.287 Y84.204 E0.00843
G1 X88.731 Y83.674 E0.00800
M204 S1000
G1 X88.943 Y83.854 F10800.000
M204 S500
G1 F1200.000
G1 X89.501 Y83.484 E0.00775
G1 X90.131 Y83.296 E0.00762
G1 X100.494 Y83.147 E0.12001
G1 X101.307 Y83.299 E0.00958
G1 X157.228 Y104.893 E0.69420
G1 X157.676 Y105.121 E0.00582
G1 X158.138 Y105.501 E0.00692
G1 X158.503 Y105.987 E0.00704
G1 X158.736 Y106.530 E0.00685
G1 X158.838 Y107.125 E0.00699
G1 X158.840 Y118.817 E0.13540
G1 X158.734 Y119.478 E0.00775
G1 X158.449 Y120.103 E0.00795
G1 X158.073 Y120.565 E0.00690
G1 X157.601 Y120.926 E0.00688
G1 X157.048 Y121.170 E0.00700
G1 X156.464 Y121.274 E0.00687
G1 X100.586 Y124.494 E0.64816
G1 X90.390 Y124.495 E0.11807
G1 X89.789 Y124.395 E0.00706
G1 X89.236 Y124.139 E0.00706
G1 X88.805 Y123.783 E0.00646
G1 X88.476 Y123.337 E0.00642
G1 X88.265 Y122.825 E0.00642
G1 X88.183 Y122.273 E0.00646
G1 X88.183 Y85.547 E0.42530
G1 X88.264 Y84.946 E0.00702
G1 X88.528 Y84.344 E0.00762
G1 X88.919 Y83.882 E0.00700
M204 S1000
G1 F8640.000
G1 X89.501 Y83.484 E-0.16286
G1 X90.131 Y83.296 E-0.15188
G1 X92.059 Y83.268 E-0.44526
G1 E-0.04000 F2100.00000
G1 Z0.700 F10800.000
G1 X152.161 Y103.086
G1 Z0.100
G1 E0.80000 F2100.00000
M204 S500
G1 F1200.000
G1 X151.899 Y103.214 E0.00338
G1 X150.995 Y103.961 E0.01358
G1 X150.307 Y104.932 E0.01379
G1 X149.865 Y106.020 E0.01360
G1 X149.758 Y119.353 E0.15440
G1 X150.063 Y120.562 E0.01445
G1 X150.391 Y121.215 E0.00846
G1 X150.565 Y121.475 E0.00362
M204 S1000
G1 X151.016 Y122.007 F10800.000
M204 S500
G1 F1200.000
G1 X151.902 Y122.788 E0.01368
G1 X153.269 Y123.378 E0.01724
G1 X157.581 Y123.368 E0.04994
G1 X157.964 Y123.279 E0.00455
G1 X159.007 Y122.767 E0.01346
G1 X159.883 Y122.036 E0.01321
G1 X160.569 Y121.066 E0.01377
G1 X161.010 Y119.980 E0.01357
G1 X161.115 Y106.652 E0.15435
G1 X160.719 Y105.233 E0.01705
G1 X159.906 Y103.989 E0.01722
G1 X158.896 Y103.156 E0.01516
G1 X158.227 Y102.828 E0.00863
M204 S1000
M204 S500
G1 X157.508 Y102.594 E0.00876
G1 X153.067 Y102.674 E0.05143
G1 X152.951 Y102.702 E0.00138
G1 X152.846 Y102.753 E0.00136
M204 S1000
G1 X153.349 Y102.947 F10800.000
M204 S500
G1 F1200.000
G1 X157.444 Y102.866 E0.04743
M204 S1000
M204 S500
G1 X158.113 Y103.083 E0.00814
G1 X158.758 Y103.399 E0.00832
G1 X159.711 Y104.189 E0.01434
G1 X160.473 Y105.366 E0.01624
G1 X160.841 Y106.706 E0.01609
G1 X160.742 Y119.901 E0.15280
G1 X160.332 Y120.919 E0.01272
G1 X159.690 Y121.834 E0.01294
G1 X158.842 Y122.542 E0.01279
G1 X157.856 Y123.022 E0.01270
G1 X157.564 Y123.090 E0.00347
G1 X153.352 Y123.110 E0.04878
G1 X152.068 Y122.563 E0.01615
G1 X151.407 Y121.984 E0.01018
M204 S1000
G1 X150.888 Y121.456 F10800.000
M204 S500
G1 F1200.000
G1 X150.627 Y121.067 E0.00543
G1 X150.319 Y120.452 E0.00797
G1 X150.032 Y119.302 E0.01372
G1 X150.133 Y106.100 E0.15289
G1 X150.559 Y105.052 E0.01310
G1 X151.211 Y104.138 E0.01301
G1 X152.062 Y103.440 E0.01275
G1 X152.514 Y103.222 E0.00581
M204 S1000
G1 X152.870 Y103.360 F10800.000
M204 S500
G1 F1200.000
G1 X152.198 Y103.683 E0.00863
G1 X151.403 Y104.340 E0.01195
G1 X150.796 Y105.199 E0.01218
G1 X150.401 Y106.180 E0.01224
G1 X150.307 Y119.253 E0.15139
G1 X150.575 Y120.341 E0.01298
G1 X150.863 Y120.919 E0.00748
G1 X151.211 Y121.437 E0.00723
M204 S1000
G1 X151.801 Y121.961 F10800.000
M204 S500
G1 F1200.000
G1 X152.234 Y122.338 E0.00665
G1 X153.433 Y122.843 E0.01506
G1 X157.547 Y122.811 E0.04764
G1 X157.750 Y122.764 E0.00241
G1 X158.678 Y122.316 E0.01194
G1 X159.474 Y121.658 E0.01196
G1 X160.080 Y120.800 E0.01217
G1 X160.474 Y119.821 E0.01222
G1 X160.568 Y106.760 E0.15125
G1 X160.227 Y105.498 E0.01514
G1 X159.516 Y104.389 E0.01526
G1 X158.620 Y103.641 E0.01352
G1 X158.018 Y103.345 E0.00777
M204 S1000
M204 S500
G1 X157.381 Y103.138 E0.00776
G1 X154.031 Y103.211 E0.03880
M204 S1000
G1 X154.687 Y103.464 F10800.000
M204 S500
G1 F1200.000
G1 X157.317 Y103.410 E0.03045
M204 S1000
M204 S500
G1 X157.922 Y103.607 E0.00737
G1 X158.482 Y103.883 E0.00724
G1 X159.293 Y104.557 E0.01221
G1 X159.981 Y105.630 E0.01475
G1 X160.294 Y106.813 E0.01418
G1 X160.205 Y119.742 E0.14972
G1 X159.842 Y120.654 E0.01137
G1 X159.282 Y121.456 E0.01133
G1 X158.514 Y122.091 E0.01153
G1 X157.643 Y122.506 E0.01117
G1 X157.528 Y122.533 E0.00137
G1 X153.515 Y122.575 E0.04648
G1 X152.363 Y122.090 E0.01446
G1 X152.191 Y121.939 E0.00265
M204 S1000
G1 X151.595 Y121.415 F10800.000
M204 S500
G1 F1200.000
G1 X151.427 Y121.267 E0.00260
G1 X151.101 Y120.774 E0.00685
G1 X150.832 Y120.232 E0.00701
G1 X150.582 Y119.204 E0.01225
G1 X150.669 Y106.259 E0.14991
G1 X151.033 Y105.347 E0.01137
G1 X151.619 Y104.517 E0.01177
G1 X152.361 Y103.910 E0.01110
G1 X153.226 Y103.497 E0.01109
M204 S1000
G1 X153.876 Y103.748 F10800.000
M204 S500
G1 F1200.000
G1 X153.324 Y103.759 E0.00639
G1 X152.524 Y104.136 E0.01024
G1 X151.811 Y104.720 E0.01067
G1 X151.271 Y105.492 E0.01091
G1 X150.938 Y106.336 E0.01051
G1 X150.856 Y119.155 E0.14845
G1 X151.088 Y120.123 E0.01152
G1 X151.338 Y120.627 E0.00652
G1 X151.649 Y121.098 E0.00653
G1 X151.987 Y121.393 E0.00520
M204 S1000
G1 X152.644 Y121.913 F10800.000
M204 S500
G1 F1200.000
G1 X153.594 Y122.306 E0.01191
G1 X157.538 Y122.248 E0.04568
G1 X158.351 Y121.864 E0.01041
G1 X159.064 Y121.280 E0.01067
G1 X159.604 Y120.508 E0.01091
G1 X159.937 Y119.664 E0.01051
G1 X160.019 Y106.865 E0.14822
G1 X159.733 Y105.760 E0.01322
G1 X159.098 Y104.757 E0.01375
G1 X158.344 Y104.126 E0.01139
G1 X157.808 Y103.861 E0.00692
M204 S1000
M204 S500
G1 X157.253 Y103.683 E0.00674
G1 X155.348 Y103.720 E0.02207
M204 S1000
G1 X156.013 Y103.976 F10800.000
M204 S500
G1 F1200.000
G1 X157.190 Y103.955 E0.01364
M204 S1000
M204 S500
G1 X157.712 Y104.123 E0.00636
G1 X158.204 Y104.367 E0.00636
G1 X158.901 Y104.955 E0.01056
G1 X159.486 Y105.889 E0.01275
G1 X159.745 Y106.916 E0.01227
G1 X159.668 Y119.587 E0.14674
G1 X159.365 Y120.364 E0.00965
G1 X158.872 Y121.078 E0.01006
G1 X158.216 Y121.620 E0.00984
G1 X157.460 Y121.977 E0.00969
G1 X153.674 Y122.038 E0.04384
G1 X153.283 Y121.876 E0.00490
M204 S1000
G1 F8640.000
G1 X153.674 Y122.038 E-0.09775
G1 X156.542 Y121.992 E-0.66225
G1 E-0.04000 F2100.00000
G1 Z0.700 F10800.000
G1 X152.375 Y121.370
G1 Z0.100
G1 E0.80000 F2100.00000
M204 S500
G1 F1200.000
G1 X151.871 Y120.928 E0.00777
G1 X151.584 Y120.496 E0.00601
G1 X151.345 Y120.014 E0.00623
G1 X151.131 Y119.108 E0.01078
G1 X151.207 Y106.414 E0.14700
G1 X151.510 Y105.637 E0.00966
G1 X152.004 Y104.922 E0.01006
G1 X152.659 Y104.381 E0.00984
G1 X153.416 Y104.023 E0.00969
G1 X154.536 Y104.003 E0.01297
M204 S1000
G1 X155.200 Y104.260 F10800.000
M204 S500
G1 F1200.000
G1 X153.507 Y104.288 E0.01961
G1 X152.821 Y104.608 E0.00876
G1 X152.221 Y105.098 E0.00897
G1 X151.763 Y105.753 E0.00926
G1 X151.476 Y106.491 E0.00917
G1 X151.406 Y119.061 E0.14557
G1 X151.602 Y119.905 E0.01004
G1 X151.821 Y120.349 E0.00573
G1 X152.092 Y120.758 E0.00568
G1 X152.771 Y121.348 E0.01041
M204 S1000
G1 F8640.000
G1 X152.092 Y120.758 E-0.20759
G1 X151.821 Y120.349 E-0.11332
G1 X151.602 Y119.905 E-0.11429
G1 X151.406 Y119.061 E-0.20020
G1 X151.409 Y118.521 E-0.12460
G1 E-0.04000 F2100.00000
G1 Z0.700 F10800.000
G1 X155.657 Y121.739
G1 Z0.100
G1 E0.80000 F2100.00000
M204 S500
G1 F1200.000
G1 X157.369 Y121.712 E0.01983
G1 X158.054 Y121.393 E0.00876
G1 X158.655 Y120.903 E0.00897
G1 X159.112 Y120.247 E0.00926
G1 X159.399 Y119.510 E0.00916
G1 X159.470 Y106.965 E0.14527
G1 X159.237 Y106.016 E0.01133
G1 X158.703 Y105.153 E0.01175
G1 X158.064 Y104.609 E0.00972
G1 X157.617 Y104.385 E0.00579
M204 S1000
M204 S500
G1 X157.126 Y104.227 E0.00597
G1 X156.681 Y104.234 E0.00515
M204 S1000
G1 F8640.000
G1 X157.126 Y104.227 E-0.10274
G1 X157.617 Y104.385 E-0.11895
G1 E-0.57831 F2100.00000
G1 Z0.700 F10800.000
G1 X153.357 Y121.314
G1 Z0.100
G1 E0.80000 F2100.00000
M204 S500
G1 F1200.000
G1 X152.950 Y121.143 E0.00511
G1 X152.314 Y120.589 E0.00977
G1 X152.058 Y120.203 E0.00536
G1 X151.860 Y119.798 E0.00523
G1 X151.681 Y119.015 E0.00930
G1 X151.745 Y106.567 E0.14415
G1 X152.002 Y105.897 E0.00831
G1 X152.413 Y105.300 E0.00840
G1 X152.955 Y104.853 E0.00813
G1 X153.598 Y104.553 E0.00821
G1 X155.869 Y104.518 E0.02630
M204 S1000
G1 F8640.000
G1 X153.598 Y104.553 E-0.52449
G1 X152.955 Y104.853 E-0.16364
G1 X152.715 Y105.051 E-0.07186
G1 E-0.04000 F2100.00000
G1 Z0.700 F10800.000
G1 X155.235 Y121.206
G1 Z0.100
G1 E0.80000 F2100.00000
M204 S500
G1 F1200.000
G1 X153.858 Y121.222 E0.01595
G1 X153.114 Y120.917 E0.00932
G1 X152.535 Y120.418 E0.00885
G1 X152.304 Y120.072 E0.00481
G1 X152.117 Y119.691 E0.00492
G1 X151.957 Y118.970 E0.00855
G1 X152.014 Y106.642 E0.14276
G1 X152.242 Y106.041 E0.00744
G1 X152.631 Y105.474 E0.00796
G1 X153.116 Y105.080 E0.00724
G1 X153.687 Y104.818 E0.00727
G1 X156.542 Y104.778 E0.03307
M204 S1000
G1 F8640.000
G1 X153.687 Y104.818 E-0.65941
G1 X153.291 Y105.000 E-0.10059
G1 E-0.04000 F2100.00000
G1 Z0.700 F10800.000
G1 X153.775 Y105.084
G1 Z0.100
G1 E0.80000 F2100.00000
M204 S500
G1 F1200.000
G1 X156.938 Y105.044 E0.03664
G1 X157.291 Y105.155 E0.00429
G1 X157.640 Y105.331 E0.00453
G1 X158.104 Y105.738 E0.00714
G1 X158.485 Y106.386 E0.00871
G1 X158.645 Y107.105 E0.00853
G1 X158.591 Y119.285 E0.14106
G1 X158.393 Y119.818 E0.00659
G1 X158.052 Y120.323 E0.00705
G1 X157.598 Y120.692 E0.00678
G1 X157.101 Y120.916 E0.00631
G1 X153.936 Y120.954 E0.03666
G1 X153.276 Y120.689 E0.00823
G1 X152.755 Y120.247 E0.00791
G1 X152.541 Y119.926 E0.00447
G1 X152.375 Y119.584 E0.00440
G1 X152.232 Y118.926 E0.00781
G1 X152.284 Y106.715 E0.14140
G1 X152.482 Y106.182 E0.00659
G1 X152.823 Y105.677 E0.00706
G1 X153.278 Y105.308 E0.00678
G1 X153.740 Y105.100 E0.00588
M204 S1000
G1 X153.855 Y105.354 F10800.000
M204 S500
G1 F1200.000
G1 X156.876 Y105.316 E0.03499
G1 X157.196 Y105.417 E0.00389
G1 X157.498 Y105.571 E0.00393
G1 X157.877 Y105.901 E0.00581
G1 X158.218 Y106.469 E0.00768
G1 X158.370 Y107.150 E0.00808
G1 X158.321 Y119.213 E0.13969
G1 X158.151 Y119.679 E0.00575
G1 X157.858 Y120.122 E0.00615
G1 X157.466 Y120.446 E0.00589
G1 X157.013 Y120.650 E0.00575
G1 X154.011 Y120.684 E0.03476
G1 X153.436 Y120.460 E0.00714
G1 X152.975 Y120.075 E0.00696
G1 X152.787 Y119.795 E0.00390
G1 X152.634 Y119.478 E0.00408
G1 X152.508 Y118.883 E0.00705
G1 X152.554 Y106.788 E0.14007
G1 X152.724 Y106.321 E0.00575
G1 X153.017 Y105.878 E0.00615
G1 X153.409 Y105.554 E0.00589
G1 X153.821 Y105.369 E0.00522
M204 S1000
G1 X153.933 Y105.623 F10800.000
M204 S500
G1 F1200.000
G1 X156.815 Y105.588 E0.03338
G1 X157.081 Y105.670 E0.00323
G1 X157.355 Y105.811 E0.00357
G1 X157.675 Y106.094 E0.00494
G1 X157.966 Y106.590 E0.00666
G1 X158.095 Y107.193 E0.00714
G1 X158.051 Y119.140 E0.13835
G1 X157.895 Y119.568 E0.00527
G1 X157.639 Y119.949 E0.00532
G1 X157.307 Y120.217 E0.00495
G1 X156.927 Y120.384 E0.00480
G1 X154.084 Y120.415 E0.03292
G1 X153.594 Y120.230 E0.00607
G1 X153.195 Y119.902 E0.00598
G1 X153.024 Y119.649 E0.00354
G1 X152.892 Y119.374 E0.00353
G1 X152.783 Y118.841 E0.00629
G1 X152.824 Y106.860 E0.13874
G1 X152.980 Y106.433 E0.00527
G1 X153.236 Y106.052 E0.00532
G1 X153.569 Y105.784 E0.00495
G1 X153.898 Y105.638 E0.00417
M204 S1000
G1 X154.011 Y105.893 F10800.000
M204 S500
G1 F1200.000
G1 X156.755 Y105.861 E0.03178
G1 X156.966 Y105.924 E0.00255
G1 X157.212 Y106.050 E0.00320
G1 X157.471 Y106.285 E0.00404
G1 X157.713 Y106.708 E0.00565
G1 X157.816 Y107.206 E0.00589
G1 X157.781 Y119.070 E0.13739
G1 X157.653 Y119.430 E0.00443
G1 X157.445 Y119.748 E0.00440
G1 X157.176 Y119.970 E0.00403
G1 X156.841 Y120.118 E0.00424
G1 X154.158 Y120.145 E0.03107
G1 X153.714 Y119.977 E0.00550
G1 X153.414 Y119.729 E0.00451
G1 X153.271 Y119.518 E0.00295
G1 X153.151 Y119.270 E0.00320
G1 X153.059 Y118.802 E0.00552
G1 X153.094 Y106.931 E0.13747
G1 X153.222 Y106.570 E0.00443
G1 X153.430 Y106.252 E0.00440
G1 X153.699 Y106.030 E0.00403
G1 X153.976 Y105.908 E0.00351
M204 S1000
G1 X154.089 Y106.163 F10800.000
M204 S500
G1 F1200.000
G1 X154.120 Y106.149 E0.00040
G1 X156.698 Y106.134 E0.02985
G1 X156.852 Y106.179 E0.00186
G1 X157.069 Y106.290 E0.00283
G1 X157.243 Y106.446 E0.00270
G1 X157.446 Y106.789 E0.00462
G1 X157.537 Y107.221 E0.00511
G1 X157.511 Y118.999 E0.13639
G1 X157.396 Y119.320 E0.00395
G1 X157.225 Y119.576 E0.00357
G1 X157.046 Y119.723 E0.00268
G1 X156.755 Y119.851 E0.00369
G1 X154.233 Y119.875 E0.02921
G1 X153.835 Y119.725 E0.00492
G1 X153.634 Y119.557 E0.00303
G1 X153.508 Y119.371 E0.00261
G1 X153.411 Y119.167 E0.00262
G1 X153.338 Y118.789 E0.00445
G1 X153.364 Y107.002 E0.13650
G1 X153.479 Y106.681 E0.00395
G1 X153.650 Y106.424 E0.00357
G1 X153.829 Y106.278 E0.00268
G1 X154.054 Y106.178 E0.00285
M204 S1000
G1 X153.958 Y106.525 F10800.000
M204 S500
G1 F1200.000
G1 X154.206 Y106.416 E0.00314
G1 X156.643 Y106.408 E0.02823
G1 X156.739 Y106.434 E0.00114
G1 X156.924 Y106.529 E0.00241
G1 X157.036 Y106.633 E0.00177
G1 X157.193 Y106.907 E0.00365
G1 X157.259 Y107.233 E0.00386
G1 X157.232 Y118.971 E0.13592
G1 X157.143 Y119.203 E0.00288
G1 X157.007 Y119.402 E0.00279
G1 X156.917 Y119.475 E0.00135
G1 X156.669 Y119.585 E0.00314
G1 X154.260 Y119.597 E0.02790
G1 X153.961 Y119.476 E0.00373
G1 X153.854 Y119.386 E0.00162
G1 X153.745 Y119.224 E0.00226
G1 X153.671 Y119.066 E0.00203
G1 X153.616 Y118.777 E0.00340
G1 X153.643 Y107.030 E0.13604
G1 X153.732 Y106.798 E0.00288
G1 X153.868 Y106.599 E0.00279
G1 X153.929 Y106.549 E0.00092
M204 S1000
G1 X154.093 Y106.770 F10800.000
M204 S500
G1 F1200.000
G1 X154.292 Y106.683 E0.00251
G1 X156.596 Y106.683 E0.02669
G1 X156.808 Y106.794 E0.00278
G1 X156.926 Y106.989 E0.00263
G1 X156.980 Y107.248 E0.00307
G1 X156.962 Y118.899 E0.13491
G1 X156.901 Y119.065 E0.00205
G1 X156.805 Y119.209 E0.00201
G1 X156.583 Y119.318 E0.00286
G1 X154.292 Y119.318 E0.02654
G1 X154.073 Y119.213 E0.00281
G1 X153.931 Y118.965 E0.00331
G1 X153.895 Y118.765 E0.00235
