; generated by PrusaSlicer 2.2.0 on 2020-07-26 at 23:51:17 UTC

; 

; external perimeters extrusion width = 0.25mm
; perimeters extrusion width = 0.25mm
; infill extrusion width = 0.25mm
; solid infill extrusion width = 0.25mm
; top infill extrusion width = 0.25mm
; support material extrusion width = 0.20mm
; first layer extrusion width = 0.30mm

M73 P0 R34
M73 Q0 S34
M201 X1000 Y1000 Z200 E5000 ; sets maximum accelerations, mm/sec^2
M203 X200 Y200 Z12 E120 ; sets maximum feedrates, mm/sec
M204 P1250 R1250 T1250 ; sets acceleration (P, T) and retract acceleration (R), mm/sec^2
M205 X8.00 Y8.00 Z0.40 E4.50 ; sets the jerk limits, mm/sec
M205 S0 T0 ; sets the minimum extruding and travel feed rate, mm/sec
M107
M862.3 P "MK3S" ; printer model check
M862.1 P0.25 ; nozzle diameter check
M115 U3.9.0 ; tell printer latest fw version
G90 ; use absolute coordinates
M83 ; extruder relative mode
M104 S215 ; set extruder temp
M140 S60 ; set bed temp
M190 S60 ; wait for bed temp
M109 S215 ; wait for extruder temp
G28 W ; home all without mesh bed level
G80 ; mesh bed leveling
G1 Y-3.0 F1000.0 ; go outside print area
G92 E0.0
G1 X60.0 E9.0 F1000.0 ; intro line
M73 Q0 S34
M73 P0 R34
G1 X100.0 E12.5 F1000.0 ; intro line
G92 E0.0
M221 S95
G21 ; set units to millimeters
G90 ; use absolute coordinates
M83 ; use relative distances for extrusion
M900 K0.06 ; Filament gcode LA 1.5
M900 K30 ; Filament gcode LA 1.0
;BEFORE_LAYER_CHANGE
G92 E0.0
;0.1


G1 E-0.80000 F2100.00000
G1 Z0.600 F10800.000
;AFTER_LAYER_CHANGE
;0.1
G1 X102.314 Y114.816
G1 Z0.100
G1 E0.80000 F2100.00000
M204 S500
G1 F1200.000
G1 X102.012 Y114.117 E0.00881
G1 X101.894 Y113.466 E0.00766
G1 X101.886 Y112.385 E0.01252
G1 X101.951 Y111.779 E0.00706
G1 X102.134 Y111.194 E0.00711
G1 X102.428 Y110.655 E0.00711
G1 X102.820 Y110.188 E0.00706
G1 X121.969 Y94.564 E0.28621
G1 X122.663 Y94.134 E0.00944
G1 X123.408 Y93.823 E0.00935
G1 X124.176 Y93.636 E0.00915
G1 X125.052 Y93.570 E0.01018
G1 X125.861 Y93.642 E0.00940
G1 X126.623 Y93.833 E0.00910
G1 X127.347 Y94.139 E0.00910
G1 X128.036 Y94.568 E0.00940
G1 X147.185 Y110.193 E0.28621
G1 X147.576 Y110.661 E0.00706
G1 X147.869 Y111.200 E0.00711
G1 X148.050 Y111.782 E0.00706
G1 X148.114 Y112.392 E0.00711
G1 X148.106 Y113.470 E0.01249
G1 X147.987 Y114.121 E0.00766
G1 X147.682 Y114.823 E0.00886
G1 X147.217 Y115.426 E0.00881
G1 X146.756 Y115.811 E0.00696
G1 X146.234 Y116.099 E0.00691
G1 X145.666 Y116.282 E0.00691
G1 X145.070 Y116.353 E0.00696
G1 X105.000 Y116.354 E0.46402
G1 X104.385 Y116.292 E0.00716
G1 X103.794 Y116.111 E0.00716
G1 X103.251 Y115.816 E0.00716
G1 X102.777 Y115.420 E0.00716
G1 X102.337 Y114.845 E0.00838
M204 S1000
G1 X102.561 Y114.677 F10800.000
M204 S500
G1 F1200.000
G1 X102.270 Y114.006 E0.00846
G1 X102.170 Y113.421 E0.00688
G1 X102.165 Y112.370 E0.01217
G1 X102.228 Y111.813 E0.00649
G1 X102.399 Y111.283 E0.00645
G1 X102.669 Y110.796 E0.00645
G1 X103.030 Y110.372 E0.00645
G1 X122.130 Y94.792 E0.28545
G1 X122.786 Y94.384 E0.00893
G1 X123.490 Y94.089 E0.00885
G1 X124.220 Y93.911 E0.00870
G1 X125.052 Y93.848 E0.00966
G1 X125.817 Y93.917 E0.00889
G1 X126.538 Y94.099 E0.00861
G1 X127.222 Y94.388 E0.00861
G1 X127.874 Y94.795 E0.00889
G1 X146.975 Y110.377 E0.28547
G1 X147.335 Y110.802 E0.00645
G1 X147.604 Y111.289 E0.00645
G1 X147.774 Y111.823 E0.00649
G1 X147.835 Y112.376 E0.00645
G1 X147.829 Y113.427 E0.01216
G1 X147.728 Y114.012 E0.00688
G1 X147.455 Y114.658 E0.00812
G1 X147.032 Y115.217 E0.00812
G1 X146.610 Y115.574 E0.00640
G1 X146.131 Y115.840 E0.00635
G1 X145.605 Y116.010 E0.00640
G1 X145.057 Y116.075 E0.00640
G1 X105.000 Y116.075 E0.46387
G1 X104.438 Y116.019 E0.00654
G1 X103.894 Y115.851 E0.00659
G1 X103.395 Y115.577 E0.00659
G1 X102.961 Y115.210 E0.00659
G1 X102.583 Y114.707 E0.00728
M204 S1000
G1 F8640.000
G1 X102.270 Y114.006 E-0.17722
G1 X102.170 Y113.421 E-0.13711
G1 X102.165 Y112.370 E-0.24275
G1 X102.228 Y111.813 E-0.12947
G1 X102.326 Y111.510 E-0.07345
G1 E-0.04000 F2100.00000
G1 Z0.700 F10800.000
G1 X102.659 Y111.383
G1 Z0.100
G1 E0.80000 F2100.00000
M204 S500
G1 F1200.000
G1 X103.236 Y110.560 E0.01164
G1 X122.295 Y95.016 E0.28480
G1 X122.913 Y94.632 E0.00842
G1 X123.577 Y94.354 E0.00834
G1 X124.261 Y94.187 E0.00816
G1 X125.052 Y94.127 E0.00918
G1 X125.781 Y94.193 E0.00848
G1 X126.478 Y94.373 E0.00834
G1 X127.125 Y94.652 E0.00816
G1 X127.789 Y95.079 E0.00914
G1 X146.770 Y110.566 E0.28369
G1 X147.343 Y111.386 E0.01159
G1 X147.557 Y112.368 E0.01164
G1 X147.553 Y113.386 E0.01178
G1 X147.469 Y113.903 E0.00607
G1 X147.226 Y114.498 E0.00744
G1 X146.845 Y115.010 E0.00739
G1 X146.024 Y115.583 E0.01159
G1 X145.050 Y115.796 E0.01155
G1 X105.000 Y115.797 E0.46380
G1 X104.486 Y115.744 E0.00598
G1 X103.993 Y115.590 E0.00598
G1 X103.541 Y115.340 E0.00598
G1 X103.149 Y115.003 E0.00598
G1 X102.770 Y114.490 E0.00739
G1 X102.529 Y113.899 E0.00739
G1 X102.447 Y113.381 E0.00607
G1 X102.443 Y112.360 E0.01182
G1 X102.651 Y111.419 E0.01116
M204 S1000
G1 X102.920 Y111.481 F10800.000
M204 S500
G1 F1200.000
G1 X103.440 Y110.751 E0.01038
G1 X122.459 Y95.241 E0.28420
G1 X123.040 Y94.880 E0.00791
G1 X123.664 Y94.619 E0.00783
G1 X124.306 Y94.462 E0.00766
G1 X125.052 Y94.405 E0.00866
G1 X125.733 Y94.468 E0.00792
G1 X126.388 Y94.636 E0.00783
G1 X126.995 Y94.899 E0.00766
G1 X127.624 Y95.304 E0.00866
G1 X146.563 Y110.754 E0.28305
G1 X147.082 Y111.485 E0.01038
G1 X147.278 Y112.360 E0.01038
G1 X147.208 Y113.801 E0.01670
G1 X146.997 Y114.337 E0.00668
G1 X146.658 Y114.803 E0.00668
G1 X145.923 Y115.323 E0.01043
G1 X145.040 Y115.518 E0.01047
G1 X105.000 Y115.518 E0.46368
G1 X104.097 Y115.331 E0.01068
G1 X103.339 Y114.799 E0.01072
G1 X103.001 Y114.333 E0.00668
G1 X102.790 Y113.796 E0.00668
G1 X102.722 Y112.355 E0.01670
G1 X102.912 Y111.518 E0.00995
M204 S1000
G1 F8640.000
G1 X103.440 Y110.751 E-0.21504
G1 X105.269 Y109.259 E-0.54496
G1 E-0.04000 F2100.00000
G1 Z0.700 F10800.000
G1 X118.240 Y97.427
G1 Z0.100
G1 E0.80000 F2100.00000
M204 S500
G1 F1200.000
G1 X101.803 Y109.101 E0.23347
G1 X100.816 Y110.506 E0.01988
G1 X100.400 Y112.114 E0.01924
G1 X100.517 Y114.452 E0.02710
G1 X100.959 Y115.537 E0.01357
G1 X101.721 Y116.529 E0.01448
G1 X102.581 Y117.162 E0.01237
G1 X104.097 Y117.797 E0.01903
G1 X104.878 Y117.884 E0.00910
G1 X105.665 Y117.844 E0.00913
G1 X107.114 Y117.349 E0.01773
G1 X108.326 Y116.493 E0.01718
M204 S1000
G1 F8640.000
G1 X107.114 Y117.349 E-0.34263
G1 X105.665 Y117.844 E-0.35352
G1 X105.389 Y117.858 E-0.06385
G1 E-0.04000 F2100.00000
G1 Z0.700 F10800.000
G1 X109.904 Y115.379
G1 Z0.100
G1 E0.80000 F2100.00000
M204 S500
G1 F1200.000
G1 X124.295 Y105.219 E0.20400
G1 X125.006 Y105.279 E0.00826
G1 X125.706 Y105.219 E0.00813
G1 X140.140 Y115.378 E0.20441
M204 S1000
G1 F8640.000
G1 X137.449 Y113.484 E-0.76000
G1 E-0.04000 F2100.00000
G1 Z0.700 F10800.000
G1 X141.723 Y116.492
G1 Z0.100
G1 E0.80000 F2100.00000
M204 S500
G1 F1200.000
G1 X143.079 Y117.447 E0.01921
G1 X144.343 Y117.845 E0.01534
G1 X145.123 Y117.884 E0.00905
G1 X145.903 Y117.797 E0.00910
G1 X147.412 Y117.166 E0.01893
G1 X148.342 Y116.467 E0.01347
G1 X149.050 Y115.520 E0.01370
G1 X149.482 Y114.456 E0.01330
G1 X149.600 Y112.119 E0.02710
G1 X149.193 Y110.526 E0.01903
G1 X148.276 Y109.181 E0.01885
G1 X131.771 Y97.436 E0.23459
M204 S1000
G1 X131.385 Y97.121 F10800.000
M204 S500
G1 F1200.000
G1 X131.223 Y96.498 E0.00745
G1 X130.813 Y95.567 E0.01178
G1 X130.201 Y94.627 E0.01300
G1 X129.462 Y93.826 E0.01261
G1 X128.606 Y93.161 E0.01256
G1 X127.721 Y92.675 E0.01168
G1 X126.852 Y92.352 E0.01074
M204 S1000
M204 S500
G1 X125.540 Y92.109 E0.01545
G1 X124.457 Y92.110 E0.01254
G1 X123.381 Y92.288 E0.01263
G1 X122.634 Y92.526 E0.00908
G1 X121.910 Y92.855 E0.00922
G1 X121.084 Y93.374 E0.01129
G1 X120.159 Y94.203 E0.01439
G1 X119.506 Y95.034 E0.01223
G1 X119.061 Y95.814 E0.01041
G1 X118.737 Y96.614 E0.00999
G1 X118.610 Y97.125 E0.00611
M204 S1000
G1 X118.969 Y96.832 F10800.000
M204 S500
G1 F1200.000
G1 X118.999 Y96.709 E0.00147
G1 X119.315 Y95.928 E0.00976
G1 X119.743 Y95.181 E0.00996
G1 X120.355 Y94.402 E0.01147
G1 X121.243 Y93.603 E0.01384
G1 X122.034 Y93.105 E0.01083
G1 X122.727 Y92.789 E0.00882
G1 X123.456 Y92.557 E0.00886
G1 X124.491 Y92.387 E0.01214
M204 S1000
M204 S500
G1 X125.527 Y92.388 E0.01200
G1 X126.766 Y92.618 E0.01460
G1 X127.597 Y92.925 E0.01025
G1 X128.444 Y93.388 E0.01118
G1 X129.266 Y94.024 E0.01204
G1 X129.974 Y94.789 E0.01207
G1 X130.563 Y95.690 E0.01246
G1 X130.964 Y96.600 E0.01151
G1 X131.021 Y96.824 E0.00268
M204 S1000
G1 F8640.000
G1 X130.964 Y96.600 E-0.05341
G1 X130.563 Y95.690 E-0.22959
G1 X129.974 Y94.789 E-0.24849
G1 X129.302 Y94.063 E-0.22851
G1 E-0.04000 F2100.00000
G1 Z0.700 F10800.000
G1 X135.025 Y100.091
G1 Z0.100
G1 E0.80000 F2100.00000
M204 S500
G1 F1200.000
G1 X148.060 Y109.358 E0.18522
G1 X148.949 Y110.663 E0.01828
G1 X149.321 Y112.126 E0.01748
G1 X149.215 Y114.373 E0.02605
G1 X148.799 Y115.398 E0.01281
G1 X148.132 Y116.283 E0.01284
G1 X147.288 Y116.916 E0.01222
G1 X145.852 Y117.522 E0.01805
G1 X145.125 Y117.605 E0.00847
G1 X144.375 Y117.567 E0.00870
G1 X143.184 Y117.188 E0.01447
G1 X142.196 Y116.492 E0.01400
M204 S1000
G1 F8640.000
G1 X143.184 Y117.188 E-0.27905
G1 X144.375 Y117.567 E-0.28851
G1 X145.125 Y117.605 E-0.17351
G1 X145.207 Y117.596 E-0.01893
G1 E-0.04000 F2100.00000
G1 Z0.700 F10800.000
G1 X140.615 Y115.378
G1 Z0.100
G1 E0.80000 F2100.00000
M204 S500
G1 F1200.000
G1 X125.783 Y104.933 E0.21007
G1 X124.994 Y105.000 E0.00917
G1 X124.218 Y104.933 E0.00902
G1 X109.430 Y115.379 E0.20967
M204 S1000
G1 F8640.000
G1 X112.118 Y113.480 E-0.76000
G1 E-0.04000 F2100.00000
G1 Z0.700 F10800.000
G1 X107.852 Y116.493
G1 Z0.100
G1 E0.80000 F2100.00000
M204 S500
G1 F1200.000
G1 X107.004 Y117.092 E0.01203
G1 X105.631 Y117.567 E0.01683
G1 X104.898 Y117.606 E0.00850
G1 X104.148 Y117.522 E0.00873
G1 X102.705 Y116.913 E0.01814
G1 X101.903 Y116.317 E0.01156
G1 X101.192 Y115.383 E0.01359
G1 X100.785 Y114.370 E0.01265
G1 X100.679 Y112.123 E0.02605
G1 X101.079 Y110.602 E0.01822
G1 X102.016 Y109.282 E0.01875
G1 X115.026 Y100.049 E0.18473
M204 S1000
G1 F8640.000
G1 X112.342 Y101.954 E-0.76000
G1 E-0.04000 F2100.00000
G1 Z0.700 F10800.000
G1 X111.847 Y102.643
G1 Z0.100
G1 E0.80000 F2100.00000
M204 S500
G1 F1200.000
G1 X102.229 Y109.463 E0.13654
G1 X101.341 Y110.699 E0.01762
G1 X100.958 Y112.133 E0.01719
G1 X101.052 Y114.290 E0.02500
G1 X101.426 Y115.231 E0.01173
G1 X102.086 Y116.106 E0.01270
G1 X102.830 Y116.663 E0.01076
G1 X104.200 Y117.248 E0.01725
G1 X104.895 Y117.327 E0.00809
G1 X105.596 Y117.290 E0.00813
G1 X106.893 Y116.836 E0.01592
G1 X107.378 Y116.493 E0.00688
M204 S1000
G1 F8640.000
G1 X106.893 Y116.836 E-0.13714
G1 X105.596 Y117.290 E-0.31745
G1 X104.895 Y117.327 E-0.16213
G1 X104.278 Y117.257 E-0.14327
G1 E-0.04000 F2100.00000
G1 Z0.700 F10800.000
G1 X108.955 Y115.379
G1 Z0.100
G1 E0.80000 F2100.00000
M204 S500
G1 F1200.000
G1 X124.141 Y104.646 E0.21535
G1 X124.983 Y104.722 E0.00979
G1 X125.861 Y104.647 E0.01020
G1 X141.089 Y115.378 E0.21574
M204 S1000
G1 F8640.000
G1 X138.398 Y113.482 E-0.76000
G1 E-0.04000 F2100.00000
G1 Z0.700 F10800.000
G1 X142.669 Y116.492
G1 Z0.100
G1 E0.80000 F2100.00000
M204 S500
G1 F1200.000
G1 X143.290 Y116.930 E0.00879
G1 X144.408 Y117.290 E0.01360
G1 X145.105 Y117.327 E0.00809
G1 X145.800 Y117.248 E0.00809
G1 X147.163 Y116.666 E0.01716
G1 X147.921 Y116.100 E0.01096
G1 X148.565 Y115.246 E0.01239
G1 X148.947 Y114.292 E0.01189
G1 X149.042 Y112.135 E0.02500
G1 X148.686 Y110.757 E0.01649
G1 X147.845 Y109.537 E0.01716
G1 X138.238 Y102.713 E0.13646
M204 S1000
G1 F8640.000
G1 X140.922 Y104.619 E-0.76000
G1 E-0.04000 F2100.00000
G1 Z0.700 F10800.000
G1 X130.610 Y96.489
G1 Z0.100
G1 E0.80000 F2100.00000
M204 S500
G1 F1200.000
G1 X130.313 Y95.813 E0.00855
G1 X129.748 Y94.952 E0.01192
G1 X129.070 Y94.222 E0.01153
G1 X128.283 Y93.615 E0.01151
G1 X127.473 Y93.174 E0.01068
G1 X126.682 Y92.883 E0.00976
M204 S1000
M204 S500
G1 X125.489 Y92.664 E0.01404
G1 X124.503 Y92.665 E0.01143
G1 X123.531 Y92.825 E0.01140
G1 X122.835 Y93.046 E0.00846
G1 X122.158 Y93.354 E0.00861
G1 X121.402 Y93.832 E0.01036
G1 X120.550 Y94.601 E0.01329
G1 X119.979 Y95.328 E0.01071
G1 X119.570 Y96.041 E0.00952
G1 X119.388 Y96.490 E0.00561
M204 S1000
G1 X119.847 Y96.116 F10800.000
M204 S500
G1 F1200.000
G1 X120.215 Y95.476 E0.00855
G1 X120.746 Y94.800 E0.00995
G1 X121.561 Y94.061 E0.01274
G1 X122.283 Y93.604 E0.00989
G1 X122.927 Y93.309 E0.00820
G1 X123.605 Y93.094 E0.00824
G1 X124.536 Y92.942 E0.01092
M204 S1000
M204 S500
G1 X125.476 Y92.943 E0.01089
G1 X126.597 Y93.149 E0.01320
G1 X127.349 Y93.424 E0.00928
G1 X128.122 Y93.843 E0.01018
G1 X128.874 Y94.421 E0.01099
G1 X129.522 Y95.115 E0.01100
G1 X130.063 Y95.936 E0.01138
G1 X130.135 Y96.101 E0.00209
M204 S1000
G1 F8640.000
G1 X130.063 Y95.936 E-0.04166
G1 X129.522 Y95.115 E-0.22694
G1 X128.874 Y94.421 E-0.21926
G1 X128.122 Y93.843 E-0.21903
G1 X127.920 Y93.733 E-0.05311
G1 E-0.04000 F2100.00000
G1 Z0.700 F10800.000
G1 X141.414 Y105.304
G1 Z0.100
G1 E0.80000 F2100.00000
M204 S500
G1 F1200.000
G1 X147.631 Y109.716 E0.08829
G1 X148.423 Y110.852 E0.01604
G1 X148.763 Y112.145 E0.01548
G1 X148.679 Y114.212 E0.02396
G1 X148.332 Y115.093 E0.01097
G1 X147.711 Y115.916 E0.01194
G1 X147.038 Y116.417 E0.00972
G1 X145.747 Y116.973 E0.01627
G1 X145.086 Y117.049 E0.00771
G1 X144.442 Y117.013 E0.00746
G1 X143.397 Y116.672 E0.01274
G1 X143.142 Y116.492 E0.00360
M204 S1000
G1 F8640.000
G1 X143.397 Y116.672 E-0.07184
G1 X144.442 Y117.013 E-0.25397
G1 X145.086 Y117.049 E-0.14881
G1 X145.747 Y116.973 E-0.15379
G1 X146.271 Y116.748 E-0.13158
G1 E-0.04000 F2100.00000
G1 Z0.700 F10800.000
G1 X141.563 Y115.378
G1 Z0.100
G1 E0.80000 F2100.00000
M204 S500
G1 F1200.000
G1 X125.938 Y104.361 E0.22140
G1 X124.972 Y104.443 E0.01123
G1 X124.065 Y104.359 E0.01055
G1 X108.480 Y115.379 E0.22103
M204 S1000
G1 F8640.000
G1 X111.168 Y113.478 E-0.76000
G1 E-0.04000 F2100.00000
G1 Z0.700 F10800.000
G1 X106.905 Y116.493
G1 Z0.100
G1 E0.80000 F2100.00000
M204 S500
G1 F1200.000
G1 X106.782 Y116.580 E0.00174
G1 X105.560 Y117.013 E0.01501
G1 X104.914 Y117.049 E0.00749
G1 X104.253 Y116.973 E0.00771
G1 X102.956 Y116.414 E0.01635
G1 X102.270 Y115.896 E0.00995
G1 X101.661 Y115.080 E0.01180
G1 X101.320 Y114.210 E0.01082
G1 X101.237 Y112.143 E0.02395
G1 X101.603 Y110.797 E0.01616
G1 X102.440 Y109.646 E0.01648
G1 X108.701 Y105.209 E0.08886
M204 S1000
G1 F8640.000
G1 X106.016 Y107.112 E-0.76000
G1 E-0.04000 F2100.00000
G1 Z0.700 F10800.000
G1 X105.586 Y107.751
G1 Z0.100
G1 E0.80000 F2100.00000
M204 S500
G1 F1200.000
G1 X102.651 Y109.829 E0.04165
G1 X101.864 Y110.896 E0.01535
G1 X101.516 Y112.155 E0.01512
G1 X101.588 Y114.132 E0.02291
G1 X101.896 Y114.930 E0.00990
G1 X102.455 Y115.687 E0.01090
G1 X103.083 Y116.166 E0.00914
G1 X104.306 Y116.699 E0.01545
G1 X104.911 Y116.770 E0.00706
G1 X105.525 Y116.736 E0.00712
G1 X106.210 Y116.493 E0.00842
M204 S1000
G1 F8640.000
G1 X105.525 Y116.736 E-0.16788
G1 X104.911 Y116.770 E-0.14187
G1 X104.306 Y116.699 E-0.14067
G1 X103.083 Y116.166 E-0.30802
G1 X103.078 Y116.162 E-0.00156
G1 E-0.04000 F2100.00000
G1 Z0.700 F10800.000
G1 X107.998 Y115.379
G1 Z0.100
G1 E0.80000 F2100.00000
M204 S500
G1 F1200.000
G1 X123.988 Y104.072 E0.22679
G1 X124.961 Y104.165 E0.01131
G1 X126.016 Y104.075 E0.01226
G1 X142.037 Y115.378 E0.22706
M204 S1000
G1 F8640.000
G1 X139.347 Y113.481 E-0.76000
G1 E-0.04000 F2100.00000
G1 Z0.700 F10800.000
G1 X143.741 Y116.492
G1 Z0.100
G1 E0.80000 F2100.00000
M204 S500
G1 F1200.000
G1 X144.476 Y116.736 E0.00898
G1 X145.089 Y116.770 E0.00710
G1 X145.694 Y116.699 E0.00705
G1 X146.912 Y116.168 E0.01539
G1 X147.501 Y115.732 E0.00849
G1 X148.097 Y114.941 E0.01147
G1 X148.411 Y114.134 E0.01003
G1 X148.484 Y112.156 E0.02291
G1 X148.161 Y110.949 E0.01448
G1 X147.417 Y109.897 E0.01492
G1 X144.554 Y107.866 E0.04065
M204 S1000
G1 F8640.000
G1 X147.239 Y109.770 E-0.76000
G1 E-0.04000 F2100.00000
G1 Z0.700 F10800.000
G1 X131.151 Y98.361
G1 Z0.100
G1 E0.80000 F2100.00000
M73 Q3 S33
M204 S500
G1 F1200.000
G1 X130.418 Y97.841 E0.01040
G1 X130.393 Y97.743 E0.00117
M204 S1000
G1 F8640.000
G1 X130.418 Y97.841 E-0.02332
