; generated by PrusaSlicer 2.2.0 on 2020-07-27 at 04:20:38 UTC

; 

; external perimeters extrusion width = 0.25mm
; perimeters extrusion width = 0.25mm
; infill extrusion width = 0.25mm
; solid infill extrusion width = 0.25mm
; top infill extrusion width = 0.25mm
; first layer extrusion width = 0.30mm

M73 P0 R18
M73 Q0 S18
M201 X1000 Y1000 Z200 E5000 ; sets maximum accelerations, mm/sec^2
M203 X200 Y200 Z12 E120 ; sets maximum feedrates, mm/sec
M204 P1250 R1250 T1250 ; sets acceleration (P, T) and retract acceleration (R), mm/sec^2
M205 X8.00 Y8.00 Z0.40 E4.50 ; sets the jerk limits, mm/sec
M205 S0 T0 ; sets the minimum extruding and travel feed rate, mm/sec
M107
M862.3 P "MK3S" ; printer model check
M862.1 P0.25 ; nozzle diameter check
M115 U3.9.0 ; tell printer latest fw version
G90 ; use absolute coordinates
M83 ; extruder relative mode
M104 S215 ; set extruder temp
M140 S60 ; set bed temp
M190 S60 ; wait for bed temp
M109 S215 ; wait for extruder temp
G28 W ; home all without mesh bed level
G80 ; mesh bed leveling
G1 Y-3.0 F1000.0 ; go outside print area
G92 E0.0
G1 X60.0 E9.0 F1000.0 ; intro line
M73 Q0 S18
M73 P0 R18
G1 X100.0 E12.5 F1000.0 ; intro line
G92 E0.0
M221 S95
G21 ; set units to millimeters
G90 ; use absolute coordinates
M83 ; use relative distances for extrusion
M900 K0.06 ; Filament gcode LA 1.5
M900 K30 ; Filament gcode LA 1.0
;BEFORE_LAYER_CHANGE
G92 E0.0
;0.1


G1 E-0.80000 F2100.00000
G1 Z0.600 F10800.000
;AFTER_LAYER_CHANGE
;0.1
G1 X116.839 Y84.103
G1 Z0.100
G1 E0.80000 F2100.00000
M204 S500
G1 F1200.000
G1 X117.450 Y83.887 E0.00750
G1 X132.503 Y83.886 E0.17431
G1 X132.922 Y83.969 E0.00495
G1 X133.279 Y84.204 E0.00495
G1 X133.521 Y84.554 E0.00492
G1 X133.614 Y84.971 E0.00495
G1 X133.614 Y125.003 E0.46358
G1 X133.547 Y125.381 E0.00445
G1 X133.156 Y125.900 E0.00753
G1 X132.545 Y126.113 E0.00750
G1 X117.495 Y126.114 E0.17428
G1 X117.119 Y126.047 E0.00442
G1 X116.825 Y125.887 E0.00388
G1 X116.592 Y125.646 E0.00388
G1 X116.441 Y125.347 E0.00388
G1 X116.386 Y125.019 E0.00385
G1 X116.386 Y84.997 E0.46346
G1 X116.453 Y84.619 E0.00445
G1 X116.817 Y84.133 E0.00704
M204 S1000
G1 X117.009 Y84.324 F10800.000
M204 S500
G1 F1200.000
G1 X117.470 Y84.165 E0.00564
G1 X132.502 Y84.164 E0.17408
G1 X132.817 Y84.227 E0.00372
G1 X133.087 Y84.405 E0.00374
G1 X133.268 Y84.670 E0.00372
G1 X133.335 Y84.984 E0.00372
G1 X133.336 Y125.000 E0.46340
G1 X133.285 Y125.288 E0.00338
G1 X132.989 Y125.678 E0.00567
G1 X132.525 Y125.835 E0.00567
G1 X117.498 Y125.836 E0.17402
G1 X117.212 Y125.785 E0.00336
G1 X116.817 Y125.481 E0.00577
G1 X116.664 Y125.010 E0.00574
G1 X116.664 Y85.000 E0.46332
G1 X116.715 Y84.712 E0.00338
G1 X116.987 Y84.354 E0.00521
M204 S1000
G1 X116.977 Y84.807 F10800.000
M204 S500
G1 F1200.000
G1 X117.176 Y84.547 E0.00379
G1 X117.486 Y84.443 E0.00379
G1 X132.502 Y84.443 E0.17389
G1 X132.892 Y84.604 E0.00489
G1 X133.057 Y84.993 E0.00489
G1 X133.023 Y125.193 E0.46553
G1 X132.824 Y125.453 E0.00379
G1 X132.512 Y125.557 E0.00381
G1 X117.307 Y125.523 E0.17608
G1 X117.045 Y125.321 E0.00383
G1 X116.943 Y125.005 E0.00385
G1 X116.977 Y84.844 E0.46507
M204 S1000
G1 X117.239 Y84.903 F10800.000
M204 S500
G1 F1200.000
G1 X117.497 Y84.721 E0.00365
G1 X132.501 Y84.721 E0.17376
G1 X132.697 Y84.803 E0.00246
G1 X132.779 Y84.998 E0.00244
G1 X132.761 Y125.097 E0.46436
G1 X132.503 Y125.279 E0.00365
G1 X117.403 Y125.261 E0.17487
G1 X117.221 Y125.001 E0.00368
G1 X117.239 Y84.940 E0.46391
M204 S1000
G1 F8640.000
G1 X117.497 Y84.721 E-0.07810
G1 X120.450 Y84.721 E-0.68190
G1 E-0.04000 F2100.00000
G1 Z0.700 F10800.000
G1 X114.703 Y81.319
G1 Z0.100
G1 E0.80000 F2100.00000
M204 S500
G1 F1200.000
G1 X116.946 Y80.404 E0.02805
G1 X132.967 Y80.415 E0.18552
G1 X133.943 Y80.609 E0.01152
G1 X134.872 Y81.031 E0.01182
G1 X135.986 Y81.978 E0.01693
G1 X136.458 Y82.658 E0.00958
G1 X137.096 Y84.458 E0.02211
G1 X137.085 Y125.457 E0.47478
G1 X136.887 Y126.462 E0.01186
G1 X136.275 Y127.657 E0.01555
G1 X135.371 Y128.632 E0.01539
G1 X135.297 Y128.681 E0.00104
G1 X133.054 Y129.596 E0.02805
G1 X117.042 Y129.585 E0.18542
G1 X116.038 Y129.387 E0.01185
G1 X114.843 Y128.774 E0.01555
G1 X113.868 Y127.871 E0.01539
G1 X113.819 Y127.797 E0.00103
G1 X112.904 Y125.555 E0.02804
G1 X112.915 Y84.543 E0.47493
G1 X113.113 Y83.538 E0.01186
G1 X113.725 Y82.343 E0.01555
G1 X114.672 Y81.340 E0.01597
M204 S1000
G1 X114.826 Y81.570 F10800.000
M204 S500
G1 F1200.000
G1 X116.974 Y80.682 E0.02691
G1 X132.953 Y80.693 E0.18504
G1 X133.872 Y80.879 E0.01086
G1 X134.738 Y81.276 E0.01104
G1 X135.791 Y82.178 E0.01606
G1 X136.202 Y82.770 E0.00834
G1 X136.817 Y84.482 E0.02107
G1 X136.807 Y125.443 E0.47434
G1 X136.629 Y126.353 E0.01073
G1 X136.056 Y127.483 E0.01467
G1 X135.198 Y128.413 E0.01466
G1 X133.026 Y129.318 E0.02724
G1 X117.055 Y129.307 E0.18495
G1 X116.146 Y129.129 E0.01072
G1 X115.017 Y128.556 E0.01466
G1 X114.087 Y127.698 E0.01466
G1 X113.183 Y125.527 E0.02723
G1 X113.193 Y84.557 E0.47446
G1 X113.371 Y83.647 E0.01073
G1 X113.944 Y82.517 E0.01467
G1 X114.796 Y81.593 E0.01457
M204 S1000
G1 X114.975 Y81.809 F10800.000
M204 S500
G1 F1200.000
G1 X117.002 Y80.961 E0.02544
G1 X132.938 Y80.972 E0.18455
G1 X133.799 Y81.148 E0.01018
G1 X134.603 Y81.520 E0.01025
G1 X135.596 Y82.377 E0.01519
G1 X135.947 Y82.882 E0.00712
G1 X136.539 Y84.507 E0.02002
G1 X136.528 Y125.430 E0.47390
G1 X136.360 Y126.280 E0.01003
G1 X135.818 Y127.338 E0.01377
G1 X135.025 Y128.191 E0.01348
G1 X132.998 Y129.039 E0.02544
G1 X117.069 Y129.028 E0.18447
G1 X116.220 Y128.860 E0.01003
G1 X115.162 Y128.318 E0.01377
G1 X114.309 Y127.525 E0.01348
G1 X113.461 Y125.500 E0.02543
G1 X113.472 Y84.570 E0.47397
G1 X113.640 Y83.720 E0.01003
G1 X114.182 Y82.662 E0.01377
G1 X114.949 Y81.837 E0.01305
M204 S1000
G1 X115.152 Y82.027 F10800.000
M204 S500
G1 F1200.000
G1 X117.029 Y81.240 E0.02357
G1 X132.924 Y81.251 E0.18406
G1 X133.726 Y81.417 E0.00950
G1 X134.466 Y81.764 E0.00946
G1 X135.400 Y82.576 E0.01432
G1 X135.692 Y82.996 E0.00593
G1 X136.260 Y84.532 E0.01897
G1 X136.250 Y125.416 E0.47344
G1 X136.091 Y126.205 E0.00933
G1 X135.580 Y127.192 E0.01287
G1 X134.842 Y127.979 E0.01248
G1 X132.971 Y128.760 E0.02349
G1 X117.083 Y128.749 E0.18398
G1 X116.294 Y128.591 E0.00932
G1 X115.308 Y128.080 E0.01287
G1 X114.522 Y127.342 E0.01248
G1 X113.740 Y125.472 E0.02348
G1 X113.750 Y84.584 E0.47349
G1 X113.909 Y83.795 E0.00933
G1 X114.420 Y82.808 E0.01287
G1 X115.127 Y82.054 E0.01196
M204 S1000
G1 X115.329 Y82.246 F10800.000
M204 S500
G1 F1200.000
G1 X117.057 Y81.518 E0.02171
G1 X132.909 Y81.529 E0.18357
G1 X133.652 Y81.686 E0.00880
G1 X134.329 Y82.007 E0.00867
G1 X135.203 Y82.774 E0.01346
G1 X135.437 Y83.111 E0.00475
G1 X135.982 Y84.558 E0.01790
G1 X135.971 Y125.401 E0.47298
G1 X135.822 Y126.130 E0.00861
G1 X135.342 Y127.045 E0.01197
G1 X134.660 Y127.766 E0.01148
G1 X132.943 Y128.482 E0.02154
G1 X117.098 Y128.471 E0.18350
G1 X116.370 Y128.322 E0.00860
G1 X115.454 Y127.842 E0.01197
G1 X114.734 Y127.160 E0.01148
G1 X114.018 Y125.444 E0.02153
G1 X114.029 Y84.599 E0.47301
M73 Q5 S17
M73 P5 R17
G1 X114.178 Y83.870 E0.00861
G1 X114.658 Y82.954 E0.01197
G1 X115.303 Y82.273 E0.01087
M204 S1000
G1 X115.505 Y82.464 F10800.000
M204 S500
G1 F1200.000
G1 X117.084 Y81.797 E0.01985
G1 X132.894 Y81.808 E0.18309
G1 X133.548 Y81.945 E0.00774
G1 X134.192 Y82.250 E0.00825
G1 X135.006 Y82.971 E0.01259
G1 X135.184 Y83.226 E0.00360
G1 X135.703 Y84.583 E0.01683
G1 X135.692 Y125.388 E0.47253
G1 X135.566 Y126.020 E0.00746
G1 X135.126 Y126.868 E0.01107
G1 X134.478 Y127.553 E0.01091
G1 X132.916 Y128.203 E0.01960
G1 X117.111 Y128.192 E0.18302
G1 X116.480 Y128.066 E0.00746
G1 X115.631 Y127.626 E0.01107
G1 X114.947 Y126.978 E0.01091
G1 X114.297 Y125.417 E0.01959
G1 X114.308 Y84.612 E0.47253
G1 X114.434 Y83.980 E0.00746
G1 X114.874 Y83.132 E0.01107
G1 X115.480 Y82.492 E0.01020
M204 S1000
G1 X115.680 Y82.684 F10800.000
M204 S500
G1 F1200.000
G1 X115.703 Y82.661 E0.00037
G1 X117.111 Y82.075 E0.01767
G1 X132.879 Y82.086 E0.18260
G1 X133.473 Y82.214 E0.00703
G1 X134.053 Y82.492 E0.00745
G1 X134.808 Y83.168 E0.01173
G1 X134.930 Y83.343 E0.00248
G1 X135.425 Y84.610 E0.01574
G1 X135.414 Y125.373 E0.47205
G1 X135.297 Y125.944 E0.00674
G1 X134.889 Y126.721 E0.01017
G1 X134.297 Y127.339 E0.00991
G1 X132.889 Y127.925 E0.01767
G1 X117.126 Y127.914 E0.18254
G1 X116.556 Y127.797 E0.00674
G1 X115.779 Y127.389 E0.01016
G1 X115.161 Y126.797 E0.00991
G1 X114.575 Y125.390 E0.01766
G1 X114.586 Y84.627 E0.47205
G1 X114.703 Y84.056 E0.00674
G1 X115.111 Y83.279 E0.01017
G1 X115.654 Y82.711 E0.00910
M204 S1000
G1 X115.882 Y82.875 F10800.000
M204 S500
G1 F1200.000
G1 X117.139 Y82.354 E0.01575
G1 X132.863 Y82.365 E0.18210
G1 X133.396 Y82.482 E0.00631
G1 X133.913 Y82.734 E0.00666
G1 X134.609 Y83.363 E0.01087
G1 X134.678 Y83.462 E0.00139
G1 X135.146 Y84.637 E0.01465
G1 X135.135 Y125.358 E0.47157
G1 X135.029 Y125.867 E0.00601
G1 X134.653 Y126.572 E0.00926
G1 X134.118 Y127.125 E0.00891
G1 X132.861 Y127.646 E0.01575
G1 X117.141 Y127.635 E0.18205
G1 X116.633 Y127.529 E0.00601
G1 X115.928 Y127.153 E0.00926
G1 X115.375 Y126.618 E0.00891
G1 X114.854 Y125.362 E0.01574
G1 X114.865 Y84.642 E0.47156
G1 X114.971 Y84.133 E0.00601
G1 X115.347 Y83.428 E0.00926
G1 X115.856 Y82.902 E0.00847
M204 S1000
G1 X116.056 Y83.096 F10800.000
M204 S500
G1 F1200.000
G1 X117.166 Y82.632 E0.01392
G1 X132.847 Y82.643 E0.18160
G1 X133.317 Y82.750 E0.00558
G1 X133.771 Y82.974 E0.00586
G1 X134.410 Y83.558 E0.01003
G1 X134.868 Y84.664 E0.01386
G1 X134.857 Y125.345 E0.47109
G1 X134.773 Y125.755 E0.00486
G1 X134.439 Y126.393 E0.00834
G1 X133.937 Y126.910 E0.00834
G1 X132.834 Y127.368 E0.01383
G1 X117.155 Y127.357 E0.18157
G1 X116.744 Y127.273 E0.00485
G1 X116.107 Y126.939 E0.00834
G1 X115.590 Y126.437 E0.00834
G1 X115.132 Y125.335 E0.01382
G1 X115.143 Y84.655 E0.47108
G1 X115.227 Y84.245 E0.00486
G1 X115.561 Y83.607 E0.00834
G1 X116.030 Y83.123 E0.00780
M204 S1000
G1 X116.228 Y83.318 F10800.000
M204 S500
G1 F1200.000
G1 X117.193 Y82.911 E0.01212
G1 X132.831 Y82.922 E0.18109
G1 X133.237 Y83.017 E0.00483
G1 X133.627 Y83.214 E0.00506
G1 X134.187 Y83.732 E0.00883
G1 X134.589 Y84.693 E0.01206
G1 X134.578 Y125.330 E0.47059
G1 X134.505 Y125.678 E0.00412
G1 X134.203 Y126.244 E0.00743
G1 X133.759 Y126.695 E0.00733
G1 X132.807 Y127.089 E0.01193
G1 X117.170 Y127.078 E0.18108
G1 X116.822 Y127.005 E0.00412
G1 X116.256 Y126.703 E0.00743
G1 X115.805 Y126.259 E0.00733
G1 X115.411 Y125.307 E0.01193
G1 X115.422 Y84.670 E0.47059
G1 X115.495 Y84.322 E0.00412
G1 X115.797 Y83.756 E0.00743
G1 X116.202 Y83.344 E0.00669
M204 S1000
G1 X116.418 Y83.522 F10800.000
M204 S500
G1 F1200.000
G1 X117.220 Y83.189 E0.01006
G1 X132.814 Y83.200 E0.18059
G1 X133.126 Y83.273 E0.00371
G1 X133.483 Y83.453 E0.00463
G1 X133.975 Y83.914 E0.00780
G1 X134.311 Y84.720 E0.01011
G1 X134.300 Y125.314 E0.47009
G1 X134.237 Y125.597 E0.00336
G1 X133.968 Y126.092 E0.00652
G1 X133.582 Y126.478 E0.00633
G1 X132.780 Y126.811 E0.01006
G1 X117.186 Y126.800 E0.18058
G1 X116.903 Y126.737 E0.00336
G1 X116.408 Y126.468 E0.00652
G1 X116.022 Y126.082 E0.00633
G1 X115.689 Y125.280 E0.01005
G1 X115.700 Y84.686 E0.47009
G1 X115.763 Y84.403 E0.00336
G1 X116.032 Y83.908 E0.00652
G1 X116.391 Y83.548 E0.00589
M204 S1000
G1 X116.588 Y83.745 F10800.000
M204 S500
G1 F1200.000
G1 X117.248 Y83.468 E0.00828
G1 X132.798 Y83.479 E0.18009
G1 X133.016 Y83.529 E0.00258
G1 X133.339 Y83.692 E0.00419
G1 X133.761 Y84.095 E0.00675
G1 X134.032 Y84.747 E0.00818
G1 X134.021 Y125.299 E0.46961
G1 X133.982 Y125.485 E0.00220
G1 X133.756 Y125.910 E0.00557
G1 X133.404 Y126.262 E0.00576
G1 X132.752 Y126.532 E0.00817
G1 X117.200 Y126.521 E0.18010
G1 X117.015 Y126.482 E0.00220
G1 X116.590 Y126.256 E0.00557
G1 X116.238 Y125.904 E0.00576
G1 X115.968 Y125.253 E0.00817
G1 X115.979 Y84.701 E0.46961
G1 X116.018 Y84.515 E0.00220
G1 X116.244 Y84.090 E0.00557
G1 X116.562 Y83.772 E0.00521
M204 S1000
G1 F8640.000
G1 X117.248 Y83.468 E-0.17316
G1 X119.789 Y83.470 E-0.58684
G1 E-0.04000 F2100.00000
G1 Z0.700 F10800.000
G1 X118.767 Y83.748
G1 Z0.100
G1 E0.80000 F2100.00000
M204 S500
G1 F1200.000
G1 X117.275 Y83.747 E0.01728
G1 X116.773 Y83.954 E0.00629
G1 X116.456 Y84.272 E0.00520
G1 X116.285 Y84.596 E0.00424
G1 X116.257 Y84.717 E0.00145
G1 X116.257 Y84.925 E0.00240
M204 S1000
G1 F8640.000
G1 X116.257 Y84.717 E-0.04794
G1 X116.285 Y84.596 E-0.02886
G1 X116.456 Y84.272 E-0.08454
G1 X116.773 Y83.954 E-0.10361
G1 X117.275 Y83.747 E-0.12541
G1 X118.767 Y83.748 E-0.34450
G1 E-0.06515 F2100.00000
G1 Z0.700 F10800.000
G1 X132.570 Y83.757
G1 Z0.100
G1 E0.80000 F2100.00000
M204 S500
G1 F1200.000
G1 X132.783 Y83.757 E0.00247
M204 S1000
M204 S500
G1 X132.906 Y83.786 E0.00146
G1 X133.194 Y83.931 E0.00374
G1 X133.352 Y84.085 E0.00255
M204 S1000
G1 X133.396 Y84.128 F10800.000
M204 S500
G1 F1200.000
G1 X133.546 Y84.274 E0.00242
G1 X133.620 Y84.452 E0.00223
M204 S1000
G1 X133.665 Y84.562 F10800.000
M204 S500
G1 F1200.000
G1 X133.753 Y84.775 E0.00266
G1 X133.753 Y86.169 E0.01614
M204 S1000
G1 F8640.000
G1 X133.753 Y84.775 E-0.32185
G1 X133.665 Y84.562 E-0.05311
G1 E-0.42504 F2100.00000
G1 Z0.700 F10800.000
G1 X133.743 Y125.075
G1 Z0.100
G1 E0.80000 F2100.00000
M204 S500
G1 F1200.000
G1 X133.743 Y125.283 E0.00240
G1 X133.715 Y125.404 E0.00145
G1 X133.544 Y125.728 E0.00424
G1 X133.227 Y126.046 E0.00520
G1 X132.725 Y126.253 E0.00629
G1 X131.500 Y126.253 E0.01419
M204 S1000
G1 F8640.000
G1 X132.725 Y126.253 E-0.28286
G1 X133.227 Y126.046 E-0.12541
G1 X133.544 Y125.728 E-0.10361
G1 X133.715 Y125.404 E-0.08454
G1 X133.743 Y125.283 E-0.02886
G1 X133.743 Y125.075 E-0.04794
G1 E-0.12678 F2100.00000
G1 Z0.700 F10800.000
G1 X117.423 Y126.243
G1 Z0.100
G1 E0.80000 F2100.00000
M204 S500
G1 F1200.000
G1 X117.217 Y126.243 E0.00238
G1 X117.096 Y126.215 E0.00145
G1 X116.772 Y126.044 E0.00424
G1 X116.454 Y125.727 E0.00520
G1 X116.350 Y125.476 E0.00315
M204 S1000
G1 X116.302 Y125.359 F10800.000
M204 S500
G1 F1200.000
G1 X116.247 Y125.225 E0.00168
G1 X116.247 Y124.634 E0.00685
M204 S1000
G1 F8640.000
G1 X116.247 Y125.225 E-0.13661
G1 X116.302 Y125.359 E-0.03345
G1 E-0.62995 F2100.00000
G1 Z0.700 F10800.000
G1 X117.650 Y124.850
G1 Z0.100
G1 E0.80000 F2100.00000
M204 S500
G1 F1200.000
G1 X117.650 Y85.150 E0.45974
G1 X132.350 Y85.150 E0.17023
G1 X132.350 Y124.850 E0.45974
G1 X117.687 Y124.850 E0.16980
M204 S1000
G1 F8640.000
G1 X117.684 Y121.559 E-0.76000
G1 E-0.04000 F2100.00000
G1 Z0.700 F10800.000
G1 X132.266 Y85.798
G1 Z0.100
G1 E0.80000 F2100.00000
M204 S500
G1 F1200.000
G1 X131.827 Y85.359 E0.00722
G1 X131.432 Y85.359 E0.00459
G1 X132.141 Y86.068 E0.01165
G1 X132.141 Y86.463 E0.00459
G1 X131.037 Y85.359 E0.01814
G1 X130.642 Y85.359 E0.00459
G1 X132.141 Y86.858 E0.02462
G1 X132.141 Y87.253 E0.00459
G1 X130.247 Y85.359 E0.03111
G1 X129.852 Y85.359 E0.00459
G1 X132.141 Y87.648 E0.03760
G1 X132.141 Y88.043 E0.00459
G1 X129.457 Y85.359 E0.04409
G1 X129.062 Y85.359 E0.00459
G1 X132.141 Y88.438 E0.05058
G1 X132.141 Y88.833 E0.00459
G1 X128.667 Y85.359 E0.05707
G1 X128.272 Y85.359 E0.00459
G1 X132.141 Y89.228 E0.06355
G1 X132.141 Y89.623 E0.00459
G1 X127.877 Y85.359 E0.07004
G1 X127.481 Y85.359 E0.00459
G1 X132.141 Y90.019 E0.07653
G1 X132.141 Y90.414 E0.00459
G1 X127.086 Y85.359 E0.08302
G1 X126.691 Y85.359 E0.00459
G1 X132.141 Y90.809 E0.08951
G1 X132.141 Y91.204 E0.00459
G1 X126.296 Y85.359 E0.09599
G1 X125.901 Y85.359 E0.00459
G1 X132.141 Y91.599 E0.10248
G1 X132.141 Y91.994 E0.00459
G1 X125.506 Y85.359 E0.10897
G1 X125.111 Y85.359 E0.00459
G1 X132.141 Y92.389 E0.11546
G1 X132.141 Y92.784 E0.00459
G1 X124.716 Y85.359 E0.12195
G1 X124.321 Y85.359 E0.00459
G1 X132.141 Y93.179 E0.12844
M73 Q11 S16
M73 P11 R16
G1 X132.141 Y93.574 E0.00459
G1 X123.926 Y85.359 E0.13492
G1 X123.531 Y85.359 E0.00459
G1 X132.141 Y93.969 E0.14141
G1 X132.141 Y94.364 E0.00459
G1 X123.136 Y85.359 E0.14790
G1 X122.741 Y85.359 E0.00459
G1 X132.141 Y94.759 E0.15439
G1 X132.141 Y95.154 E0.00459
G1 X122.346 Y85.359 E0.16088
G1 X121.951 Y85.359 E0.00459
G1 X132.141 Y95.549 E0.16737
G1 X132.141 Y95.944 E0.00459
G1 X121.556 Y85.359 E0.17385
G1 X121.161 Y85.359 E0.00459
G1 X132.141 Y96.339 E0.18034
