; generated by PrusaSlicer 2.2.0 on 2020-07-28 at 02:45:09 UTC

; 

; external perimeters extrusion width = 0.25mm
; perimeters extrusion width = 0.25mm
; infill extrusion width = 0.25mm
; solid infill extrusion width = 0.25mm
; top infill extrusion width = 0.25mm
; first layer extrusion width = 0.30mm

M73 P0 R97
M73 Q0 S98
M201 X1000 Y1000 Z200 E5000 ; sets maximum accelerations, mm/sec^2
M203 X200 Y200 Z12 E120 ; sets maximum feedrates, mm/sec
M204 P1250 R1250 T1250 ; sets acceleration (P, T) and retract acceleration (R), mm/sec^2
M205 X8.00 Y8.00 Z0.40 E4.50 ; sets the jerk limits, mm/sec
M205 S0 T0 ; sets the minimum extruding and travel feed rate, mm/sec
M107
M862.3 P "MK3S" ; printer model check
M862.1 P0.25 ; nozzle diameter check
M115 U3.9.0 ; tell printer latest fw version
G90 ; use absolute coordinates
M83 ; extruder relative mode
M104 S215 ; set extruder temp
M140 S60 ; set bed temp
M190 S60 ; wait for bed temp
M109 S215 ; wait for extruder temp
G28 W ; home all without mesh bed level
G80 ; mesh bed leveling
G1 Y-3.0 F1000.0 ; go outside print area
G92 E0.0
G1 X60.0 E9.0 F1000.0 ; intro line
M73 Q0 S98
M73 P0 R97
G1 X100.0 E12.5 F1000.0 ; intro line
G92 E0.0
M221 S95
G21 ; set units to millimeters
G90 ; use absolute coordinates
M83 ; use relative distances for extrusion
M900 K0.06 ; Filament gcode LA 1.5
M900 K30 ; Filament gcode LA 1.0
;BEFORE_LAYER_CHANGE
G92 E0.0
;0.1


G1 E-0.80000 F2100.00000
G1 Z0.600 F10800.000
;AFTER_LAYER_CHANGE
;0.1
G1 X206.018 Y37.787
G1 Z0.100
G1 E0.80000 F2100.00000
M204 S500
G1 F1200.000
G1 X206.200 Y38.650 E0.01021
G1 X206.200 Y118.713 E0.92715
G1 X206.107 Y119.323 E0.00715
G1 X205.856 Y119.883 E0.00710
G1 X205.463 Y120.358 E0.00715
G1 X204.956 Y120.710 E0.00715
G1 X204.467 Y120.891 E0.00603
G1 X203.947 Y120.957 E0.00608
G1 X183.873 Y120.957 E0.23246
G1 X49.140 Y117.500 E1.56077
G1 X48.542 Y117.402 E0.00702
G1 X47.988 Y117.148 E0.00706
G1 X47.523 Y116.759 E0.00702
G1 X47.176 Y116.257 E0.00706
G1 X46.993 Y115.762 E0.00612
G1 X46.928 Y115.241 E0.00608
G1 X46.929 Y85.155 E0.34841
G1 X47.028 Y84.554 E0.00706
G1 X47.281 Y84.003 E0.00702
G1 X47.674 Y83.536 E0.00706
G1 X48.172 Y83.192 E0.00702
G1 X158.317 Y40.870 E1.36644
G1 X183.698 Y36.411 E0.29842
G1 X203.925 Y36.400 E0.23424
G1 X204.787 Y36.571 E0.01017
G1 X205.523 Y37.058 E0.01021
G1 X205.997 Y37.756 E0.00978
M204 S1000
G1 F8640.000
G1 X206.200 Y38.650 E-0.21168
G1 X206.200 Y41.025 E-0.54832
G1 E-0.04000 F2100.00000
G1 Z0.700 F10800.000
G1 X52.228 Y80.888
G1 Z0.100
G1 E0.80000 F2100.00000
M204 S500
G1 F1200.000
G1 X51.370 Y80.669 E0.01026
G1 X48.953 Y80.675 E0.02798
G1 X47.940 Y80.960 E0.01219
G1 X47.025 Y81.478 E0.01218
G1 X45.822 Y82.768 E0.02042
G1 X45.132 Y84.677 E0.02351
G1 X45.132 Y115.725 E0.35955
G1 X45.616 Y117.328 E0.01939
G1 X46.635 Y118.636 E0.01920
G1 X47.558 Y119.280 E0.01303
G1 X49.240 Y119.822 E0.02047
G1 X51.467 Y119.759 E0.02579
G1 X52.411 Y119.483 E0.01140
G1 X53.288 Y118.994 E0.01163
G1 X54.418 Y117.775 E0.01925
M204 S1000
G1 X54.605 Y117.501 F10800.000
M204 S500
G1 F1200.000
G1 X55.217 Y115.763 E0.02134
G1 X55.217 Y84.680 E0.35996
G1 X54.579 Y82.880 E0.02211
G1 X54.108 Y82.201 E0.00957
G1 X53.186 Y81.415 E0.01403
M204 S1000
G1 X52.919 Y81.219 F10800.000
M204 S500
G1 F1200.000
G1 X52.228 Y80.888 E0.00887
M204 S1000
G1 X52.561 Y81.356 F10800.000
M204 S500
G1 F1200.000
G1 X52.120 Y81.145 E0.00566
G1 X51.318 Y80.943 E0.00957
M204 S1000
M204 S500
G1 X49.010 Y80.948 E0.02673
G1 X48.032 Y81.224 E0.01177
G1 X47.181 Y81.709 E0.01135
G1 X46.074 Y82.891 E0.01875
G1 X45.410 Y84.702 E0.02234
G1 X45.410 Y115.705 E0.35903
G1 X45.852 Y117.177 E0.01780
G1 X46.842 Y118.448 E0.01866
G1 X47.664 Y119.022 E0.01161
G1 X49.257 Y119.543 E0.01941
G1 X51.406 Y119.487 E0.02489
G1 X52.318 Y119.220 E0.01100
G1 X53.133 Y118.762 E0.01083
G1 X54.061 Y117.765 E0.01577
M204 S1000
G1 X54.313 Y117.493 F10800.000
M204 S500
G1 F1200.000
G1 X54.939 Y115.739 E0.02157
G1 X54.939 Y84.704 E0.35940
G1 X54.323 Y82.992 E0.02107
G1 X53.913 Y82.401 E0.00834
G1 X52.895 Y81.526 E0.01554
M204 S1000
G1 X52.550 Y81.659 F10800.000
M204 S500
G1 F1200.000
G1 X52.730 Y81.746 E0.00232
G1 X53.717 Y82.600 E0.01511
G1 X54.068 Y83.105 E0.00712
G1 X54.660 Y84.729 E0.02002
G1 X54.660 Y115.714 E0.35883
G1 X54.060 Y117.374 E0.02044
G1 X53.957 Y117.484 E0.00175
M204 S1000
G1 X53.702 Y117.756 F10800.000
M204 S500
G1 F1200.000
G1 X52.978 Y118.530 E0.01227
G1 X52.195 Y118.969 E0.01039
G1 X51.346 Y119.214 E0.01023
G1 X49.275 Y119.264 E0.02399
G1 X47.771 Y118.764 E0.01835
G1 X47.047 Y118.260 E0.01022
G1 X46.110 Y117.071 E0.01753
G1 X45.689 Y115.684 E0.01678
G1 X45.689 Y84.727 E0.35849
G1 X46.325 Y83.014 E0.02116
G1 X47.337 Y81.941 E0.01708
G1 X48.155 Y81.474 E0.01091
G1 X49.066 Y81.221 E0.01095
G1 X51.267 Y81.217 E0.02549
G1 X52.038 Y81.412 E0.00921
M204 S1000
M204 S500
G1 X52.206 Y81.493 E0.00216
M204 S1000
G1 X52.193 Y81.796 F10800.000
M204 S500
G1 F1200.000
G1 X52.592 Y81.989 E0.00513
G1 X53.521 Y82.798 E0.01427
G1 X53.813 Y83.218 E0.00592
G1 X54.382 Y84.754 E0.01896
G1 X54.382 Y115.689 E0.35825
G1 X53.808 Y117.251 E0.01926
G1 X53.597 Y117.475 E0.00357
M204 S1000
G1 X53.341 Y117.747 F10800.000
M204 S500
G1 F1200.000
G1 X52.822 Y118.298 E0.00876
G1 X52.102 Y118.706 E0.00959
G1 X51.287 Y118.942 E0.00983
G1 X49.294 Y118.985 E0.02308
G1 X47.879 Y118.507 E0.01729
G1 X47.252 Y118.070 E0.00885
G1 X46.369 Y116.963 E0.01640
G1 X45.967 Y115.663 E0.01575
G1 X45.967 Y84.753 E0.35795
G1 X46.576 Y83.139 E0.01997
G1 X47.492 Y82.173 E0.01542
G1 X48.278 Y81.725 E0.01047
G1 X49.122 Y81.495 E0.01013
G1 X51.217 Y81.492 E0.02426
M204 S1000
M204 S500
G1 X51.819 Y81.641 E0.00719
M204 S1000
G1 X51.837 Y81.933 F10800.000
M204 S500
G1 F1200.000
G1 X52.454 Y82.231 E0.00794
G1 X53.324 Y82.996 E0.01342
G1 X53.559 Y83.333 E0.00475
G1 X54.103 Y84.779 E0.01790
G1 X54.103 Y115.664 E0.35766
G1 X53.558 Y117.127 E0.01808
G1 X53.236 Y117.466 E0.00541
M204 S1000
G1 X52.978 Y117.738 F10800.000
M204 S500
G1 F1200.000
G1 X52.667 Y118.066 E0.00523
G1 X51.980 Y118.456 E0.00916
G1 X51.228 Y118.669 E0.00904
G1 X49.314 Y118.706 E0.02218
G1 X47.989 Y118.250 E0.01623
G1 X47.456 Y117.879 E0.00752
G1 X46.626 Y116.854 E0.01527
G1 X46.246 Y115.642 E0.01471
G1 X46.246 Y84.779 E0.35740
G1 X46.825 Y83.265 E0.01877
G1 X47.648 Y82.404 E0.01379
G1 X48.368 Y81.989 E0.00962
G1 X49.177 Y81.769 E0.00971
G1 X51.167 Y81.766 E0.02305
G1 X51.367 Y81.815 E0.00238
M204 S1000
G1 X51.386 Y82.106 F10800.000
M204 S500
G1 F1200.000
G1 X51.742 Y82.193 E0.00424
G1 X52.314 Y82.473 E0.00738
G1 X53.127 Y83.193 E0.01258
G1 X53.305 Y83.449 E0.00360
G1 X53.825 Y84.805 E0.01682
G1 X53.825 Y115.638 E0.35706
G1 X53.307 Y117.001 E0.01688
G1 X52.872 Y117.456 E0.00729
M204 S1000
G1 X52.613 Y117.728 F10800.000
M204 S500
G1 F1200.000
G1 X52.512 Y117.833 E0.00168
G1 X51.857 Y118.205 E0.00872
G1 X51.171 Y118.396 E0.00825
G1 X49.334 Y118.427 E0.02128
G1 X48.099 Y117.994 E0.01516
G1 X47.658 Y117.687 E0.00622
G1 X46.883 Y116.743 E0.01415
G1 X46.524 Y115.620 E0.01366
G1 X46.524 Y84.805 E0.35684
G1 X47.075 Y83.393 E0.01755
G1 X47.804 Y82.636 E0.01217
G1 X48.491 Y82.240 E0.00918
G1 X49.231 Y82.042 E0.00886
G1 X50.779 Y82.041 E0.01793
M204 S1000
G1 X50.841 Y82.316 F10800.000
M204 S500
G1 F1200.000
G1 X51.069 Y82.316 E0.00264
G1 X51.633 Y82.450 E0.00672
M204 S1000
M204 S500
G1 X52.174 Y82.715 E0.00697
G1 X52.929 Y83.390 E0.01173
G1 X53.052 Y83.566 E0.00248
G1 X53.546 Y84.832 E0.01574
G1 X53.546 Y115.612 E0.35645
G1 X53.058 Y116.874 E0.01567
G1 X52.506 Y117.447 E0.00921
M204 S1000
G1 X52.153 Y117.717 F10800.000
M204 S500
G1 F1200.000
G1 X51.735 Y117.954 E0.00557
G1 X51.116 Y118.122 E0.00744
G1 X49.356 Y118.148 E0.02038
G1 X48.211 Y117.738 E0.01409
G1 X47.860 Y117.494 E0.00495
G1 X47.139 Y116.631 E0.01302
G1 X46.945 Y116.036 E0.00725
M204 S1000
G1 X46.850 Y115.741 F10800.000
M204 S500
G1 F1200.000
G1 X46.803 Y115.597 E0.00175
G1 X46.803 Y115.365 E0.00269
M204 S1000
G1 F8640.000
G1 X46.803 Y115.597 E-0.05361
G1 X46.850 Y115.741 E-0.03484
G1 E-0.71156 F2100.00000
G1 Z0.700 F10800.000
G1 X46.803 Y85.063
G1 Z0.100
G1 E0.80000 F2100.00000
M204 S500
G1 F1200.000
G1 X46.803 Y84.832 E0.00267
G1 X46.868 Y84.667 E0.00205
M204 S1000
G1 X47.155 Y83.945 F10800.000
M204 S500
G1 F1200.000
G1 X47.323 Y83.522 E0.00528
G1 X47.960 Y82.868 E0.01057
G1 X48.614 Y82.491 E0.00874
G1 X49.283 Y82.316 E0.00801
G1 X50.063 Y82.316 E0.00903
M204 S1000
G1 X50.125 Y82.591 F10800.000
M204 S500
G1 F1200.000
G1 X51.022 Y82.591 E0.01038
M204 S1000
M204 S500
G1 X51.526 Y82.708 E0.00599
G1 X52.034 Y82.956 E0.00655
G1 X52.730 Y83.586 E0.01087
G1 X52.799 Y83.684 E0.00139
G1 X53.267 Y84.859 E0.01464
G1 X53.267 Y115.585 E0.35583
G1 X52.810 Y116.745 E0.01444
G1 X52.203 Y117.368 E0.01006
G1 X52.083 Y117.436 E0.00160
M204 S1000
G1 X51.613 Y117.703 F10800.000
M204 S500
G1 F1200.000
G1 X51.062 Y117.849 E0.00660
G1 X49.378 Y117.870 E0.01949
G1 X48.324 Y117.483 E0.01301
G1 X48.206 Y117.401 E0.00166
M204 S1000
G1 F8640.000
G1 X48.324 Y117.483 E-0.03306
G1 X49.378 Y117.870 E-0.25939
G1 X51.062 Y117.849 E-0.38870
G1 X51.392 Y117.761 E-0.07885
G1 E-0.04000 F2100.00000
G1 Z0.700 F10800.000
G1 X47.167 Y115.831
G1 Z0.100
G1 E0.80000 F2100.00000
M204 S500
G1 F1200.000
G1 X47.126 Y115.710 E0.00147
M204 S1000
G1 X47.081 Y115.348 F10800.000
M204 S500
G1 F1200.000
G1 X47.081 Y85.085 E0.35045
M73 Q1 S96
M73 P1 R96
M204 S1000
G1 X47.144 Y84.704 F10800.000
M204 S500
G1 F1200.000
G1 X47.380 Y84.122 E0.00727
M204 S1000
G1 F8640.000
G1 X47.144 Y84.704 E-0.14489
G1 E-0.65511 F2100.00000
G1 Z0.700 F10800.000
G1 X48.297 Y82.995
G1 Z0.100
G1 E0.80000 F2100.00000
M204 S500
G1 F1200.000
G1 X48.736 Y82.742 E0.00586
G1 X49.349 Y82.591 E0.00731
M204 S1000
G1 X49.410 Y82.865 F10800.000
M204 S500
G1 F1200.000
G1 X51.005 Y82.869 E0.01846
M204 S1000
M204 S500
G1 X51.445 Y82.974 E0.00524
G1 X51.892 Y83.196 E0.00578
G1 X52.531 Y83.781 E0.01003
G1 X52.989 Y84.886 E0.01386
G1 X52.989 Y115.558 E0.35519
G1 X52.562 Y116.615 E0.01320
G1 X52.050 Y117.135 E0.00846
G1 X51.543 Y117.422 E0.00674
M204 S1000
G1 F8640.000
G1 X52.050 Y117.135 E-0.13442
G1 X52.562 Y116.615 E-0.16864
G1 X52.989 Y115.558 E-0.26314
G1 X52.989 Y114.719 E-0.19380
G1 E-0.04000 F2100.00000
G1 Z0.700 F10800.000
G1 X48.322 Y117.148
G1 Z0.100
G1 E0.80000 F2100.00000
M204 S500
G1 F1200.000
G1 X48.258 Y117.104 E0.00090
G1 X47.649 Y116.400 E0.01078
G1 X47.360 Y115.551 E0.01039
G1 X47.360 Y84.887 E0.35510
G1 X47.816 Y83.785 E0.01381
G1 X48.269 Y83.332 E0.00742
G1 X48.417 Y83.247 E0.00198
M204 S1000
G1 X48.033 Y83.963 F10800.000
M204 S500
G1 F1200.000
G1 X48.453 Y83.543 E0.00688
G1 X48.977 Y83.245 E0.00698
G1 X49.399 Y83.144 E0.00502
G1 X50.986 Y83.147 E0.01838
G1 X51.361 Y83.241 E0.00447
G1 X51.748 Y83.436 E0.00502
G1 X52.308 Y83.954 E0.00883
G1 X52.710 Y84.915 E0.01206
G1 X52.710 Y115.530 E0.35454
G1 X52.316 Y116.482 E0.01193
G1 X51.896 Y116.902 E0.00688
G1 X51.373 Y117.199 E0.00697
G1 X50.960 Y117.300 E0.00493
G1 X49.427 Y117.312 E0.01775
G1 X48.555 Y116.975 E0.01083
G1 X48.455 Y116.906 E0.00140
G1 X47.902 Y116.281 E0.00966
G1 X47.638 Y115.527 E0.00925
G1 X47.638 Y84.915 E0.35450
G1 X48.018 Y83.997 E0.01150
M204 S1000
G1 X48.249 Y84.140 F10800.000
M204 S500
G1 F1200.000
G1 X48.635 Y83.754 E0.00633
G1 X49.095 Y83.498 E0.00609
G1 X49.415 Y83.423 E0.00380
G1 X50.969 Y83.426 E0.01800
G1 X51.250 Y83.496 E0.00335
G1 X51.605 Y83.675 E0.00461
G1 X52.096 Y84.136 E0.00780
G1 X52.432 Y84.942 E0.01011
G1 X52.432 Y115.503 E0.35390
G1 X52.100 Y116.304 E0.01005
G1 X51.713 Y116.691 E0.00633
G1 X51.255 Y116.946 E0.00608
G1 X50.942 Y117.022 E0.00373
G1 X49.453 Y117.033 E0.01724
G1 X48.673 Y116.723 E0.00972
G1 X48.154 Y116.160 E0.00887
G1 X47.917 Y115.502 E0.00810
G1 X47.917 Y84.942 E0.35390
G1 X48.235 Y84.175 E0.00962
M204 S1000
G1 X48.465 Y84.318 F10800.000
M204 S500
G1 F1200.000
G1 X48.818 Y83.966 E0.00577
G1 X49.211 Y83.752 E0.00518
G1 X49.430 Y83.701 E0.00261
G1 X50.951 Y83.704 E0.01761
G1 X51.138 Y83.752 E0.00223
G1 X51.460 Y83.915 E0.00419
G1 X51.882 Y84.317 E0.00675
G1 X52.153 Y84.970 E0.00818
G1 X52.153 Y115.475 E0.35326
G1 X51.883 Y116.127 E0.00817
G1 X51.531 Y116.479 E0.00577
G1 X51.139 Y116.692 E0.00517
G1 X50.924 Y116.743 E0.00256
G1 X49.479 Y116.755 E0.01673
G1 X48.822 Y116.483 E0.00823
G1 X48.405 Y116.035 E0.00709
G1 X48.196 Y115.476 E0.00691
G1 X48.196 Y84.970 E0.35328
G1 X48.451 Y84.352 E0.00773
M204 S1000
G1 X49.323 Y84.008 F10800.000
M204 S500
G1 F1200.000
G1 X49.445 Y83.980 E0.00145
G1 X50.932 Y83.983 E0.01722
G1 X51.025 Y84.007 E0.00111
G1 X51.315 Y84.153 E0.00376
G1 X51.667 Y84.496 E0.00569
G1 X51.875 Y84.997 E0.00628
G1 X51.875 Y115.448 E0.35263
G1 X51.667 Y115.949 E0.00629
G1 X51.350 Y116.267 E0.00520
G1 X51.026 Y116.437 E0.00423
G1 X50.907 Y116.465 E0.00142
G1 X49.505 Y116.476 E0.01623
G1 X49.002 Y116.269 E0.00630
G1 X48.653 Y115.906 E0.00583
G1 X48.474 Y115.449 E0.00568
G1 X48.474 Y84.997 E0.35265
G1 X48.682 Y84.495 E0.00629
G1 X48.999 Y84.178 E0.00520
G1 X49.290 Y84.025 E0.00381
M204 S1000
G1 X49.415 Y84.273 F10800.000
M204 S500
G1 F1200.000
G1 X49.460 Y84.258 E0.00055
G1 X50.917 Y84.265 E0.01687
G1 X51.169 Y84.392 E0.00327
G1 X51.451 Y84.673 E0.00461
G1 X51.596 Y85.024 E0.00441
G1 X51.596 Y115.420 E0.35199
G1 X51.451 Y115.772 E0.00441
G1 X51.169 Y116.053 E0.00461
G1 X50.890 Y116.186 E0.00359
G1 X49.531 Y116.197 E0.01574
G1 X49.178 Y116.052 E0.00442
G1 X48.898 Y115.772 E0.00458
G1 X48.753 Y115.420 E0.00441
G1 X48.753 Y85.024 E0.35199
G1 X48.898 Y84.673 E0.00441
G1 X49.179 Y84.392 E0.00461
G1 X49.381 Y84.290 E0.00262
M204 S1000
G1 X49.500 Y84.540 F10800.000
M204 S500
G1 F1200.000
G1 X50.842 Y84.537 E0.01555
G1 X50.991 Y84.607 E0.00190
G1 X51.234 Y84.851 E0.00399
G1 X51.318 Y85.052 E0.00252
G1 X51.318 Y115.393 E0.35136
G1 X51.234 Y115.594 E0.00252
G1 X50.991 Y115.838 E0.00399
G1 X50.842 Y115.908 E0.00191
G1 X49.556 Y115.918 E0.01488
G1 X49.356 Y115.835 E0.00252
G1 X49.115 Y115.594 E0.00395
G1 X49.031 Y115.393 E0.00252
G1 X49.031 Y85.052 E0.35136
G1 X49.115 Y84.851 E0.00252
G1 X49.358 Y84.607 E0.00399
G1 X49.466 Y84.556 E0.00138
M204 S1000
G1 X49.331 Y85.028 F10800.000
M204 S500
G1 F1200.000
G1 X49.533 Y84.826 E0.00331
G1 X49.584 Y84.805 E0.00064
G1 X50.764 Y84.805 E0.01366
G1 X50.816 Y84.826 E0.00064
G1 X51.018 Y85.028 E0.00331
G1 X51.039 Y85.079 E0.00064
G1 X51.039 Y115.365 E0.35072
G1 X51.018 Y115.417 E0.00064
G1 X50.816 Y115.619 E0.00331
G1 X50.764 Y115.640 E0.00064
G1 X49.584 Y115.640 E0.01366
G1 X49.533 Y115.619 E0.00064
G1 X49.331 Y115.417 E0.00331
G1 X49.310 Y115.365 E0.00064
G1 X49.317 Y85.063 E0.35092
M204 S1000
G1 X49.588 Y85.165 F10800.000
M204 S500
G1 F1200.000
G1 X49.670 Y85.083 E0.00134
G1 X50.679 Y85.083 E0.01169
G1 X50.761 Y85.165 E0.00134
G1 X50.761 Y115.280 E0.34875
G1 X50.679 Y115.362 E0.00134
G1 X49.670 Y115.362 E0.01169
G1 X49.588 Y115.280 E0.00134
G1 X49.588 Y85.202 E0.34831
M204 S1000
G1 F8640.000
G1 X49.670 Y85.083 E-0.03333
G1 X50.679 Y85.083 E-0.23303
G1 X50.761 Y85.165 E-0.02664
G1 X50.761 Y87.187 E-0.46700
G1 E-0.04000 F2100.00000
G1 Z0.700 F10800.000
G1 X71.927 Y80.749
G1 Z0.100
G1 E0.80000 F2100.00000
M204 S500
G1 F1200.000
G1 X72.705 Y81.121 E0.00999
G1 X73.807 Y82.062 E0.01678
G1 X74.278 Y82.741 E0.00957
G1 X74.916 Y84.540 E0.02211
G1 X74.916 Y115.624 E0.35996
G1 X74.264 Y117.477 E0.02275
G1 X73.786 Y117.993 E0.00814
M204 S1000
G1 X73.534 Y118.265 F10800.000
M204 S500
G1 F1200.000
G1 X72.987 Y118.855 E0.00931
G1 X72.111 Y119.344 E0.01163
G1 X71.166 Y119.620 E0.01140
G1 X68.940 Y119.683 E0.02579
G1 X67.257 Y119.141 E0.02047
G1 X66.334 Y118.497 E0.01303
G1 X66.003 Y118.072 E0.00624
M204 S1000
G1 X65.782 Y117.788 F10800.000
M204 S500
G1 F1200.000
G1 X65.315 Y117.189 E0.00879
G1 X64.831 Y115.586 E0.01939
G1 X64.831 Y84.538 E0.35955
G1 X65.522 Y82.629 E0.02351
G1 X66.724 Y81.338 E0.02042
G1 X67.639 Y80.821 E0.01218
G1 X68.652 Y80.536 E0.01219
G1 X71.069 Y80.530 E0.02798
G1 X71.927 Y80.749 E0.01026
M204 S1000
G1 X71.018 Y80.804 F10800.000
M204 S500
G1 F1200.000
G1 X71.819 Y81.006 E0.00957
G1 X72.568 Y81.365 E0.00961
G1 X73.612 Y82.262 E0.01594
G1 X74.023 Y82.853 E0.00834
G1 X74.638 Y84.565 E0.02107
G1 X74.638 Y115.600 E0.35940
