; generated by PrusaSlicer 2.2.0 on 2020-07-29 at 14:51:56 UTC

; 

; external perimeters extrusion width = 0.25mm
; perimeters extrusion width = 0.25mm
; infill extrusion width = 0.25mm
; solid infill extrusion width = 0.25mm
; top infill extrusion width = 0.25mm
; support material extrusion width = 0.20mm
; first layer extrusion width = 0.30mm

M73 P0 R42
M73 Q0 S42
M201 X1000 Y1000 Z200 E5000 ; sets maximum accelerations, mm/sec^2
M203 X200 Y200 Z12 E120 ; sets maximum feedrates, mm/sec
M204 P1250 R1250 T1250 ; sets acceleration (P, T) and retract acceleration (R), mm/sec^2
M205 X8.00 Y8.00 Z0.40 E4.50 ; sets the jerk limits, mm/sec
M205 S0 T0 ; sets the minimum extruding and travel feed rate, mm/sec
M107
M862.3 P "MK3S" ; printer model check
M862.1 P0.25 ; nozzle diameter check
M115 U3.9.0 ; tell printer latest fw version
G90 ; use absolute coordinates
M83 ; extruder relative mode
M104 S215 ; set extruder temp
M140 S60 ; set bed temp
M190 S60 ; wait for bed temp
M109 S215 ; wait for extruder temp
G28 W ; home all without mesh bed level
G80 ; mesh bed leveling
G1 Y-3.0 F1000.0 ; go outside print area
G92 E0.0
G1 X60.0 E9.0 F1000.0 ; intro line
M73 Q0 S42
M73 P0 R42
G1 X100.0 E12.5 F1000.0 ; intro line
G92 E0.0
M221 S95
G21 ; set units to millimeters
G90 ; use absolute coordinates
M83 ; use relative distances for extrusion
M900 K0.06 ; Filament gcode LA 1.5
M900 K30 ; Filament gcode LA 1.0
;BEFORE_LAYER_CHANGE
G92 E0.0
;0.1


G1 E-0.80000 F2100.00000
G1 Z0.600 F10800.000
;AFTER_LAYER_CHANGE
;0.1
G1 X112.820 Y63.663
G1 Z0.100
G1 E0.80000 F2100.00000
M204 S500
G1 F1200.000
G1 X113.336 Y63.059 E0.00920
G1 X114.009 Y62.643 E0.00916
G1 X114.780 Y62.452 E0.00920
G1 X135.004 Y62.443 E0.23420
G1 X135.963 Y62.631 E0.01132
G1 X136.782 Y63.166 E0.01132
G1 X137.340 Y63.969 E0.01132
G1 X137.556 Y64.922 E0.01132
G1 X137.557 Y145.004 E0.92738
G1 X137.485 Y145.603 E0.00698
G1 X137.178 Y146.340 E0.00925
G1 X136.661 Y146.944 E0.00920
G1 X135.981 Y147.362 E0.00925
G1 X135.208 Y147.549 E0.00920
G1 X114.992 Y147.557 E0.23411
G1 X114.397 Y147.485 E0.00694
G1 X113.630 Y147.159 E0.00966
G1 X113.008 Y146.604 E0.00966
G1 X112.598 Y145.877 E0.00966
G1 X112.444 Y145.058 E0.00966
G1 X112.443 Y65.000 E0.92710
G1 X112.515 Y64.397 E0.00703
G1 X112.806 Y63.698 E0.00877
M204 S1000
G1 X113.061 Y63.805 F10800.000
M204 S500
G1 F1200.000
G1 X113.523 Y63.265 E0.00824
G1 X114.132 Y62.893 E0.00826
G1 X114.822 Y62.728 E0.00821
G1 X135.004 Y62.721 E0.23371
G1 X135.858 Y62.889 E0.01009
G1 X136.590 Y63.368 E0.01013
G1 X137.086 Y64.084 E0.01009
G1 X137.278 Y64.938 E0.01013
G1 X137.279 Y145.000 E0.92715
G1 X137.214 Y145.539 E0.00629
G1 X136.937 Y146.200 E0.00830
G1 X136.471 Y146.740 E0.00826
G1 X135.861 Y147.110 E0.00826
G1 X135.167 Y147.272 E0.00826
G1 X114.993 Y147.279 E0.23362
G1 X114.461 Y147.214 E0.00620
G1 X113.774 Y146.921 E0.00864
G1 X113.222 Y146.425 E0.00860
G1 X112.858 Y145.777 E0.00860
G1 X112.722 Y145.048 E0.00860
G1 X112.721 Y65.000 E0.92698
G1 X112.786 Y64.461 E0.00629
G1 X113.046 Y63.839 E0.00780
M204 S1000
G1 F8640.000
G1 X113.523 Y63.265 E-0.17249
G1 X114.132 Y62.893 E-0.16465
G1 X114.822 Y62.728 E-0.16380
G1 X115.944 Y62.728 E-0.25906
G1 E-0.04000 F2100.00000
G1 Z0.700 F10800.000
G1 X114.452 Y60.404
G1 Z0.100
G1 E0.80000 F2100.00000
M204 S500
G1 F1200.000
G1 X135.466 Y60.415 E0.24335
G1 X136.443 Y60.609 E0.01153
G1 X137.372 Y61.031 E0.01182
G1 X138.486 Y61.978 E0.01693
G1 X138.958 Y62.658 E0.00958
G1 X139.596 Y64.458 E0.02211
G1 X139.585 Y145.420 E0.93758
G1 X139.486 Y146.141 E0.00843
G1 X138.899 Y147.473 E0.01686
G1 X137.920 Y148.580 E0.01711
G1 X137.475 Y148.878 E0.00621
G1 X135.548 Y149.596 E0.02381
G1 X114.578 Y149.585 E0.24284
G1 X113.858 Y149.486 E0.00842
G1 X112.527 Y148.899 E0.01685
G1 X111.432 Y147.936 E0.01689
G1 X111.166 Y147.546 E0.00547
G1 X110.404 Y145.552 E0.02471
G1 X110.415 Y64.580 E0.93769
G1 X110.514 Y63.859 E0.00843
G1 X111.101 Y62.527 E0.01686
G1 X112.080 Y61.420 E0.01711
G1 X112.525 Y61.122 E0.00621
G1 X114.417 Y60.417 E0.02337
M204 S1000
G1 X114.477 Y60.682 F10800.000
M204 S500
G1 F1200.000
G1 X135.452 Y60.693 E0.24290
G1 X136.371 Y60.879 E0.01086
G1 X137.238 Y61.276 E0.01104
G1 X138.291 Y62.178 E0.01606
G1 X138.702 Y62.770 E0.00834
G1 X139.317 Y64.482 E0.02107
G1 X139.307 Y145.410 E0.93718
G1 X139.213 Y146.083 E0.00786
G1 X138.653 Y147.340 E0.01593
G1 X137.749 Y148.359 E0.01578
G1 X137.360 Y148.624 E0.00545
G1 X135.523 Y149.318 E0.02275
G1 X114.588 Y149.307 E0.24243
G1 X113.916 Y149.213 E0.00786
G1 X112.660 Y148.653 E0.01593
G1 X111.630 Y147.739 E0.01595
G1 X111.420 Y147.430 E0.00433
G1 X110.683 Y145.526 E0.02364
G1 X110.693 Y64.590 E0.93727
G1 X110.787 Y63.917 E0.00786
G1 X111.347 Y62.660 E0.01593
G1 X112.251 Y61.641 E0.01578
G1 X112.640 Y61.376 E0.00545
G1 X114.442 Y60.696 E0.02231
M204 S1000
G1 X114.503 Y60.961 F10800.000
M204 S500
G1 F1200.000
G1 X135.438 Y60.972 E0.24243
G1 X136.299 Y61.148 E0.01018
G1 X137.103 Y61.520 E0.01025
G1 X138.096 Y62.377 E0.01519
G1 X138.447 Y62.882 E0.00712
G1 X139.039 Y64.507 E0.02002
G1 X139.028 Y145.401 E0.93678
G1 X138.940 Y146.024 E0.00729
G1 X138.408 Y147.205 E0.01500
G1 X137.554 Y148.161 E0.01485
G1 X137.245 Y148.369 E0.00431
G1 X135.497 Y149.039 E0.02168
G1 X114.598 Y149.028 E0.24201
G1 X113.975 Y148.940 E0.00729
G1 X112.795 Y148.408 E0.01499
G1 X111.828 Y147.544 E0.01501
G1 X111.673 Y147.314 E0.00321
G1 X110.961 Y145.500 E0.02257
G1 X110.972 Y64.599 E0.93685
G1 X111.060 Y63.976 E0.00729
G1 X111.592 Y62.795 E0.01500
G1 X112.446 Y61.839 E0.01485
G1 X112.754 Y61.631 E0.00431
G1 X114.468 Y60.974 E0.02125
M204 S1000
G1 X114.529 Y61.240 F10800.000
M204 S500
G1 F1200.000
G1 X135.423 Y61.251 E0.24196
M73 Q2 S41
M73 P2 R41
G1 X136.226 Y61.417 E0.00950
G1 X136.966 Y61.764 E0.00946
G1 X137.900 Y62.576 E0.01432
G1 X138.192 Y62.996 E0.00593
G1 X138.760 Y64.532 E0.01896
G1 X138.750 Y145.390 E0.93637
G1 X138.667 Y145.965 E0.00672
G1 X138.164 Y147.070 E0.01406
G1 X137.359 Y147.961 E0.01391
G1 X137.130 Y148.116 E0.00320
G1 X135.471 Y148.760 E0.02061
G1 X114.608 Y148.749 E0.24159
G1 X114.035 Y148.667 E0.00671
G1 X112.930 Y148.164 E0.01406
G1 X112.028 Y147.349 E0.01408
G1 X111.926 Y147.197 E0.00212
G1 X111.240 Y145.473 E0.02149
G1 X111.250 Y64.610 E0.93643
G1 X111.333 Y64.035 E0.00672
G1 X111.836 Y62.930 E0.01406
G1 X112.641 Y62.039 E0.01391
G1 X112.870 Y61.884 E0.00320
G1 X114.494 Y61.253 E0.02018
M204 S1000
G1 X114.556 Y61.518 F10800.000
M204 S500
G1 F1200.000
G1 X135.408 Y61.529 E0.24148
G1 X136.152 Y61.686 E0.00880
G1 X136.829 Y62.007 E0.00868
G1 X137.703 Y62.774 E0.01346
G1 X137.937 Y63.111 E0.00475
G1 X138.482 Y64.557 E0.01790
G1 X138.471 Y145.380 E0.93596
G1 X138.395 Y145.904 E0.00613
G1 X137.921 Y146.933 E0.01312
G1 X137.165 Y147.761 E0.01298
G1 X137.013 Y147.862 E0.00211
G1 X135.444 Y148.482 E0.01954
G1 X114.619 Y148.471 E0.24117
G1 X114.095 Y148.395 E0.00613
G1 X113.067 Y147.920 E0.01312
G1 X112.229 Y147.156 E0.01313
G1 X112.179 Y147.080 E0.00105
G1 X111.518 Y145.446 E0.02041
G1 X111.529 Y64.620 E0.93599
G1 X111.605 Y64.096 E0.00613
G1 X112.079 Y63.067 E0.01312
G1 X112.835 Y62.239 E0.01298
G1 X112.987 Y62.138 E0.00211
G1 X114.521 Y61.532 E0.01910
M204 S1000
G1 F8640.000
G1 X117.812 Y61.531 E-0.76000
G1 E-0.04000 F2100.00000
G1 Z0.700 F10800.000
G1 X113.008 Y62.458
G1 Z0.100
G1 E0.80000 F2100.00000
M204 S500
G1 F1200.000
G1 X113.106 Y62.390 E0.00138
G1 X114.583 Y61.797 E0.01842
G1 X135.394 Y61.808 E0.24100
G1 X136.048 Y61.945 E0.00774
G1 X136.692 Y62.250 E0.00825
G1 X137.506 Y62.971 E0.01259
G1 X137.684 Y63.226 E0.00360
G1 X138.203 Y64.583 E0.01683
G1 X138.192 Y145.370 E0.93554
G1 X138.122 Y145.844 E0.00555
G1 X137.700 Y146.762 E0.01171
G1 X136.992 Y147.542 E0.01220
G1 X136.894 Y147.610 E0.00138
G1 X135.417 Y148.203 E0.01842
G1 X114.629 Y148.192 E0.24073
G1 X114.156 Y148.122 E0.00554
G1 X113.238 Y147.700 E0.01170
G1 X112.447 Y146.981 E0.01238
G1 X111.797 Y145.418 E0.01961
G1 X111.808 Y64.630 E0.93555
G1 X111.878 Y64.156 E0.00555
G1 X112.300 Y63.238 E0.01171
G1 X112.983 Y62.486 E0.01177
M204 S1000
G1 X113.188 Y62.674 F10800.000
M204 S500
G1 F1200.000
G1 X113.226 Y62.641 E0.00058
G1 X114.610 Y62.075 E0.01731
G1 X135.379 Y62.086 E0.24051
G1 X135.973 Y62.214 E0.00703
G1 X136.553 Y62.492 E0.00746
G1 X137.308 Y63.168 E0.01173
G1 X137.430 Y63.343 E0.00248
G1 X137.925 Y64.610 E0.01574
G1 X137.914 Y145.359 E0.93511
G1 X137.850 Y145.782 E0.00495
G1 X137.457 Y146.624 E0.01077
G1 X136.797 Y147.342 E0.01129
G1 X135.390 Y147.925 E0.01764
G1 X114.640 Y147.914 E0.24029
G1 X114.218 Y147.850 E0.00495
G1 X113.376 Y147.457 E0.01076
G1 X112.669 Y146.807 E0.01112
G1 X112.075 Y145.390 E0.01780
G1 X112.086 Y64.641 E0.93510
G1 X112.150 Y64.218 E0.00495
G1 X112.543 Y63.376 E0.01077
G1 X113.163 Y62.702 E0.01060
M204 S1000
G1 F8640.000
G1 X113.226 Y62.641 E-0.02024
G1 X114.610 Y62.075 E-0.34520
G1 X116.319 Y62.076 E-0.39456
G1 E-0.04000 F2100.00000
G1 Z0.700 F10800.000
G1 X135.328 Y62.365
G1 Z0.100
G1 E0.80000 F2100.00000
M204 S500
G1 F1200.000
G1 X135.651 Y62.428 E0.00381
M204 S1000
G1 X136.264 Y62.661 F10800.000
M204 S500
G1 F1200.000
G1 X136.413 Y62.734 E0.00192
G1 X136.511 Y62.823 E0.00154
M204 S1000
G1 X137.054 Y63.314 F10800.000
M204 S500
G1 F1200.000
G1 X137.178 Y63.462 E0.00223
G1 X137.206 Y63.532 E0.00087
M204 S1000
G1 F8640.000
G1 X137.178 Y63.462 E-0.01734
G1 X137.054 Y63.314 E-0.04455
G1 E-0.73811 F2100.00000
G1 Z0.700 F10800.000
G1 X137.618 Y64.566
G1 Z0.100
G1 E0.80000 F2100.00000
M204 S500
G1 F1200.000
G1 X137.646 Y64.690 E0.00147
M204 S1000
G1 F8640.000
G1 X137.618 Y64.566 E-0.02939
G1 E-0.77061 F2100.00000
G1 Z0.700 F10800.000
G1 X112.354 Y145.334
G1 Z0.100
G1 E0.80000 F2100.00000
M204 S500
G1 F1200.000
G1 X112.364 Y145.386 E0.00062
M204 S1000
G1 X112.911 Y145.301 F10800.000
M204 S500
G1 F1200.000
G1 X112.922 Y64.675 E0.93368
G1 X112.965 Y64.413 E0.00308
G1 X113.266 Y63.799 E0.00791
G1 X113.738 Y63.308 E0.00789
G1 X114.693 Y62.911 E0.01197
M204 S1000
M204 S500
G1 X135.301 Y62.922 E0.23864
M204 S1000
G1 X135.486 Y62.958 F10800.000
M204 S500
G1 F1200.000
G1 X135.737 Y63.017 E0.00298
G1 X136.007 Y63.153 E0.00350
M204 S1000
G1 X136.194 Y63.275 F10800.000
M204 S500
G1 F1200.000
G1 X136.647 Y63.695 E0.00715
M204 S1000
G1 X136.709 Y63.784 F10800.000
M204 S500
G1 F1200.000
G1 X137.070 Y64.646 E0.01082
M204 S1000
G1 X137.089 Y64.733 F10800.000
M204 S500
G1 F1200.000
G1 X137.078 Y145.325 E0.93328
G1 X137.035 Y145.587 E0.00308
G1 X136.734 Y146.201 E0.00791
G1 X136.262 Y146.692 E0.00789
G1 X135.307 Y147.089 E0.01197
G1 X114.675 Y147.078 E0.23893
G1 X114.412 Y147.035 E0.00308
G1 X113.799 Y146.734 E0.00791
G1 X113.308 Y146.262 E0.00789
G1 X112.913 Y145.313 E0.01190
M204 S1000
G1 X113.189 Y145.280 F10800.000
M204 S500
G1 F1200.000
G1 X113.200 Y64.687 E0.93329
M73 Q4 S40
M73 P4 R40
G1 X113.236 Y64.481 E0.00242
G1 X113.505 Y63.944 E0.00695
G1 X113.917 Y63.523 E0.00683
G1 X114.720 Y63.189 E0.01007
G1 X135.314 Y63.200 E0.23849
G1 X135.626 Y63.273 E0.00371
G1 X135.983 Y63.453 E0.00463
G1 X136.475 Y63.914 E0.00780
G1 X136.811 Y64.720 E0.01011
G1 X136.800 Y145.313 E0.93329
G1 X136.764 Y145.519 E0.00242
G1 X136.495 Y146.056 E0.00695
G1 X136.083 Y146.477 E0.00683
G1 X135.280 Y146.811 E0.01007
G1 X114.687 Y146.800 E0.23847
G1 X114.481 Y146.764 E0.00242
G1 X113.944 Y146.495 E0.00695
G1 X113.523 Y146.083 E0.00683
G1 X113.204 Y145.315 E0.00963
M204 S1000
G1 X113.738 Y145.904 F10800.000
M204 S500
G1 F1200.000
G1 X113.468 Y145.253 E0.00816
G1 X113.479 Y64.701 E0.93282
G1 X113.506 Y64.551 E0.00176
G1 X113.719 Y64.123 E0.00553
G1 X114.096 Y63.738 E0.00625
G1 X114.747 Y63.468 E0.00816
G1 X135.298 Y63.479 E0.23799
G1 X135.516 Y63.529 E0.00259
G1 X135.839 Y63.692 E0.00419
G1 X136.261 Y64.095 E0.00675
G1 X136.532 Y64.747 E0.00818
G1 X136.521 Y145.299 E0.93282
G1 X136.494 Y145.449 E0.00176
G1 X136.281 Y145.877 E0.00553
G1 X135.904 Y146.262 E0.00625
G1 X135.253 Y146.532 E0.00816
G1 X114.700 Y146.521 E0.23800
G1 X114.551 Y146.494 E0.00176
G1 X114.123 Y146.281 E0.00553
G1 X113.764 Y145.930 E0.00581
M204 S1000
G1 X114.625 Y146.225 F10800.000
M204 S500
G1 F1200.000
G1 X114.271 Y146.044 E0.00461
G1 X113.954 Y145.727 E0.00519
G1 X113.747 Y145.225 E0.00629
G1 X113.757 Y64.715 E0.93233
G1 X113.775 Y64.625 E0.00106
G1 X113.956 Y64.271 E0.00461
G1 X114.273 Y63.954 E0.00519
G1 X114.775 Y63.747 E0.00629
G1 X135.283 Y63.757 E0.23749
G1 X135.406 Y63.786 E0.00146
G1 X135.694 Y63.931 E0.00374
G1 X136.046 Y64.274 E0.00569
G1 X136.253 Y64.775 E0.00628
G1 X136.243 Y145.285 E0.93233
G1 X136.225 Y145.375 E0.00106
G1 X136.044 Y145.729 E0.00461
G1 X135.727 Y146.046 E0.00519
G1 X135.225 Y146.253 E0.00629
G1 X114.662 Y146.232 E0.23813
M204 S1000
G1 X114.704 Y145.958 F10800.000
M204 S500
G1 F1200.000
G1 X114.452 Y145.831 E0.00327
G1 X114.171 Y145.549 E0.00461
G1 X114.025 Y145.198 E0.00441
G1 X114.042 Y64.704 E0.93215
G1 X114.169 Y64.452 E0.00327
G1 X114.451 Y64.171 E0.00461
G1 X114.802 Y64.025 E0.00441
G1 X135.296 Y64.042 E0.23732
G1 X135.548 Y64.169 E0.00327
G1 X135.829 Y64.451 E0.00461
G1 X135.975 Y64.802 E0.00441
G1 X135.958 Y145.296 E0.93215
G1 X135.831 Y145.548 E0.00327
G1 X135.549 Y145.829 E0.00461
G1 X135.198 Y145.975 E0.00441
G1 X114.741 Y145.964 E0.23690
M204 S1000
G1 X114.779 Y145.686 F10800.000
M204 S500
G1 F1200.000
G1 X114.631 Y145.615 E0.00190
G1 X114.387 Y145.372 E0.00399
G1 X114.304 Y145.171 E0.00252
G1 X114.314 Y64.779 E0.93096
G1 X114.385 Y64.631 E0.00190
G1 X114.628 Y64.387 E0.00399
G1 X114.829 Y64.304 E0.00252
G1 X135.221 Y64.314 E0.23614
G1 X135.369 Y64.385 E0.00190
G1 X135.613 Y64.628 E0.00399
G1 X135.696 Y64.829 E0.00252
G1 X135.686 Y145.221 E0.93096
G1 X135.615 Y145.369 E0.00190
G1 X135.372 Y145.613 E0.00399
G1 X135.171 Y145.696 E0.00252
G1 X114.817 Y145.686 E0.23570
M204 S1000
G1 X114.603 Y145.194 F10800.000
M204 S500
G1 F1200.000
G1 X114.582 Y145.143 E0.00064
G1 X114.582 Y64.857 E0.92974
G1 X114.603 Y64.806 E0.00064
G1 X114.806 Y64.603 E0.00331
G1 X114.857 Y64.582 E0.00064
G1 X135.143 Y64.582 E0.23492
G1 X135.194 Y64.603 E0.00064
G1 X135.397 Y64.806 E0.00331
G1 X135.418 Y64.857 E0.00064
G1 X135.418 Y145.143 E0.92974
G1 X135.397 Y145.194 E0.00064
G1 X135.194 Y145.397 E0.00331
G1 X135.143 Y145.418 E0.00064
G1 X114.857 Y145.418 E0.23492
G1 X114.806 Y145.397 E0.00064
G1 X114.630 Y145.221 E0.00288
M204 S1000
G1 X114.861 Y145.058 F10800.000
M204 S500
G1 F1200.000
G1 X114.861 Y64.942 E0.92776
M73 Q7 S39
M73 P7 R39
G1 X114.942 Y64.861 E0.00134
G1 X135.058 Y64.861 E0.23294
G1 X135.139 Y64.942 E0.00134
G1 X135.139 Y145.058 E0.92776
G1 X135.058 Y145.139 E0.00134
G1 X114.942 Y145.139 E0.23294
G1 X114.887 Y145.084 E0.00090
M204 S1000
G1 X115.150 Y144.850 F10800.000
M204 S500
G1 F1200.000
G1 X115.150 Y65.150 E0.92295
G1 X134.850 Y65.150 E0.22813
G1 X134.850 Y144.850 E0.92295
G1 X115.188 Y144.850 E0.22770
M204 S1000
G1 F8640.000
G1 X115.186 Y141.559 E-0.76000
G1 E-0.04000 F2100.00000
G1 Z0.700 F10800.000
G1 X134.766 Y65.798
G1 Z0.100
G1 E0.80000 F2100.00000
M204 S500
G1 F1200.000
G1 X134.327 Y65.359 E0.00721
G1 X133.932 Y65.359 E0.00458
G1 X134.641 Y66.068 E0.01164
G1 X134.641 Y66.463 E0.00458
G1 X133.537 Y65.359 E0.01812
G1 X133.143 Y65.359 E0.00458
G1 X134.641 Y66.857 E0.02460
G1 X134.641 Y67.252 E0.00458
G1 X132.748 Y65.359 E0.03109
G1 X132.353 Y65.359 E0.00458
G1 X134.641 Y67.647 E0.03757
G1 X134.641 Y68.042 E0.00458
G1 X131.958 Y65.359 E0.04406
G1 X131.563 Y65.359 E0.00458
G1 X134.641 Y68.437 E0.05054
G1 X134.641 Y68.832 E0.00458
G1 X131.168 Y65.359 E0.05702
G1 X130.773 Y65.359 E0.00458
G1 X134.641 Y69.227 E0.06351
G1 X134.641 Y69.622 E0.00458
G1 X130.378 Y65.359 E0.06999
G1 X129.983 Y65.359 E0.00458
G1 X134.641 Y70.017 E0.07647
G1 X134.641 Y70.412 E0.00458
G1 X129.588 Y65.359 E0.08296
G1 X129.193 Y65.359 E0.00458
G1 X134.641 Y70.807 E0.08944
G1 X134.641 Y71.201 E0.00458
G1 X128.799 Y65.359 E0.09592
G1 X128.404 Y65.359 E0.00458
G1 X134.641 Y71.596 E0.10241
G1 X134.641 Y71.991 E0.00458
G1 X128.009 Y65.359 E0.10889
G1 X127.614 Y65.359 E0.00458
G1 X134.641 Y72.386 E0.11538
G1 X134.641 Y72.781 E0.00458
G1 X127.219 Y65.359 E0.12186
G1 X126.824 Y65.359 E0.00458
G1 X134.641 Y73.176 E0.12834
G1 X134.641 Y73.571 E0.00458
