; generated by PrusaSlicer 2.2.0 on 2020-07-20 at 21:01:59 UTC

; 

; external perimeters extrusion width = 0.25mm
; perimeters extrusion width = 0.25mm
; infill extrusion width = 0.25mm
; solid infill extrusion width = 0.25mm
; top infill extrusion width = 0.25mm
; first layer extrusion width = 0.30mm

M73 P0 R242
M73 Q0 S252
M201 X1000 Y1000 Z200 E5000 ; sets maximum accelerations, mm/sec^2
M203 X200 Y200 Z12 E120 ; sets maximum feedrates, mm/sec
M204 P1250 R1250 T1250 ; sets acceleration (P, T) and retract acceleration (R), mm/sec^2
M205 X8.00 Y8.00 Z0.40 E4.50 ; sets the jerk limits, mm/sec
M205 S0 T0 ; sets the minimum extruding and travel feed rate, mm/sec
M107
M862.3 P "MK3S" ; printer model check
M862.1 P0.25 ; nozzle diameter check
M115 U3.9.0 ; tell printer latest fw version
G90 ; use absolute coordinates
M83 ; extruder relative mode
M104 S215 ; set extruder temp
M140 S60 ; set bed temp
M190 S60 ; wait for bed temp
M109 S215 ; wait for extruder temp
G28 W ; home all without mesh bed level
G80 ; mesh bed leveling
G1 Y-3.0 F1000.0 ; go outside print area
G92 E0.0
G1 X60.0 E9.0 F1000.0 ; intro line
M73 Q0 S252
M73 P0 R242
G1 X100.0 E12.5 F1000.0 ; intro line
G92 E0.0
M221 S95
G21 ; set units to millimeters
G90 ; use absolute coordinates
M83 ; use relative distances for extrusion
M900 K0.06 ; Filament gcode LA 1.5
M900 K30 ; Filament gcode LA 1.0
;BEFORE_LAYER_CHANGE
G92 E0.0
;0.1


G1 E-0.80000 F2100.00000
G1 Z0.600 F10800.000
;AFTER_LAYER_CHANGE
;0.1
G1 X24.753 Y107.375
G1 Z0.100
G1 E0.80000 F2100.00000
M204 S500
G1 F1200.000
G1 X24.975 Y107.226 E0.00310
G1 X125.002 Y98.509 E1.16274
G1 X225.025 Y107.226 E1.16270
G1 X225.247 Y107.375 E0.00310
G1 X225.277 Y107.711 E0.00391
G1 X225.187 Y107.891 E0.00233
G1 X225.000 Y107.964 E0.00233
G1 X25.000 Y107.964 E2.31607
G1 X24.812 Y107.891 E0.00233
G1 X24.723 Y107.711 E0.00233
G1 X24.749 Y107.412 E0.00347
M204 S1000
G1 F8640.000
G1 X24.975 Y107.226 E-0.06756
G1 X27.962 Y106.965 E-0.69244
G1 E-0.04000 F2100.00000
G1 Z0.700 F10800.000
G1 X72.739 Y108.103
G1 Z0.100
G1 E0.80000 F2100.00000
M204 S500
G1 F1200.000
G1 X24.869 Y112.275 E0.55646
G1 X23.197 Y111.907 E0.01983
G1 X21.722 Y110.887 E0.02076
G1 X20.941 Y109.826 E0.01526
G1 X20.398 Y108.115 E0.02079
G1 X20.520 Y106.407 E0.01983
G1 X21.211 Y104.867 E0.01955
G1 X22.498 Y103.625 E0.02072
G1 X24.108 Y102.967 E0.02014
G1 X124.794 Y94.192 E1.17039
G1 X225.891 Y102.967 E1.17514
M204 S1000
M204 S500
G1 X227.501 Y103.625 E0.02014
G1 X228.789 Y104.867 E0.02072
G1 X229.480 Y106.407 E0.01955
G1 X229.602 Y108.115 E0.01983
G1 X229.059 Y109.826 E0.02079
G1 X228.278 Y110.887 E0.01526
G1 X226.803 Y111.907 E0.02076
G1 X225.131 Y112.275 E0.01983
G1 X177.261 Y108.103 E0.55646
M204 S1000
G1 F8640.000
G1 X180.540 Y108.389 E-0.76000
G1 E-0.04000 F2100.00000
G1 Z0.700 F10800.000
G1 X174.065 Y107.825
G1 Z0.100
G1 E0.80000 F2100.00000
M204 S500
G1 F1200.000
G1 X125.000 Y103.548 E0.57034
G1 X75.935 Y107.825 E0.57034
M204 S1000
G1 F8640.000
G1 X79.214 Y107.539 E-0.76000
G1 E-0.04000 F2100.00000
G1 Z0.700 F10800.000
G1 X72.727 Y107.825
G1 Z0.100
G1 E0.80000 F2100.00000
M204 S500
G1 F1200.000
G1 X125.000 Y103.269 E0.60763
G1 X177.273 Y107.825 E0.60763
M204 S1000
G1 F8640.000
G1 X173.994 Y107.539 E-0.76000
G1 E-0.04000 F2100.00000
G1 Z0.700 F10800.000
G1 X180.469 Y108.103
G1 Z0.100
G1 E0.80000 F2100.00000
M204 S500
G1 F1200.000
G1 X225.134 Y111.996 E0.51920
G1 X226.715 Y111.641 E0.01877
G1 X228.100 Y110.673 E0.01956
G1 X228.801 Y109.719 E0.01371
G1 X229.323 Y108.107 E0.01962
G1 X229.215 Y106.497 E0.01869
G1 X228.575 Y105.047 E0.01835
G1 X227.370 Y103.872 E0.01949
G1 X225.846 Y103.243 E0.01910
G1 X124.806 Y94.471 E1.17447
M73 Q0 S251
M73 P0 R241
M204 S1000
M204 S500
G1 X24.154 Y103.243 E1.17000
G1 X22.630 Y103.872 E0.01909
G1 X21.425 Y105.047 E0.01949
G1 X20.785 Y106.497 E0.01835
G1 X20.677 Y108.107 E0.01869
G1 X21.199 Y109.719 E0.01962
G1 X21.900 Y110.673 E0.01371
G1 X23.285 Y111.641 E0.01956
G1 X24.866 Y111.996 E0.01877
G1 X69.531 Y108.103 E0.51920
M204 S1000
G1 X69.519 Y107.825 F10800.000
M204 S500
G1 F1200.000
G1 X125.000 Y102.989 E0.64492
G1 X180.481 Y107.825 E0.64492
M204 S1000
G1 F8640.000
G1 X177.202 Y107.539 E-0.76000
G1 E-0.04000 F2100.00000
G1 Z0.700 F10800.000
G1 X183.677 Y108.103
G1 Z0.100
G1 E0.80000 F2100.00000
M204 S500
G1 F1200.000
G1 X225.136 Y111.717 E0.48193
G1 X226.626 Y111.376 E0.01770
G1 X227.920 Y110.459 E0.01837
G1 X228.544 Y109.610 E0.01219
G1 X229.043 Y108.097 E0.01846
G1 X228.949 Y106.585 E0.01755
G1 X228.360 Y105.226 E0.01715
G1 X227.237 Y104.118 E0.01826
G1 X225.800 Y103.519 E0.01804
M204 S1000
M204 S500
G1 X124.818 Y94.749 E1.17380
G1 X24.200 Y103.519 E1.16961
G1 X22.762 Y104.118 E0.01804
G1 X21.640 Y105.226 E0.01826
G1 X21.051 Y106.585 E0.01715
G1 X20.957 Y108.097 E0.01755
G1 X21.456 Y109.610 E0.01846
G1 X22.080 Y110.459 E0.01219
G1 X23.374 Y111.376 E0.01837
G1 X24.864 Y111.717 E0.01770
G1 X66.323 Y108.103 E0.48193
M204 S1000
G1 X66.311 Y107.825 F10800.000
M204 S500
G1 F1200.000
G1 X125.000 Y102.710 E0.68221
G1 X183.689 Y107.825 E0.68221
M204 S1000
G1 F8640.000
G1 X180.410 Y107.539 E-0.76000
G1 E-0.04000 F2100.00000
G1 Z0.700 F10800.000
G1 X186.885 Y108.103
G1 Z0.100
G1 E0.80000 F2100.00000
M204 S500
G1 F1200.000
G1 X225.138 Y111.437 E0.44467
G1 X226.535 Y111.111 E0.01661
G1 X227.739 Y110.246 E0.01718
G1 X228.287 Y109.501 E0.01070
G1 X228.764 Y108.085 E0.01730
G1 X228.683 Y106.671 E0.01641
G1 X228.143 Y105.403 E0.01596
G1 X227.104 Y104.364 E0.01702
G1 X225.754 Y103.794 E0.01697
G1 X124.830 Y95.028 E1.17313
M204 S1000
M204 S500
G1 X24.246 Y103.794 E1.16922
G1 X22.896 Y104.364 E0.01697
G1 X21.857 Y105.403 E0.01702
G1 X21.317 Y106.671 E0.01596
G1 X21.236 Y108.085 E0.01641
G1 X21.713 Y109.501 E0.01730
G1 X22.261 Y110.246 E0.01070
G1 X23.465 Y111.111 E0.01718
G1 X24.862 Y111.437 E0.01661
G1 X63.115 Y108.103 E0.44467
M204 S1000
G1 X63.103 Y107.825 F10800.000
M204 S500
G1 F1200.000
G1 X125.000 Y102.430 E0.71950
G1 X186.897 Y107.825 E0.71950
M204 S1000
G1 F8640.000
G1 X183.618 Y107.539 E-0.76000
G1 E-0.04000 F2100.00000
G1 Z0.700 F10800.000
G1 X190.093 Y108.103
G1 Z0.100
G1 E0.80000 F2100.00000
M204 S500
G1 F1200.000
G1 X225.139 Y111.158 E0.40739
G1 X226.443 Y110.847 E0.01552
G1 X227.558 Y110.034 E0.01598
G1 X228.031 Y109.390 E0.00925
G1 X228.484 Y108.072 E0.01614
G1 X228.417 Y106.755 E0.01527
G1 X227.926 Y105.579 E0.01476
G1 X226.969 Y104.609 E0.01578
G1 X225.707 Y104.070 E0.01589
M73 Q0 S250
M73 P0 R240
M204 S1000
M204 S500
G1 X124.842 Y95.306 E1.17245
G1 X24.293 Y104.070 E1.16882
G1 X23.031 Y104.609 E0.01588
G1 X22.074 Y105.579 E0.01578
G1 X21.583 Y106.755 E0.01476
G1 X21.516 Y108.072 E0.01527
G1 X21.969 Y109.390 E0.01614
G1 X22.442 Y110.034 E0.00925
G1 X23.557 Y110.847 E0.01598
G1 X24.861 Y111.158 E0.01552
G1 X59.907 Y108.103 E0.40739
M204 S1000
G1 X59.895 Y107.825 F10800.000
M204 S500
G1 F1200.000
G1 X125.000 Y102.150 E0.75679
G1 X190.105 Y107.825 E0.75679
M204 S1000
G1 F8640.000
G1 X186.826 Y107.539 E-0.76000
G1 E-0.04000 F2100.00000
G1 Z0.700 F10800.000
G1 X193.301 Y108.103
G1 Z0.100
G1 E0.80000 F2100.00000
M204 S500
G1 F1200.000
G1 X225.141 Y110.878 E0.37012
G1 X226.349 Y110.583 E0.01440
G1 X227.375 Y109.823 E0.01479
G1 X227.775 Y109.278 E0.00783
G1 X228.205 Y108.057 E0.01499
G1 X228.150 Y106.837 E0.01414
G1 X227.708 Y105.755 E0.01354
G1 X226.790 Y104.824 E0.01514
G1 X225.661 Y104.345 E0.01419
G1 X124.855 Y95.585 E1.17178
M204 S1000
M204 S500
G1 X24.338 Y104.345 E1.16842
G1 X23.210 Y104.824 E0.01419
G1 X22.292 Y105.755 E0.01514
G1 X21.850 Y106.837 E0.01354
G1 X21.795 Y108.057 E0.01414
G1 X22.225 Y109.278 E0.01499
G1 X22.625 Y109.823 E0.00783
G1 X23.651 Y110.583 E0.01479
G1 X24.859 Y110.878 E0.01440
G1 X56.699 Y108.103 E0.37012
M204 S1000
G1 X56.687 Y107.825 F10800.000
M204 S500
G1 F1200.000
G1 X125.000 Y101.871 E0.79408
G1 X193.313 Y107.825 E0.79408
M204 S1000
G1 F8640.000
G1 X190.034 Y107.539 E-0.76000
G1 E-0.04000 F2100.00000
G1 Z0.700 F10800.000
G1 X196.509 Y108.103
G1 Z0.100
G1 E0.80000 F2100.00000
M204 S500
G1 F1200.000
G1 X225.141 Y110.599 E0.33283
G1 X226.253 Y110.320 E0.01327
G1 X227.190 Y109.613 E0.01360
G1 X227.520 Y109.164 E0.00646
G1 X227.926 Y108.040 E0.01384
G1 X227.882 Y106.917 E0.01301
G1 X227.488 Y105.928 E0.01233
G1 X226.653 Y105.069 E0.01388
G1 X225.614 Y104.621 E0.01310
M204 S1000
M204 S500
G1 X124.867 Y95.863 E1.17109
G1 X24.385 Y104.621 E1.16802
G1 X23.347 Y105.069 E0.01310
G1 X22.512 Y105.928 E0.01388
G1 X22.118 Y106.917 E0.01233
G1 X22.074 Y108.040 E0.01301
G1 X22.480 Y109.164 E0.01384
G1 X22.810 Y109.613 E0.00646
G1 X23.747 Y110.320 E0.01360
G1 X24.859 Y110.599 E0.01327
G1 X53.491 Y108.103 E0.33283
M204 S1000
G1 X53.479 Y107.825 F10800.000
M204 S500
G1 F1200.000
G1 X125.000 Y101.591 E0.83137
G1 X196.521 Y107.825 E0.83137
M73 Q1 S248
M73 P1 R239
M204 S1000
G1 F8640.000
G1 X193.242 Y107.539 E-0.76000
G1 E-0.04000 F2100.00000
G1 Z0.700 F10800.000
G1 X199.717 Y108.103
G1 Z0.100
G1 E0.80000 F2100.00000
M204 S500
G1 F1200.000
G1 X225.141 Y110.319 E0.29554
G1 X226.155 Y110.058 E0.01212
G1 X227.004 Y109.405 E0.01240
G1 X227.266 Y109.048 E0.00512
G1 X227.647 Y108.020 E0.01269
G1 X227.614 Y106.995 E0.01188
G1 X227.267 Y106.100 E0.01111
G1 X226.515 Y105.312 E0.01261
G1 X225.567 Y104.896 E0.01199
G1 X124.879 Y96.142 E1.17041
M204 S1000
M204 S500
G1 X24.433 Y104.896 E1.16761
G1 X23.485 Y105.312 E0.01199
G1 X22.733 Y106.100 E0.01261
G1 X22.386 Y106.995 E0.01111
G1 X22.353 Y108.020 E0.01188
G1 X22.734 Y109.048 E0.01269
G1 X22.996 Y109.405 E0.00512
G1 X23.845 Y110.058 E0.01240
G1 X24.859 Y110.319 E0.01212
G1 X50.283 Y108.103 E0.29554
M204 S1000
G1 X50.271 Y107.825 F10800.000
M204 S500
G1 F1200.000
G1 X125.000 Y101.312 E0.86866
G1 X199.729 Y107.825 E0.86866
M204 S1000
G1 F8640.000
G1 X196.450 Y107.539 E-0.76000
G1 E-0.04000 F2100.00000
G1 Z0.700 F10800.000
G1 X202.925 Y108.103
G1 Z0.100
G1 E0.80000 F2100.00000
M204 S500
G1 F1200.000
G1 X225.141 Y110.039 E0.25825
G1 X226.055 Y109.797 E0.01095
G1 X226.817 Y109.198 E0.01122
G1 X227.013 Y108.931 E0.00384
G1 X227.368 Y107.999 E0.01155
G1 X227.345 Y107.069 E0.01077
G1 X227.044 Y106.269 E0.00990
G1 X226.375 Y105.554 E0.01133
G1 X225.519 Y105.172 E0.01086
M204 S1000
M204 S500
G1 X124.891 Y96.420 E1.16971
G1 X24.480 Y105.172 E1.16720
G1 X23.625 Y105.554 E0.01086
G1 X22.956 Y106.269 E0.01133
G1 X22.655 Y107.069 E0.00990
G1 X22.632 Y107.999 E0.01077
G1 X22.987 Y108.931 E0.01155
G1 X23.183 Y109.198 E0.00384
G1 X23.945 Y109.797 E0.01122
G1 X24.859 Y110.039 E0.01095
G1 X47.075 Y108.103 E0.25825
M204 S1000
G1 X47.063 Y107.825 F10800.000
M204 S500
G1 F1200.000
G1 X125.000 Y101.032 E0.90595
G1 X202.937 Y107.825 E0.90595
M204 S1000
G1 F8640.000
G1 X199.658 Y107.539 E-0.76000
G1 E-0.04000 F2100.00000
G1 Z0.700 F10800.000
G1 X206.133 Y108.103
G1 Z0.100
G1 E0.80000 F2100.00000
M204 S500
G1 F1200.000
G1 X225.140 Y109.760 E0.22094
G1 X225.953 Y109.536 E0.00976
G1 X226.628 Y108.993 E0.01003
G1 X226.760 Y108.812 E0.00260
G1 X227.089 Y107.975 E0.01041
G1 X227.075 Y107.141 E0.00966
G1 X226.819 Y106.435 E0.00869
G1 X226.233 Y105.795 E0.01005
G1 X225.471 Y105.447 E0.00970
G1 X124.903 Y96.699 E1.16901
M204 S1000
M204 S500
G1 X24.529 Y105.447 E1.16677
G1 X23.767 Y105.795 E0.00970
G1 X23.181 Y106.435 E0.01005
G1 X22.925 Y107.141 E0.00869
G1 X22.911 Y107.975 E0.00966
G1 X23.240 Y108.812 E0.01041
G1 X23.372 Y108.993 E0.00260
G1 X24.047 Y109.536 E0.01003
G1 X24.860 Y109.760 E0.00976
G1 X43.867 Y108.103 E0.22094
M204 S1000
G1 X43.855 Y107.825 F10800.000
M204 S500
G1 F1200.000
G1 X125.000 Y100.752 E0.94325
M73 Q1 S247
M73 P1 R238
G1 X206.145 Y107.825 E0.94325
M204 S1000
G1 F8640.000
G1 X202.866 Y107.539 E-0.76000
G1 E-0.04000 F2100.00000
G1 Z0.700 F10800.000
G1 X209.341 Y108.103
G1 Z0.100
G1 E0.80000 F2100.00000
M204 S500
G1 F1200.000
G1 X225.138 Y109.480 E0.18363
G1 X225.847 Y109.277 E0.00854
G1 X226.436 Y108.790 E0.00885
G1 X226.509 Y108.691 E0.00143
G1 X226.810 Y107.949 E0.00927
G1 X226.804 Y107.209 E0.00856
G1 X226.592 Y106.599 E0.00748
G1 X226.088 Y106.035 E0.00876
G1 X225.422 Y105.722 E0.00852
M204 S1000
M204 S500
G1 X124.915 Y96.978 E1.16830
G1 X24.578 Y105.722 E1.16634
G1 X23.912 Y106.035 E0.00852
G1 X23.408 Y106.599 E0.00876
G1 X23.196 Y107.209 E0.00748
G1 X23.190 Y107.949 E0.00856
G1 X23.491 Y108.691 E0.00927
G1 X23.564 Y108.790 E0.00143
G1 X24.153 Y109.277 E0.00885
G1 X24.862 Y109.480 E0.00854
G1 X40.659 Y108.103 E0.18363
M204 S1000
G1 X40.647 Y107.825 F10800.000
M204 S500
G1 F1200.000
G1 X125.000 Y100.473 E0.98054
G1 X209.353 Y107.825 E0.98054
M204 S1000
G1 F8640.000
G1 X206.074 Y107.539 E-0.76000
G1 E-0.04000 F2100.00000
G1 Z0.700 F10800.000
G1 X212.549 Y108.103
G1 Z0.100
G1 E0.80000 F2100.00000
M204 S500
G1 F1200.000
G1 X225.135 Y109.200 E0.14631
G1 X225.737 Y109.020 E0.00729
G1 X226.259 Y108.567 E0.00800
G1 X226.532 Y107.919 E0.00814
G1 X226.532 Y107.273 E0.00748
G1 X226.363 Y106.759 E0.00628
G1 X225.940 Y106.272 E0.00746
G1 X225.371 Y105.998 E0.00731
G1 X124.927 Y97.256 E1.16757
M204 S1000
M204 S500
G1 X24.629 Y105.998 E1.16590
G1 X24.060 Y106.272 E0.00731
G1 X23.637 Y106.759 E0.00746
G1 X23.468 Y107.273 E0.00628
G1 X23.468 Y107.919 E0.00748
G1 X23.741 Y108.567 E0.00814
G1 X24.263 Y109.020 E0.00800
G1 X24.865 Y109.200 E0.00729
G1 X37.451 Y108.103 E0.14631
M204 S1000
G1 X37.439 Y107.825 F10800.000
M204 S500
G1 F1200.000
G1 X125.000 Y100.193 E1.01783
G1 X212.561 Y107.825 E1.01783
M204 S1000
G1 F8640.000
G1 X209.282 Y107.539 E-0.76000
G1 E-0.04000 F2100.00000
G1 Z0.700 F10800.000
G1 X215.757 Y108.103
G1 Z0.100
G1 E0.80000 F2100.00000
M204 S500
G1 F1200.000
G1 X225.130 Y108.920 E0.10896
G1 X225.624 Y108.764 E0.00599
G1 X226.024 Y108.412 E0.00617
G1 X226.253 Y107.889 E0.00661
G1 X226.253 Y107.295 E0.00688
G1 X226.131 Y106.916 E0.00461
G1 X225.788 Y106.507 E0.00618
G1 X225.320 Y106.273 E0.00606
M204 S1000
M204 S500
G1 X124.939 Y97.535 E1.16684
G1 X24.680 Y106.273 E1.16544
G1 X24.212 Y106.507 E0.00606
G1 X23.869 Y106.916 E0.00618
G1 X23.747 Y107.295 E0.00461
G1 X23.747 Y107.889 E0.00688
G1 X23.976 Y108.412 E0.00661
G1 X24.376 Y108.764 E0.00617
G1 X24.870 Y108.920 E0.00599
G1 X34.243 Y108.103 E0.10896
M204 S1000
G1 X34.231 Y107.825 F10800.000
M204 S500
G1 F1200.000
G1 X125.000 Y99.914 E1.05512
M73 Q2 S246
M73 P2 R237
G1 X215.769 Y107.825 E1.05512
M204 S1000
G1 F8640.000
G1 X212.490 Y107.539 E-0.76000
G1 E-0.04000 F2100.00000
G1 Z0.700 F10800.000
G1 X218.965 Y108.103
G1 Z0.100
G1 E0.80000 F2100.00000
M204 S500
G1 F1200.000
G1 X225.124 Y108.640 E0.07160
G1 X225.504 Y108.511 E0.00465
G1 X225.813 Y108.228 E0.00486
G1 X225.975 Y107.860 E0.00465
G1 X225.975 Y107.315 E0.00632
G1 X225.900 Y107.073 E0.00293
G1 X225.593 Y106.709 E0.00551
G1 X225.270 Y106.548 E0.00418
G1 X124.952 Y97.813 E1.16612
M204 S1000
M204 S500
G1 X24.730 Y106.548 E1.16500
G1 X24.407 Y106.709 E0.00418
G1 X24.100 Y107.073 E0.00551
G1 X24.025 Y107.315 E0.00293
G1 X24.025 Y107.860 E0.00632
G1 X24.187 Y108.228 E0.00465
G1 X24.496 Y108.511 E0.00486
G1 X24.876 Y108.640 E0.00465
G1 X31.035 Y108.103 E0.07160
M204 S1000
G1 X31.023 Y107.825 F10800.000
M204 S500
G1 F1200.000
G1 X125.000 Y99.634 E1.09241
G1 X218.977 Y107.825 E1.09241
M204 S1000
G1 F8640.000
G1 X215.698 Y107.539 E-0.76000
G1 E-0.04000 F2100.00000
G1 Z0.700 F10800.000
G1 X222.173 Y108.103
G1 Z0.100
G1 E0.80000 F2100.00000
M204 S500
G1 F1200.000
G1 X225.120 Y108.360 E0.03426
G1 X225.337 Y108.286 E0.00266
G1 X225.604 Y108.042 E0.00419
G1 X225.696 Y107.831 E0.00266
G1 X225.696 Y107.339 E0.00570
G1 X225.646 Y107.191 E0.00182
G1 X225.403 Y106.914 E0.00427
G1 X225.220 Y106.823 E0.00237
M204 S1000
M204 S500
G1 X124.964 Y98.092 E1.16540
G1 X24.780 Y106.823 E1.16456
G1 X24.597 Y106.914 E0.00237
G1 X24.354 Y107.191 E0.00427
G1 X24.304 Y107.339 E0.00182
G1 X24.304 Y107.831 E0.00570
G1 X24.396 Y108.042 E0.00266
G1 X24.663 Y108.286 E0.00419
G1 X24.880 Y108.360 E0.00266
G1 X27.827 Y108.103 E0.03426
M204 S1000
G1 X27.815 Y107.825 F10800.000
M204 S500
G1 F1200.000
G1 X125.000 Y99.354 E1.12970
G1 X222.185 Y107.825 E1.12970
M204 S1000
G1 F8640.000
G1 X218.906 Y107.539 E-0.76000
G1 E-0.04000 F2100.00000
G1 Z0.700 F10800.000
G1 X225.091 Y108.078
G1 Z0.100
