; generated by PrusaSlicer 2.2.0 on 2020-07-20 at 06:04:06 UTC

; 

; external perimeters extrusion width = 0.25mm
; perimeters extrusion width = 0.25mm
; infill extrusion width = 0.25mm
; solid infill extrusion width = 0.25mm
; top infill extrusion width = 0.25mm
; first layer extrusion width = 0.30mm

M73 P0 R414
M73 Q0 S420
M201 X1000 Y1000 Z200 E5000 ; sets maximum accelerations, mm/sec^2
M203 X200 Y200 Z12 E120 ; sets maximum feedrates, mm/sec
M204 P1250 R1250 T1250 ; sets acceleration (P, T) and retract acceleration (R), mm/sec^2
M205 X8.00 Y8.00 Z0.40 E4.50 ; sets the jerk limits, mm/sec
M205 S0 T0 ; sets the minimum extruding and travel feed rate, mm/sec
M107
M862.3 P "MK3S" ; printer model check
M862.1 P0.25 ; nozzle diameter check
M115 U3.9.0 ; tell printer latest fw version
G90 ; use absolute coordinates
M83 ; extruder relative mode
M104 S215 ; set extruder temp
M140 S60 ; set bed temp
M190 S60 ; wait for bed temp
M109 S215 ; wait for extruder temp
G28 W ; home all without mesh bed level
G80 ; mesh bed leveling
G1 Y-3.0 F1000.0 ; go outside print area
G92 E0.0
G1 X60.0 E9.0 F1000.0 ; intro line
M73 Q0 S420
M73 P0 R414
G1 X100.0 E12.5 F1000.0 ; intro line
G92 E0.0
M221 S95
G21 ; set units to millimeters
G90 ; use absolute coordinates
M83 ; use relative distances for extrusion
M900 K0.06 ; Filament gcode LA 1.5
M900 K30 ; Filament gcode LA 1.0
;BEFORE_LAYER_CHANGE
G92 E0.0
;0.1


G1 E-0.80000 F2100.00000
G1 Z0.600 F10800.000
;AFTER_LAYER_CHANGE
;0.1
G1 X22.769 Y106.956
G1 Z0.100
G1 E0.80000 F2100.00000
M204 S500
G1 F1200.000
G1 X23.133 Y106.112 E0.01064
G1 X23.448 Y105.750 E0.00556
G1 X23.836 Y105.460 E0.00560
G1 X24.272 Y105.260 E0.00556
G1 X24.744 Y105.154 E0.00560
G1 X125.003 Y96.424 E1.16543
G1 X225.257 Y105.155 E1.16537
G1 X225.729 Y105.260 E0.00560
G1 X226.166 Y105.461 E0.00556
G1 X226.550 Y105.749 E0.00556
G1 X226.868 Y106.113 E0.00560
G1 X227.231 Y106.957 E0.01064
G1 X227.264 Y108.025 E0.01237
G1 X227.027 Y108.809 E0.00949
G1 X226.527 Y109.459 E0.00949
G1 X225.830 Y109.890 E0.00949
G1 X225.021 Y110.046 E0.00953
G1 X25.000 Y110.046 E2.31632
G1 X24.187 Y109.896 E0.00958
G1 X23.481 Y109.466 E0.00958
G1 X22.976 Y108.815 E0.00953
G1 X22.736 Y108.024 E0.00958
G1 X22.768 Y106.993 E0.01194
M204 S1000
G1 F8640.000
G1 X23.133 Y106.112 E-0.22016
G1 X23.448 Y105.750 E-0.11087
G1 X23.836 Y105.460 E-0.11173
G1 X24.272 Y105.260 E-0.11087
G1 X24.744 Y105.154 E-0.11173
G1 X25.152 Y105.119 E-0.09463
G1 E-0.04000 F2100.00000
G1 Z0.700 F10800.000
G1 X49.919 Y110.186
G1 Z0.100
G1 E0.80000 F2100.00000
M204 S500
G1 F1200.000
G1 X24.869 Y112.369 E0.29119
G1 X23.197 Y112.000 E0.01983
G1 X21.722 Y110.981 E0.02076
G1 X20.944 Y109.926 E0.01518
G1 X20.402 Y108.260 E0.02029
G1 X20.474 Y106.550 E0.01982
G1 X21.133 Y104.896 E0.02062
G1 X22.422 Y103.591 E0.02125
G1 X24.104 Y102.883 E0.02113
G1 X124.794 Y94.108 E1.17045
G1 X225.896 Y102.883 E1.17520
M204 S1000
M204 S500
G1 X227.578 Y103.591 E0.02113
G1 X228.867 Y104.896 E0.02125
G1 X229.526 Y106.550 E0.02062
G1 X229.598 Y108.260 E0.01982
G1 X229.056 Y109.926 E0.02029
G1 X228.278 Y110.981 E0.01518
G1 X226.803 Y112.000 E0.02076
G1 X225.131 Y112.369 E0.01983
G1 X200.080 Y110.185 E0.29120
M204 S1000
G1 F8640.000
G1 X203.359 Y110.471 E-0.76000
G1 E-0.04000 F2100.00000
G1 Z0.700 F10800.000
G1 X196.884 Y109.907
G1 Z0.100
G1 E0.80000 F2100.00000
M204 S500
G1 F1200.000
G1 X125.000 Y103.642 E0.83560
G1 X53.115 Y109.907 E0.83561
M204 S1000
G1 F8640.000
G1 X56.394 Y109.621 E-0.76000
G1 E-0.04000 F2100.00000
G1 Z0.700 F10800.000
G1 X49.907 Y109.907
G1 Z0.100
G1 E0.80000 F2100.00000
M204 S500
G1 F1200.000
G1 X125.000 Y103.362 E0.87290
G1 X200.092 Y109.907 E0.87289
M204 S1000
G1 F8640.000
G1 X196.813 Y109.621 E-0.76000
G1 E-0.04000 F2100.00000
G1 Z0.700 F10800.000
G1 X203.288 Y110.185
G1 Z0.100
G1 E0.80000 F2100.00000
M204 S500
G1 F1200.000
G1 X225.134 Y112.089 E0.25394
G1 X226.715 Y111.735 E0.01877
G1 X228.099 Y110.766 E0.01956
G1 X228.799 Y109.817 E0.01365
G1 X229.319 Y108.245 E0.01918
G1 X229.258 Y106.629 E0.01872
G1 X228.648 Y105.070 E0.01939
G1 X227.443 Y103.836 E0.01997
G1 X225.849 Y103.159 E0.02005
G1 X124.806 Y94.386 E1.17452
M73 Q0 S419
M73 P0 R413
M204 S1000
M204 S500
G1 X24.150 Y103.159 E1.17005
G1 X22.557 Y103.836 E0.02004
G1 X21.352 Y105.070 E0.01997
G1 X20.742 Y106.629 E0.01939
G1 X20.681 Y108.245 E0.01872
G1 X21.201 Y109.817 E0.01918
G1 X21.901 Y110.766 E0.01365
G1 X23.285 Y111.735 E0.01956
G1 X24.866 Y112.089 E0.01877
G1 X46.711 Y110.186 E0.25393
M204 S1000
G1 X46.699 Y109.907 F10800.000
M204 S500
G1 F1200.000
G1 X125.000 Y103.083 E0.91019
G1 X203.300 Y109.907 E0.91018
M204 S1000
G1 F8640.000
G1 X200.021 Y109.621 E-0.76000
G1 E-0.04000 F2100.00000
G1 Z0.700 F10800.000
G1 X206.496 Y110.185
G1 Z0.100
G1 E0.80000 F2100.00000
M204 S500
G1 F1200.000
G1 X225.136 Y111.810 E0.21667
G1 X226.626 Y111.469 E0.01770
G1 X227.920 Y110.552 E0.01837
G1 X228.542 Y109.708 E0.01215
G1 X229.040 Y108.228 E0.01808
G1 X228.990 Y106.707 E0.01763
G1 X228.427 Y105.243 E0.01816
G1 X227.307 Y104.081 E0.01869
G1 X225.803 Y103.434 E0.01895
M204 S1000
M204 S500
G1 X124.818 Y94.665 E1.17384
G1 X24.197 Y103.434 E1.16965
G1 X22.693 Y104.081 E0.01895
G1 X21.573 Y105.243 E0.01869
G1 X21.010 Y106.707 E0.01816
G1 X20.960 Y108.228 E0.01763
G1 X21.458 Y109.708 E0.01808
G1 X22.080 Y110.552 E0.01215
G1 X23.374 Y111.469 E0.01837
G1 X24.864 Y111.810 E0.01770
G1 X43.503 Y110.186 E0.21666
M204 S1000
G1 X43.491 Y109.907 F10800.000
M204 S500
G1 F1200.000
G1 X125.000 Y102.803 E0.94748
G1 X206.508 Y109.907 E0.94747
M204 S1000
G1 F8640.000
G1 X203.229 Y109.621 E-0.76000
G1 E-0.04000 F2100.00000
G1 Z0.700 F10800.000
G1 X209.704 Y110.185
G1 Z0.100
G1 E0.80000 F2100.00000
M204 S500
G1 F1200.000
G1 X225.138 Y111.531 E0.17940
G1 X226.535 Y111.205 E0.01661
G1 X227.739 Y110.339 E0.01717
G1 X228.286 Y109.597 E0.01067
G1 X228.761 Y108.210 E0.01697
G1 X228.721 Y106.782 E0.01655
G1 X228.207 Y105.415 E0.01691
G1 X227.126 Y104.294 E0.01803
G1 X225.757 Y103.710 E0.01723
G1 X124.830 Y94.943 E1.17317
M204 S1000
M204 S500
G1 X24.243 Y103.710 E1.16925
G1 X22.874 Y104.294 E0.01723
G1 X21.793 Y105.415 E0.01803
G1 X21.279 Y106.782 E0.01691
G1 X21.239 Y108.210 E0.01655
G1 X21.714 Y109.597 E0.01697
G1 X22.261 Y110.339 E0.01067
G1 X23.465 Y111.205 E0.01717
G1 X24.862 Y111.531 E0.01661
G1 X40.295 Y110.186 E0.17939
M204 S1000
G1 X40.283 Y109.907 F10800.000
M204 S500
G1 F1200.000
G1 X125.000 Y102.523 E0.98477
G1 X209.716 Y109.907 E0.98476
M204 S1000
G1 F8640.000
G1 X206.437 Y109.621 E-0.76000
G1 E-0.04000 F2100.00000
G1 Z0.700 F10800.000
G1 X212.912 Y110.185
G1 Z0.100
G1 E0.80000 F2100.00000
M204 S500
G1 F1200.000
G1 X225.139 Y111.251 E0.14213
G1 X226.443 Y110.941 E0.01552
G1 X227.558 Y110.127 E0.01598
G1 X228.030 Y109.485 E0.00923
G1 X228.482 Y108.191 E0.01588
G1 X228.451 Y106.856 E0.01547
G1 X227.984 Y105.585 E0.01567
G1 X226.989 Y104.538 E0.01674
M73 Q0 S418
M73 P0 R412
G1 X225.710 Y103.985 E0.01613
M204 S1000
M204 S500
G1 X124.842 Y95.222 E1.17248
G1 X24.290 Y103.986 E1.16885
G1 X23.011 Y104.538 E0.01613
G1 X22.016 Y105.585 E0.01673
G1 X21.549 Y106.856 E0.01567
G1 X21.518 Y108.191 E0.01547
G1 X21.970 Y109.485 E0.01588
G1 X22.442 Y110.127 E0.00923
G1 X23.557 Y110.941 E0.01598
G1 X24.861 Y111.251 E0.01552
G1 X37.087 Y110.186 E0.14212
M204 S1000
G1 X37.075 Y109.907 F10800.000
M204 S500
G1 F1200.000
G1 X125.000 Y102.244 E1.02207
G1 X212.924 Y109.907 E1.02205
M204 S1000
G1 F8640.000
G1 X209.645 Y109.621 E-0.76000
G1 E-0.04000 F2100.00000
G1 Z0.700 F10800.000
G1 X216.120 Y110.185
G1 Z0.100
G1 E0.80000 F2100.00000
M204 S500
G1 F1200.000
G1 X225.141 Y110.972 E0.10486
G1 X226.349 Y110.677 E0.01440
G1 X227.375 Y109.916 E0.01479
G1 X227.774 Y109.372 E0.00782
G1 X228.203 Y108.170 E0.01478
G1 X228.181 Y106.927 E0.01439
G1 X227.761 Y105.754 E0.01443
G1 X226.850 Y104.781 E0.01543
G1 X225.663 Y104.261 E0.01501
G1 X124.855 Y95.500 E1.17180
M204 S1000
M204 S500
G1 X24.337 Y104.261 E1.16844
G1 X23.150 Y104.781 E0.01501
G1 X22.239 Y105.754 E0.01543
G1 X21.819 Y106.927 E0.01443
G1 X21.797 Y108.170 E0.01439
G1 X22.226 Y109.372 E0.01478
G1 X22.625 Y109.916 E0.00782
G1 X23.651 Y110.677 E0.01479
G1 X24.859 Y110.972 E0.01440
G1 X33.879 Y110.186 E0.10484
M204 S1000
G1 X33.867 Y109.907 F10800.000
M204 S500
G1 F1200.000
G1 X125.000 Y101.964 E1.05936
G1 X216.132 Y109.907 E1.05934
M204 S1000
G1 F8640.000
G1 X212.853 Y109.621 E-0.76000
G1 E-0.04000 F2100.00000
G1 Z0.700 F10800.000
G1 X219.328 Y110.185
G1 Z0.100
G1 E0.80000 F2100.00000
M204 S500
G1 F1200.000
G1 X225.141 Y110.692 E0.06757
G1 X226.253 Y110.414 E0.01327
G1 X227.190 Y109.707 E0.01360
G1 X227.520 Y109.258 E0.00645
G1 X227.925 Y108.147 E0.01369
G1 X227.911 Y106.997 E0.01333
G1 X227.536 Y105.921 E0.01319
G1 X226.710 Y105.024 E0.01412
G1 X225.615 Y104.536 E0.01388
M204 S1000
M204 S500
G1 X124.867 Y95.779 E1.17110
G1 X24.384 Y104.536 E1.16803
G1 X23.290 Y105.024 E0.01387
G1 X22.464 Y105.921 E0.01412
G1 X22.089 Y106.997 E0.01319
G1 X22.075 Y108.147 E0.01333
G1 X22.480 Y109.258 E0.01369
G1 X22.810 Y109.707 E0.00645
G1 X23.747 Y110.414 E0.01360
G1 X24.859 Y110.692 E0.01327
G1 X30.671 Y110.186 E0.06756
M204 S1000
G1 X30.659 Y109.907 F10800.000
M204 S500
G1 F1200.000
G1 X125.000 Y101.685 E1.09665
G1 X219.340 Y109.907 E1.09663
M73 Q0 S417
M73 P0 R411
M204 S1000
G1 F8640.000
G1 X216.061 Y109.621 E-0.76000
G1 E-0.04000 F2100.00000
G1 Z0.700 F10800.000
G1 X222.536 Y110.185
G1 Z0.100
G1 E0.80000 F2100.00000
M204 S500
G1 F1200.000
G1 X225.141 Y110.413 E0.03028
G1 X226.155 Y110.152 E0.01212
G1 X227.004 Y109.498 E0.01240
G1 X227.266 Y109.142 E0.00512
G1 X227.646 Y108.123 E0.01260
G1 X227.639 Y107.063 E0.01227
G1 X227.310 Y106.085 E0.01195
G1 X226.568 Y105.265 E0.01280
G1 X225.567 Y104.812 E0.01272
G1 X124.879 Y96.057 E1.17041
M204 S1000
M204 S500
G1 X24.433 Y104.812 E1.16761
G1 X23.432 Y105.265 E0.01272
G1 X22.690 Y106.085 E0.01280
G1 X22.361 Y107.063 E0.01195
G1 X22.354 Y108.123 E0.01227
G1 X22.734 Y109.142 E0.01260
G1 X22.996 Y109.498 E0.00512
G1 X23.845 Y110.152 E0.01240
G1 X24.859 Y110.413 E0.01212
G1 X27.463 Y110.186 E0.03027
M204 S1000
G1 X27.451 Y109.907 F10800.000
M204 S500
G1 F1200.000
G1 X125.000 Y101.405 E1.13394
G1 X222.548 Y109.907 E1.13392
M204 S1000
G1 F8640.000
G1 X219.269 Y109.621 E-0.76000
G1 E-0.04000 F2100.00000
G1 Z0.700 F10800.000
G1 X227.095 Y106.288
G1 Z0.100
G1 E0.80000 F2100.00000
M204 S500
G1 F1200.000
G1 X227.073 Y106.237 E0.00064
M204 S1000
G1 F8640.000
G1 X227.095 Y106.288 E-0.01277
G1 E-0.78723 F2100.00000
G1 Z0.700 F10800.000
G1 X22.927 Y106.237
G1 Z0.100
G1 E0.80000 F2100.00000
M204 S500
G1 F1200.000
G1 X22.905 Y106.290 E0.00066
M204 S1000
G1 X23.166 Y106.388 F10800.000
M204 S500
G1 F1200.000
G1 X23.765 Y105.712 E0.01047
G1 X24.529 Y105.363 E0.00973
G1 X124.903 Y96.614 E1.16677
M204 S1000
M204 S500
G1 X225.471 Y105.363 E1.16901
G1 X226.235 Y105.712 E0.00973
G1 X226.835 Y106.389 E0.01047
M204 S1000
G1 X226.880 Y106.495 F10800.000
M204 S500
G1 F1200.000
G1 X227.089 Y107.149 E0.00795
G1 X227.089 Y108.069 E0.01066
G1 X226.760 Y108.906 E0.01040
G1 X226.628 Y109.087 E0.00260
G1 X225.953 Y109.630 E0.01003
G1 X225.140 Y109.853 E0.00976
G1 X125.000 Y101.125 E1.16405
G1 X24.860 Y109.853 E1.16405
G1 X24.047 Y109.630 E0.00976
G1 X23.372 Y109.087 E0.01003
G1 X23.240 Y108.906 E0.00260
G1 X22.911 Y108.069 E0.01040
G1 X22.911 Y107.149 E0.01066
G1 X23.119 Y106.495 E0.00794
M204 S1000
G1 F8640.000
G1 X22.911 Y107.149 E-0.15830
G1 X22.911 Y108.069 E-0.21261
G1 X23.240 Y108.906 E-0.20746
G1 X23.372 Y109.087 E-0.05189
G1 X23.810 Y109.439 E-0.12974
G1 E-0.04000 F2100.00000
G1 Z0.700 F10800.000
G1 X23.564 Y108.884
G1 Z0.100
G1 E0.80000 F2100.00000
M204 S500
G1 F1200.000
G1 X23.491 Y108.784 E0.00143
G1 X23.189 Y108.042 E0.00928
G1 X23.189 Y107.169 E0.01010
G1 X23.377 Y106.569 E0.00728
G1 X23.911 Y105.951 E0.00946
G1 X24.578 Y105.638 E0.00853
G1 X124.915 Y96.893 E1.16634
G1 X225.422 Y105.638 E1.16830
G1 X226.089 Y105.951 E0.00854
G1 X226.623 Y106.569 E0.00946
G1 X226.811 Y107.169 E0.00728
G1 X226.811 Y108.042 E0.01010
G1 X226.509 Y108.784 E0.00928
G1 X226.436 Y108.884 E0.00143
G1 X225.847 Y109.371 E0.00885
G1 X225.138 Y109.573 E0.00854
G1 X125.000 Y100.846 E1.16403
M73 Q0 S416
M73 P1 R410
G1 X24.862 Y109.573 E1.16403
G1 X24.153 Y109.371 E0.00854
G1 X23.593 Y108.908 E0.00842
M204 S1000
G1 X23.757 Y108.683 F10800.000
M204 S500
G1 F1200.000
G1 X23.468 Y108.013 E0.00845
G1 X23.468 Y107.189 E0.00954
G1 X23.609 Y106.725 E0.00562
G1 X24.060 Y106.188 E0.00813
G1 X24.629 Y105.913 E0.00731
G1 X124.927 Y97.172 E1.16590
G1 X225.371 Y105.913 E1.16757
G1 X225.940 Y106.188 E0.00731
G1 X226.391 Y106.725 E0.00813
G1 X226.532 Y107.189 E0.00562
G1 X226.532 Y108.013 E0.00954
G1 X226.259 Y108.660 E0.00814
G1 X225.737 Y109.113 E0.00800
G1 X225.135 Y109.294 E0.00729
G1 X125.000 Y100.566 E1.16399
G1 X24.865 Y109.294 E1.16399
G1 X24.263 Y109.113 E0.00729
G1 X23.786 Y108.707 E0.00725
M204 S1000
G1 X23.976 Y108.505 F10800.000
M204 S500
G1 F1200.000
G1 X23.747 Y107.983 E0.00661
G1 X23.747 Y107.208 E0.00897
G1 X23.843 Y106.877 E0.00399
G1 X24.213 Y106.422 E0.00679
G1 X24.680 Y106.188 E0.00605
G1 X124.939 Y97.450 E1.16544
G1 X225.320 Y106.188 E1.16684
G1 X225.787 Y106.422 E0.00605
G1 X226.157 Y106.877 E0.00679
G1 X226.253 Y107.208 E0.00399
G1 X226.253 Y107.983 E0.00897
G1 X226.024 Y108.505 E0.00661
G1 X225.624 Y108.857 E0.00617
G1 X225.130 Y109.014 E0.00599
G1 X125.000 Y100.287 E1.16394
G1 X24.870 Y109.014 E1.16394
G1 X24.376 Y108.857 E0.00599
G1 X24.005 Y108.530 E0.00573
M204 S1000
G1 X24.192 Y108.326 F10800.000
M204 S500
G1 F1200.000
G1 X24.025 Y107.954 E0.00472
G1 X24.025 Y107.230 E0.00838
G1 X24.100 Y106.988 E0.00293
G1 X24.407 Y106.624 E0.00551
G1 X24.730 Y106.464 E0.00418
G1 X124.952 Y97.729 E1.16500
G1 X225.270 Y106.464 E1.16612
G1 X225.593 Y106.624 E0.00418
G1 X225.900 Y106.988 E0.00551
G1 X225.975 Y107.230 E0.00293
G1 X225.975 Y107.954 E0.00838
G1 X225.813 Y108.321 E0.00465
G1 X225.504 Y108.604 E0.00486
G1 X225.124 Y108.733 E0.00465
G1 X125.000 Y100.007 E1.16387
M73 Q1 S415
M73 P1 R409
G1 X24.876 Y108.733 E1.16387
G1 X24.496 Y108.604 E0.00465
G1 X24.220 Y108.351 E0.00434
M204 S1000
G1 X24.396 Y108.135 F10800.000
M204 S500
G1 F1200.000
G1 X24.304 Y107.925 E0.00266
G1 X24.304 Y107.255 E0.00776
G1 X24.354 Y107.106 E0.00182
G1 X24.597 Y106.829 E0.00427
G1 X24.780 Y106.739 E0.00237
G1 X124.964 Y98.007 E1.16456
G1 X225.220 Y106.739 E1.16540
G1 X225.403 Y106.829 E0.00237
G1 X225.646 Y107.106 E0.00427
G1 X225.696 Y107.255 E0.00182
G1 X225.696 Y107.925 E0.00776
G1 X225.604 Y108.135 E0.00266
G1 X225.337 Y108.380 E0.00419
G1 X225.120 Y108.453 E0.00266
G1 X125.000 Y99.727 E1.16381
G1 X24.880 Y108.453 E1.16381
G1 X24.663 Y108.380 E0.00266
G1 X24.424 Y108.161 E0.00375
M204 S1000
G1 X24.830 Y108.155 F10800.000
M204 S500
G1 F1200.000
G1 X24.606 Y107.949 E0.00352
G1 X24.582 Y107.896 E0.00068
G1 X24.582 Y107.284 E0.00708
G1 X24.601 Y107.235 E0.00061
G1 X24.783 Y107.037 E0.00311
G1 X24.830 Y107.014 E0.00061
G1 X124.976 Y98.286 E1.16412
G1 X225.170 Y107.014 E1.16468
G1 X225.217 Y107.037 E0.00061
G1 X225.399 Y107.235 E0.00311
G1 X225.418 Y107.284 E0.00061
G1 X225.418 Y107.896 E0.00708
G1 X225.394 Y107.949 E0.00068
G1 X225.170 Y108.155 E0.00352
G1 X225.115 Y108.173 E0.00068
G1 X125.000 Y99.448 E1.16376
G1 X24.865 Y108.167 E1.16398
M204 S1000
G1 X24.951 Y107.888 F10800.000
M204 S500
G1 F1200.000
G1 X24.861 Y107.805 E0.00142
G1 X24.861 Y107.364 E0.00511
G1 X24.934 Y107.285 E0.00125
G1 X124.988 Y98.564 E1.16305
G1 X225.066 Y107.285 E1.16333
G1 X225.139 Y107.364 E0.00125
G1 X225.139 Y107.805 E0.00511
G1 X225.049 Y107.888 E0.00142
G1 X125.000 Y99.168 E1.16299
M73 Q1 S414
M73 P1 R408
G1 X24.988 Y107.885 E1.16256
M204 S1000
G1 X25.150 Y107.580 F10800.000
M204 S500
G1 F1200.000
G1 X25.150 Y107.556 E0.00028
G1 X125.000 Y98.854 E1.16068
G1 X224.850 Y107.556 E1.16068
G1 X224.850 Y107.580 E0.00028
G1 X125.000 Y98.878 E1.16068
G1 X25.187 Y107.577 E1.16025
M204 S1000
M106 S255
;BEFORE_LAYER_CHANGE
G92 E0.0
;0.2


G1 F8640.000
G1 X25.150 Y107.556 E-0.00990
G1 X28.386 Y107.274 E-0.75010
G1 E-0.04000 F2100.00000
G1 Z0.700 F10800.000
;AFTER_LAYER_CHANGE
;0.2
