; generated by PrusaSlicer 2.2.0 on 2020-07-30 at 04:55:49 UTC

; 

; external perimeters extrusion width = 0.25mm
; perimeters extrusion width = 0.25mm
; infill extrusion width = 0.25mm
; solid infill extrusion width = 0.25mm
; top infill extrusion width = 0.25mm
; support material extrusion width = 0.20mm
; first layer extrusion width = 0.30mm

M73 P0 R446
M73 Q0 S454
M201 X1000 Y1000 Z200 E5000 ; sets maximum accelerations, mm/sec^2
M203 X200 Y200 Z12 E120 ; sets maximum feedrates, mm/sec
M204 P1250 R1250 T1250 ; sets acceleration (P, T) and retract acceleration (R), mm/sec^2
M205 X8.00 Y8.00 Z0.40 E4.50 ; sets the jerk limits, mm/sec
M205 S0 T0 ; sets the minimum extruding and travel feed rate, mm/sec
M107
M862.3 P "MK3S" ; printer model check
M862.1 P0.25 ; nozzle diameter check
M115 U3.9.0 ; tell printer latest fw version
G90 ; use absolute coordinates
M83 ; extruder relative mode
M104 S215 ; set extruder temp
M140 S60 ; set bed temp
M190 S60 ; wait for bed temp
M109 S215 ; wait for extruder temp
G28 W ; home all without mesh bed level
G80 ; mesh bed leveling
G1 Y-3.0 F1000.0 ; go outside print area
G92 E0.0
G1 X60.0 E9.0 F1000.0 ; intro line
M73 Q0 S454
M73 P0 R446
G1 X100.0 E12.5 F1000.0 ; intro line
G92 E0.0
M221 S95
G21 ; set units to millimeters
G90 ; use absolute coordinates
M83 ; use relative distances for extrusion
M900 K0.06 ; Filament gcode LA 1.5
M900 K30 ; Filament gcode LA 1.0
;BEFORE_LAYER_CHANGE
G92 E0.0
;0.1


G1 E-0.80000 F2100.00000
G1 Z0.600 F10800.000
;AFTER_LAYER_CHANGE
;0.1
G1 X21.114 Y95.087
G1 Z0.100
G1 E0.80000 F2100.00000
M204 S500
G1 F1200.000
G1 X21.837 Y94.934 E0.00856
G1 X228.061 Y95.057 E2.38815
G1 X228.905 Y95.220 E0.00996
G1 X229.629 Y95.684 E0.00996
G1 X230.130 Y96.384 E0.00996
G1 X230.335 Y97.223 E0.01000
G1 X230.303 Y104.940 E0.08937
G1 X230.100 Y105.554 E0.00749
G1 X229.732 Y106.087 E0.00749
G1 X229.230 Y106.494 E0.00749
G1 X228.634 Y106.745 E0.00749
G1 X223.267 Y107.861 E0.06348
G1 X156.300 Y113.762 E0.77851
G1 X124.950 Y114.646 E0.36318
G1 X93.611 Y113.759 E0.36306
G1 X26.307 Y107.854 E0.78241
G1 X21.366 Y106.619 E0.05897
G1 X20.917 Y106.450 E0.00556
G1 X20.419 Y106.110 E0.00698
G1 X20.030 Y105.656 E0.00693
G1 X19.771 Y105.112 E0.00698
G1 X19.664 Y104.519 E0.00698
G1 X19.662 Y97.196 E0.08480
G1 X19.718 Y96.708 E0.00569
G1 X19.996 Y96.023 E0.00856
G1 X20.478 Y95.463 E0.00856
G1 X21.082 Y95.106 E0.00812
M204 S1000
G1 F8640.000
G1 X21.837 Y94.934 E-0.17883
G1 X24.354 Y94.936 E-0.58117
G1 E-0.04000 F2100.00000
G1 Z0.700 F10800.000
G1 X23.316 Y92.612
G1 Z0.100
G1 E0.80000 F2100.00000
M204 S500
G1 F1200.000
G1 X38.862 Y92.600 E0.18002
G1 X40.718 Y93.207 E0.02262
G1 X41.445 Y93.784 E0.01075
G1 X51.372 Y93.779 E0.11496
G1 X53.080 Y94.300 E0.02067
G1 X53.690 Y94.663 E0.00822
G1 X53.852 Y94.814 E0.00257
M204 S1000
G1 F8640.000
G1 X53.690 Y94.663 E-0.05119
G1 X53.080 Y94.300 E-0.16397
G1 X51.372 Y93.779 E-0.41224
G1 X50.798 Y93.779 E-0.13259
G1 E-0.04000 F2100.00000
G1 Z0.700 F10800.000
G1 X65.208 Y95.099
G1 Z0.100
G1 E0.80000 F2100.00000
M204 S500
G1 F1200.000
G1 X66.450 Y95.479 E0.01504
G1 X67.060 Y95.841 E0.00822
G1 X67.375 Y96.136 E0.00500
G1 X77.755 Y96.136 E0.12020
G1 X79.610 Y96.742 E0.02260
G1 X80.341 Y97.324 E0.01081
G1 X91.481 Y97.315 E0.12901
G1 X93.189 Y97.836 E0.02068
G1 X93.800 Y98.198 E0.00822
G1 X94.119 Y98.497 E0.00507
G1 X106.430 Y98.573 E0.14257
G1 X107.966 Y99.170 E0.01908
G1 X108.602 Y99.696 E0.00956
G1 X111.157 Y99.811 E0.02962
G1 X112.623 Y100.470 E0.01861
G1 X113.258 Y101.006 E0.00962
G1 X114.024 Y101.944 E0.01403
G1 X114.680 Y103.869 E0.02355
G1 X114.671 Y106.086 E0.02567
G1 X114.861 Y106.150 E0.00233
G1 X114.959 Y106.020 E0.00189
G1 X116.017 Y105.092 E0.01630
G1 X117.087 Y104.601 E0.01363
G1 X118.111 Y104.439 E0.01201
G1 X121.675 Y104.688 E0.04137
G1 X121.972 Y104.508 E0.00402
G1 X122.660 Y104.202 E0.00872
G1 X123.571 Y103.928 E0.01102
G1 X124.417 Y103.799 E0.00991
G1 X125.293 Y103.778 E0.01015
G1 X126.011 Y103.851 E0.00836
G1 X126.731 Y104.003 E0.00852
G1 X127.503 Y104.266 E0.00944
G1 X128.346 Y104.686 E0.01091
G1 X131.890 Y104.439 E0.04114
G1 X132.939 Y104.608 E0.01230
G1 X133.977 Y105.089 E0.01325
G1 X135.327 Y106.286 E0.02089
G1 X135.320 Y103.708 E0.02985
G1 X135.924 Y101.930 E0.02175
G1 X136.987 Y100.707 E0.01876
G1 X137.866 Y100.147 E0.01207
G1 X139.013 Y99.752 E0.01405
G1 X141.348 Y99.697 E0.02705
G1 X141.952 Y99.190 E0.00914
G1 X143.610 Y98.553 E0.02056
G1 X155.532 Y98.496 E0.13806
G1 X156.243 Y97.922 E0.01058
G1 X158.102 Y97.315 E0.02265
G1 X169.812 Y97.315 E0.13560
G1 X170.127 Y97.020 E0.00500
G1 X170.738 Y96.657 E0.00822
G1 X172.445 Y96.136 E0.02068
G1 X182.628 Y96.142 E0.11792
G1 X183.365 Y95.558 E0.01089
G1 X184.588 Y95.171 E0.01485
M204 S1000
G1 F8640.000
G1 X183.365 Y95.558 E-0.29615
G1 X182.628 Y96.142 E-0.21710
G1 X181.559 Y96.141 E-0.24675
G1 E-0.04000 F2100.00000
G1 Z0.700 F10800.000
G1 X195.621 Y94.899
G1 Z0.100
G1 E0.80000 F2100.00000
M204 S500
G1 F1200.000
G1 X195.873 Y94.663 E0.00400
G1 X196.484 Y94.300 E0.00822
G1 X198.190 Y93.779 E0.02066
G1 X208.807 Y93.779 E0.12295
G1 X209.123 Y93.484 E0.00500
G1 X209.733 Y93.121 E0.00822
G1 X211.441 Y92.601 E0.02067
G1 X228.586 Y92.610 E0.19855
G1 X230.187 Y93.104 E0.01941
G1 X231.092 Y93.699 E0.01254
G1 X232.158 Y94.936 E0.01891
G1 X232.719 Y96.416 E0.01833
G1 X232.721 Y105.465 E0.10479
G1 X231.933 Y107.255 E0.02265
G1 X230.443 Y108.579 E0.02308
G1 X228.823 Y109.117 E0.01977
G1 X226.128 Y109.139 E0.03121
G1 X225.491 Y109.662 E0.00954
G1 X223.905 Y110.261 E0.01964
G1 X212.340 Y110.317 E0.13393
G1 X211.607 Y110.901 E0.01085
G1 X209.752 Y111.507 E0.02260
G1 X199.402 Y111.507 E0.11985
G1 X199.087 Y111.802 E0.00500
G1 X198.476 Y112.164 E0.00822
G1 X196.770 Y112.685 E0.02066
G1 X186.033 Y112.685 E0.12434
G1 X185.718 Y112.980 E0.00500
G1 X185.108 Y113.343 E0.00822
G1 X183.401 Y113.864 E0.02066
G1 X172.248 Y113.864 E0.12915
G1 X171.540 Y114.435 E0.01053
G1 X169.681 Y115.042 E0.02265
G1 X159.293 Y115.042 E0.12030
G1 X158.978 Y115.337 E0.00500
G1 X158.368 Y115.700 E0.00822
G1 X156.661 Y116.221 E0.02067
G1 X139.393 Y116.191 E0.19997
G1 X137.879 Y115.715 E0.01838
G1 X136.597 Y114.743 E0.01862
G1 X136.397 Y114.462 E0.00399
M204 S1000
G1 X136.203 Y114.189 F10800.000
M204 S500
G1 F1200.000
G1 X135.847 Y113.689 E0.00710
G1 X135.395 Y112.478 E0.01497
G1 X135.369 Y111.645 E0.00965
G1 X134.456 Y112.687 E0.01605
G1 X133.197 Y113.399 E0.01674
G1 X130.657 Y113.724 E0.02965
G1 X130.320 Y114.265 E0.00737
G1 X130.242 Y114.357 E0.00141
M204 S1000
G1 X129.999 Y114.643 F10800.000
M204 S500
G1 F1200.000
G1 X129.703 Y114.992 E0.00530
G1 X128.948 Y115.650 E0.01160
G1 X128.035 Y116.223 E0.01248
G1 X127.188 Y116.590 E0.01069
G1 X126.416 Y116.810 E0.00929
G1 X125.702 Y116.926 E0.00838
G1 X124.989 Y116.964 E0.00827
G1 X124.050 Y116.894 E0.01091
G1 X123.077 Y116.676 E0.01155
G1 X122.008 Y116.246 E0.01333
G1 X121.257 Y115.798 E0.01013
G1 X120.523 Y115.210 E0.01090
G1 X120.002 Y114.645 E0.00890
M204 S1000
G1 X119.758 Y114.360 F10800.000
M204 S500
G1 F1200.000
G1 X119.329 Y113.722 E0.00890
G1 X116.845 Y113.414 E0.02899
G1 X115.581 Y112.716 E0.01672
G1 X114.618 Y111.635 E0.01677
G1 X114.592 Y112.685 E0.01217
G1 X114.012 Y114.061 E0.01729
G1 X113.898 Y114.194 E0.00203
M204 S1000
G1 X113.663 Y114.466 F10800.000
M204 S500
G1 F1200.000
G1 X113.117 Y115.097 E0.00966
G1 X112.299 Y115.653 E0.01145
G1 X110.705 Y116.193 E0.01949
G1 X94.044 Y116.208 E0.19294
G1 X93.353 Y116.227 E0.00800
G1 X91.439 Y115.620 E0.02326
G1 X90.702 Y115.037 E0.01089
G1 X80.527 Y115.042 E0.11782
G1 X78.820 Y114.521 E0.02068
G1 X78.209 Y114.159 E0.00822
G1 X77.894 Y113.864 E0.00500
G1 X66.176 Y113.864 E0.13569
G1 X64.317 Y113.256 E0.02265
G1 X63.609 Y112.685 E0.01054
G1 X53.740 Y112.678 E0.11428
G1 X52.090 Y112.170 E0.01999
G1 X51.514 Y111.835 E0.00772
G1 X51.159 Y111.507 E0.00560
G1 X40.416 Y111.507 E0.12441
G1 X38.710 Y110.986 E0.02066
G1 X38.099 Y110.623 E0.00822
G1 X37.780 Y110.324 E0.00507
G1 X25.660 Y110.248 E0.14035
G1 X24.125 Y109.651 E0.01908
G1 X23.495 Y109.130 E0.00946
G1 X21.128 Y109.086 E0.02741
G1 X20.517 Y108.932 E0.00731
G1 X18.947 Y108.107 E0.02053
G1 X17.925 Y106.950 E0.01788
G1 X17.318 Y105.542 E0.01776
G1 X17.216 Y104.786 E0.00883
G1 X17.223 Y96.688 E0.09379
G1 X17.521 Y95.470 E0.01451
G1 X18.200 Y94.321 E0.01546
G1 X19.074 Y93.486 E0.01400
G1 X20.053 Y92.931 E0.01303
G1 X21.123 Y92.652 E0.01280
G1 X21.937 Y92.628 E0.00943
G1 X22.240 Y92.599 E0.00352
G1 X23.316 Y92.612 E0.01246
M204 S1000
G1 F8640.000
G1 X22.240 Y92.599 E-0.24851
G1 X21.937 Y92.628 E-0.07018
G1 X21.123 Y92.652 E-0.18811
G1 X20.062 Y92.929 E-0.25320
G1 E-0.04000 F2100.00000
G1 Z0.700 F10800.000
G1 X22.244 Y92.878
G1 Z0.100
G1 E0.80000 F2100.00000
M204 S500
G1 F1200.000
G1 X23.314 Y92.890 E0.01239
G1 X38.839 Y92.879 E0.17978
G1 X40.606 Y93.463 E0.02155
G1 X41.345 Y94.063 E0.01103
G1 X51.351 Y94.058 E0.11587
G1 X52.981 Y94.561 E0.01975
G1 X53.401 Y94.814 E0.00568
M204 S1000
G1 X53.742 Y95.093 F10800.000
M204 S500
G1 F1200.000
G1 X53.893 Y95.236 E0.00241
G1 X64.722 Y95.236 E0.12540
G1 X66.351 Y95.739 E0.01974
G1 X66.903 Y96.071 E0.00746
G1 X67.263 Y96.415 E0.00576
G1 X77.733 Y96.415 E0.12124
G1 X79.498 Y96.998 E0.02153
G1 X80.241 Y97.602 E0.01109
G1 X91.460 Y97.593 E0.12992
G1 X93.090 Y98.097 E0.01976
G1 X93.642 Y98.428 E0.00746
G1 X94.006 Y98.775 E0.00582
G1 X106.402 Y98.851 E0.14355
G1 X107.842 Y99.420 E0.01792
G1 X108.495 Y99.971 E0.00989
G1 X111.068 Y100.076 E0.02982
G1 X112.490 Y100.716 E0.01806
G1 X113.068 Y101.209 E0.00880
G1 X113.768 Y102.059 E0.01275
G1 X114.409 Y103.936 E0.02298
G1 X114.383 Y107.103 E0.03667
G1 X114.609 Y107.148 E0.00266
G1 X114.714 Y106.891 E0.00322
G1 X115.160 Y106.214 E0.00939
G1 X116.185 Y105.314 E0.01579
G1 X117.150 Y104.873 E0.01229
G1 X118.108 Y104.718 E0.01123
G1 X121.745 Y104.972 E0.04222
G1 X122.094 Y104.759 E0.00474
G1 X122.765 Y104.460 E0.00851
G1 X123.642 Y104.198 E0.01060
G1 X124.450 Y104.076 E0.00947
G1 X125.291 Y104.057 E0.00974
G1 X125.975 Y104.127 E0.00797
G1 X126.649 Y104.270 E0.00798
G1 X127.391 Y104.521 E0.00907
G1 X128.072 Y104.848 E0.00875
G1 X128.267 Y104.971 E0.00267
G1 X131.893 Y104.718 E0.04210
G1 X132.875 Y104.880 E0.01152
G1 X133.808 Y105.311 E0.01190
G1 X134.882 Y106.264 E0.01663
G1 X135.306 Y106.929 E0.00914
G1 X135.386 Y107.124 E0.00244
G1 X135.611 Y107.079 E0.00266
G1 X135.591 Y103.776 E0.03825
G1 X136.179 Y102.046 E0.02115
G1 X137.182 Y100.906 E0.01759
G1 X137.972 Y100.405 E0.01083
G1 X139.083 Y100.022 E0.01361
G1 X141.454 Y99.974 E0.02746
G1 X142.076 Y99.440 E0.00949
G1 X143.637 Y98.832 E0.01940
G1 X155.634 Y98.774 E0.13892
G1 X156.356 Y98.178 E0.01084
G1 X158.125 Y97.593 E0.02157
G1 X169.924 Y97.593 E0.13664
G1 X170.285 Y97.250 E0.00576
G1 X170.836 Y96.918 E0.00746
G1 X172.466 Y96.415 E0.01975
G1 X182.727 Y96.420 E0.11882
M73 Q0 S453
G1 X183.476 Y95.815 E0.01115
G1 X185.297 Y95.230 E0.02215
M73 P0 R445
G1 X185.958 Y95.249 E0.00766
G1 X195.669 Y95.237 E0.11246
G1 X195.732 Y95.177 E0.00100
M204 S1000
G1 X196.024 Y94.899 F10800.000
M204 S500
G1 F1200.000
G1 X196.583 Y94.561 E0.00756
G1 X198.211 Y94.058 E0.01974
G1 X208.920 Y94.058 E0.12400
G1 X209.280 Y93.714 E0.00576
G1 X209.832 Y93.382 E0.00746
G1 X211.462 Y92.879 E0.01975
G1 X228.564 Y92.888 E0.19805
G1 X230.085 Y93.364 E0.01846
G1 X230.895 Y93.896 E0.01122
G1 X231.906 Y95.058 E0.01784
G1 X232.449 Y96.491 E0.01774
G1 X232.443 Y105.435 E0.10357
G1 X231.691 Y107.113 E0.02130
G1 X230.327 Y108.324 E0.02112
G1 X228.799 Y108.839 E0.01868
G1 X226.025 Y108.861 E0.03212
G1 X225.369 Y109.411 E0.00991
G1 X223.878 Y109.983 E0.01849
G1 X212.239 Y110.039 E0.13478
G1 X211.494 Y110.644 E0.01112
G1 X209.729 Y111.228 E0.02153
G1 X199.290 Y111.228 E0.12089
G1 X198.929 Y111.572 E0.00577
G1 X198.377 Y111.903 E0.00746
G1 X196.749 Y112.407 E0.01974
G1 X185.921 Y112.407 E0.12539
G1 X185.561 Y112.750 E0.00576
G1 X185.009 Y113.082 E0.00746
G1 X183.380 Y113.585 E0.01974
G1 X172.148 Y113.585 E0.13007
G1 X171.427 Y114.179 E0.01081
G1 X169.659 Y114.764 E0.02157
G1 X159.181 Y114.764 E0.12133
G1 X158.821 Y115.107 E0.00576
G1 X158.269 Y115.439 E0.00746
G1 X156.640 Y115.942 E0.01975
G1 X139.455 Y115.919 E0.19901
G1 X138.026 Y115.478 E0.01732
G1 X136.811 Y114.563 E0.01761
G1 X136.732 Y114.453 E0.00158
M204 S1000
G1 X136.536 Y114.180 F10800.000
M204 S500
G1 F1200.000
G1 X136.102 Y113.574 E0.00863
G1 X135.665 Y112.404 E0.01447
G1 X135.644 Y110.976 E0.01653
G1 X135.428 Y110.929 E0.00256
G1 X135.199 Y111.411 E0.00617
G1 X134.297 Y112.457 E0.01599
G1 X133.084 Y113.143 E0.01614
G1 X130.490 Y113.464 E0.03026
G1 X130.101 Y114.093 E0.00856
G1 X129.868 Y114.368 E0.00417
M204 S1000
G1 X129.627 Y114.653 F10800.000
M204 S500
G1 F1200.000
G1 X129.512 Y114.789 E0.00206
G1 X128.790 Y115.421 E0.01111
G1 X127.915 Y115.972 E0.01198
G1 X127.086 Y116.330 E0.01046
G1 X126.364 Y116.536 E0.00870
G1 X125.680 Y116.648 E0.00802
G1 X124.983 Y116.686 E0.00808
G1 X124.081 Y116.617 E0.01048
G1 X123.170 Y116.413 E0.01081
G1 X122.122 Y115.992 E0.01308
G1 X121.408 Y115.564 E0.00964
G1 X120.720 Y115.013 E0.01021
G1 X120.391 Y114.656 E0.00563
M204 S1000
G1 X120.127 Y114.370 F10800.000
M204 S500
G1 F1200.000
G1 X120.023 Y114.258 E0.00176
G1 X119.490 Y113.460 E0.01112
G1 X116.956 Y113.156 E0.02955
G1 X115.737 Y112.484 E0.01612
G1 X114.811 Y111.428 E0.01626
G1 X114.558 Y110.898 E0.00681
G1 X114.342 Y110.945 E0.00256
G1 X114.324 Y112.603 E0.01920
G1 X113.764 Y113.932 E0.01670
G1 X113.545 Y114.184 E0.00387
M204 S1000
G1 X113.307 Y114.456 F10800.000
M204 S500
G1 F1200.000
G1 X112.919 Y114.900 E0.00684
G1 X112.192 Y115.395 E0.01018
G1 X110.638 Y115.922 E0.01900
G1 X94.040 Y115.930 E0.19220
G1 X93.369 Y115.948 E0.00777
G1 X91.549 Y115.363 E0.02214
G1 X90.801 Y114.758 E0.01115
G1 X80.548 Y114.764 E0.11873
G1 X78.918 Y114.261 E0.01975
G1 X78.366 Y113.929 E0.00746
G1 X78.006 Y113.585 E0.00577
G1 X66.199 Y113.585 E0.13673
G1 X64.430 Y113.000 E0.02157
G1 X63.709 Y112.406 E0.01081
G1 X53.761 Y112.400 E0.11520
G1 X52.217 Y111.921 E0.01873
G1 X51.668 Y111.603 E0.00734
G1 X51.270 Y111.228 E0.00633
G1 X40.437 Y111.228 E0.12545
G1 X38.809 Y110.725 E0.01974
G1 X38.257 Y110.393 E0.00746
G1 X37.893 Y110.046 E0.00582
G1 X25.688 Y109.970 E0.14134
G1 X24.249 Y109.401 E0.01792
G1 X23.600 Y108.854 E0.00983
G1 X21.150 Y108.808 E0.02837
G1 X20.602 Y108.666 E0.00656
G1 X19.138 Y107.903 E0.01912
G1 X18.172 Y106.818 E0.01682
G1 X17.591 Y105.485 E0.01684
G1 X17.494 Y104.777 E0.00827
G1 X17.498 Y96.736 E0.09311
G1 X17.771 Y95.594 E0.01360
G1 X18.430 Y94.479 E0.01500
G1 X19.227 Y93.719 E0.01276
G1 X20.142 Y93.196 E0.01220
G1 X21.177 Y92.926 E0.01239
G1 X21.954 Y92.906 E0.00900
G1 X22.244 Y92.878 E0.00337
M204 S1000
G1 F8640.000
G1 X21.954 Y92.906 E-0.06729
G1 X21.177 Y92.926 E-0.17943
G1 X20.142 Y93.196 E-0.24709
G1 X19.227 Y93.719 E-0.24327
G1 X19.156 Y93.787 E-0.02292
G1 E-0.04000 F2100.00000
G1 Z0.700 F10800.000
G1 X23.313 Y93.169
G1 Z0.100
G1 E0.80000 F2100.00000
M204 S500
G1 F1200.000
G1 X22.249 Y93.156 E0.01232
G1 X21.971 Y93.184 E0.00324
G1 X21.230 Y93.200 E0.00858
G1 X20.264 Y93.447 E0.01155
G1 X19.380 Y93.952 E0.01179
G1 X18.660 Y94.638 E0.01151
G1 X18.022 Y95.717 E0.01452
G1 X17.773 Y96.784 E0.01269
G1 X17.773 Y104.767 E0.09245
G1 X17.864 Y105.427 E0.00772
G1 X18.417 Y106.685 E0.01592
G1 X19.328 Y107.698 E0.01577
G1 X20.688 Y108.401 E0.01774
G1 X21.173 Y108.530 E0.00581
G1 X23.706 Y108.577 E0.02934
G1 X24.375 Y109.152 E0.01021
G1 X25.717 Y109.692 E0.01675
G1 X38.007 Y109.768 E0.14233
G1 X38.414 Y110.163 E0.00657
G1 X38.938 Y110.478 E0.00707
G1 X40.459 Y110.950 E0.01844
G1 X51.383 Y110.950 E0.12651
G1 X51.823 Y111.370 E0.00705
G1 X52.343 Y111.672 E0.00697
G1 X53.783 Y112.121 E0.01746
G1 X63.812 Y112.128 E0.11614
G1 X64.544 Y112.745 E0.01109
G1 X66.222 Y113.307 E0.02048
G1 X78.119 Y113.307 E0.13778
G1 X78.524 Y113.698 E0.00652
G1 X79.048 Y114.013 E0.00708
G1 X80.569 Y114.485 E0.01845
G1 X90.902 Y114.479 E0.11965
G1 X91.662 Y115.107 E0.01141
G1 X93.386 Y115.669 E0.02100
G1 X94.037 Y115.651 E0.00754
G1 X110.571 Y115.651 E0.19147
G1 X112.052 Y115.154 E0.01810
G1 X112.721 Y114.703 E0.00934
G1 X112.946 Y114.445 E0.00396
M204 S1000
