; generated by PrusaSlicer 2.2.0 on 2020-07-28 at 05:31:56 UTC

; 

; external perimeters extrusion width = 0.25mm
; perimeters extrusion width = 0.25mm
; infill extrusion width = 0.25mm
; solid infill extrusion width = 0.25mm
; top infill extrusion width = 0.25mm
; support material extrusion width = 0.20mm
; first layer extrusion width = 0.30mm

M73 P0 R451
M73 Q0 S457
M201 X1000 Y1000 Z200 E5000 ; sets maximum accelerations, mm/sec^2
M203 X200 Y200 Z12 E120 ; sets maximum feedrates, mm/sec
M204 P1250 R1250 T1250 ; sets acceleration (P, T) and retract acceleration (R), mm/sec^2
M205 X8.00 Y8.00 Z0.40 E4.50 ; sets the jerk limits, mm/sec
M205 S0 T0 ; sets the minimum extruding and travel feed rate, mm/sec
M107
M862.3 P "MK3S" ; printer model check
M862.1 P0.25 ; nozzle diameter check
M115 U3.9.0 ; tell printer latest fw version
G90 ; use absolute coordinates
M83 ; extruder relative mode
M104 S215 ; set extruder temp
M140 S60 ; set bed temp
M190 S60 ; wait for bed temp
M109 S215 ; wait for extruder temp
G28 W ; home all without mesh bed level
G80 ; mesh bed leveling
G1 Y-3.0 F1000.0 ; go outside print area
G92 E0.0
G1 X60.0 E9.0 F1000.0 ; intro line
M73 Q0 S457
M73 P0 R451
G1 X100.0 E12.5 F1000.0 ; intro line
G92 E0.0
M221 S95
G21 ; set units to millimeters
G90 ; use absolute coordinates
M83 ; use relative distances for extrusion
M900 K0.06 ; Filament gcode LA 1.5
M900 K30 ; Filament gcode LA 1.0
;BEFORE_LAYER_CHANGE
G92 E0.0
;0.1


G1 E-0.80000 F2100.00000
G1 Z0.600 F10800.000
;AFTER_LAYER_CHANGE
;0.1
G1 X23.599 Y105.263
G1 Z0.100
G1 E0.80000 F2100.00000
M204 S500
G1 F1200.000
G1 X24.447 Y104.849 E0.01093
G1 X65.602 Y97.316 E0.48451
G1 X85.279 Y95.070 E0.22935
G1 X120.894 Y91.531 E0.41446
G1 X129.132 Y91.522 E0.09540
G1 X164.237 Y95.070 E0.40859
G1 X184.431 Y97.446 E0.23547
G1 X225.549 Y104.848 E0.48382
G1 X225.997 Y105.011 E0.00552
G1 X226.404 Y105.265 E0.00556
G1 X226.747 Y105.597 E0.00552
G1 X227.015 Y105.995 E0.00556
G1 X227.264 Y106.807 E0.00983
G1 X227.247 Y108.065 E0.01457
G1 X226.982 Y108.809 E0.00915
G1 X226.479 Y109.419 E0.00915
G1 X225.798 Y109.820 E0.00915
G1 X225.021 Y109.965 E0.00915
G1 X25.000 Y109.965 E2.31632
G1 X24.208 Y109.822 E0.00932
G1 X23.517 Y109.416 E0.00928
G1 X23.010 Y108.796 E0.00928
G1 X22.748 Y108.034 E0.00932
G1 X22.737 Y106.792 E0.01439
G1 X22.989 Y105.989 E0.00975
G1 X23.574 Y105.292 E0.01054
M204 S1000
G1 F8640.000
G1 X24.447 Y104.849 E-0.22593
G1 X26.722 Y104.433 E-0.53407
G1 E-0.04000 F2100.00000
G1 Z0.700 F10800.000
G1 X41.368 Y101.610
G1 Z0.100
G1 E0.80000 F2100.00000
M204 S500
G1 F1200.000
G1 X35.437 Y101.605 E0.06868
G1 X32.065 Y101.828 E0.03914
G1 X23.810 Y102.603 E0.09601
G1 X22.142 Y103.437 E0.02160
G1 X20.949 Y104.842 E0.02135
G1 X20.445 Y106.317 E0.01805
G1 X20.444 Y108.425 E0.02441
G1 X20.684 Y109.249 E0.00993
G1 X21.570 Y110.734 E0.02003
G1 X22.987 Y111.800 E0.02053
G1 X24.871 Y112.265 E0.02247
G1 X42.843 Y110.643 E0.20897
G1 X44.045 Y110.104 E0.01526
M204 S1000
G1 X44.381 Y109.825 F10800.000
M204 S500
G1 F1200.000
G1 X45.150 Y109.104 E0.01221
G1 X45.599 Y108.370 E0.00997
G1 X46.067 Y106.675 E0.02036
G1 X45.923 Y104.900 E0.02063
G1 X45.205 Y103.358 E0.01969
G1 X43.892 Y102.174 E0.02048
G1 X42.491 Y101.688 E0.01717
M204 S1000
G1 F8640.000
G1 X43.892 Y102.174 E-0.34239
G1 X45.205 Y103.358 E-0.40835
G1 X45.222 Y103.394 E-0.00926
G1 E-0.04000 F2100.00000
G1 Z0.700 F10800.000
G1 X41.393 Y101.889
G1 Z0.100
G1 E0.80000 F2100.00000
M204 S500
G1 F1200.000
G1 X42.245 Y101.890 E0.00986
G1 X43.772 Y102.427 E0.01875
G1 X44.996 Y103.544 E0.01919
G1 X45.659 Y104.992 E0.01845
G1 X45.788 Y106.671 E0.01950
G1 X45.336 Y108.276 E0.01930
G1 X44.945 Y108.915 E0.00868
G1 X43.984 Y109.825 E0.01533
M204 S1000
G1 X43.364 Y110.104 F10800.000
M204 S500
G1 F1200.000
G1 X42.750 Y110.379 E0.00779
G1 X24.869 Y111.985 E0.20790
G1 X23.130 Y111.559 E0.02073
G1 X21.794 Y110.567 E0.01927
G1 X20.945 Y109.152 E0.01911
G1 X20.723 Y108.405 E0.00903
G1 X20.723 Y106.341 E0.02390
G1 X21.203 Y104.959 E0.01694
G1 X22.335 Y103.640 E0.02012
G1 X23.910 Y102.864 E0.02034
G1 X32.088 Y102.106 E0.09512
G1 X35.451 Y101.884 E0.03903
M204 S1000
M204 S500
G1 X39.854 Y101.887 E0.05099
M204 S1000
G1 X39.880 Y102.166 F10800.000
M204 S500
G1 F1200.000
G1 X42.220 Y102.168 E0.02710
M204 S1000
M204 S500
G1 X43.651 Y102.679 E0.01760
G1 X44.786 Y103.729 E0.01791
G1 X45.384 Y105.038 E0.01666
G1 X45.508 Y106.667 E0.01892
G1 X45.074 Y108.181 E0.01823
G1 X44.740 Y108.725 E0.00740
G1 X43.809 Y109.608 E0.01486
G1 X43.315 Y109.825 E0.00624
M204 S1000
G1 X42.684 Y110.104 F10800.000
M204 S500
G1 F1200.000
G1 X24.867 Y111.706 E0.20716
G1 X23.272 Y111.318 E0.01900
G1 X22.018 Y110.399 E0.01801
G1 X21.207 Y109.054 E0.01819
G1 X21.002 Y108.383 E0.00812
G1 X21.002 Y106.365 E0.02337
G1 X21.457 Y105.077 E0.01582
G1 X22.526 Y103.845 E0.01889
G1 X24.008 Y103.126 E0.01908
G1 X32.112 Y102.383 E0.09424
G1 X35.465 Y102.162 E0.03891
G1 X38.341 Y102.164 E0.03330
M204 S1000
G1 X38.367 Y102.443 F10800.000
M204 S500
G1 F1200.000
G1 X42.195 Y102.447 E0.04434
G1 X43.529 Y102.931 E0.01643
G1 X44.575 Y103.913 E0.01662
G1 X45.108 Y105.084 E0.01489
G1 X45.228 Y106.663 E0.01834
G1 X44.812 Y108.084 E0.01715
G1 X44.534 Y108.537 E0.00615
G1 X43.674 Y109.363 E0.01381
G1 X42.625 Y109.825 E0.01327
M204 S1000
G1 F8640.000
G1 X43.674 Y109.363 E-0.26458
G1 X44.534 Y108.537 E-0.27544
G1 X44.812 Y108.084 E-0.12270
G1 X44.931 Y107.680 E-0.09727
G1 E-0.04000 F2100.00000
G1 Z0.700 F10800.000
G1 X39.724 Y110.104
G1 Z0.100
G1 E0.80000 F2100.00000
M204 S500
G1 F1200.000
G1 X24.865 Y111.426 E0.17276
G1 X23.414 Y111.077 E0.01727
G1 X22.205 Y110.191 E0.01736
G1 X21.467 Y108.954 E0.01668
G1 X21.280 Y108.361 E0.00720
G1 X21.280 Y106.390 E0.02284
G1 X21.709 Y105.197 E0.01468
G1 X22.716 Y104.050 E0.01767
G1 X24.105 Y103.388 E0.01783
G1 X32.135 Y102.661 E0.09337
G1 X35.479 Y102.440 E0.03880
M204 S1000
M204 S500
G1 X36.828 Y102.441 E0.01563
M204 S1000
G1 X36.855 Y102.720 F10800.000
M204 S500
G1 F1200.000
G1 X42.170 Y102.725 E0.06155
M204 S1000
M204 S500
G1 X43.405 Y103.182 E0.01524
G1 X44.363 Y104.096 E0.01534
G1 X44.832 Y105.129 E0.01314
G1 X44.949 Y106.658 E0.01776
G1 X44.551 Y107.986 E0.01606
G1 X44.328 Y108.348 E0.00492
G1 X43.499 Y109.144 E0.01331
G1 X42.478 Y109.586 E0.01288
G1 X39.779 Y109.825 E0.03138
M204 S1000
G1 F8640.000
G1 X42.478 Y109.586 E-0.62560
G1 X43.012 Y109.355 E-0.13440
G1 E-0.04000 F2100.00000
G1 Z0.700 F10800.000
G1 X36.635 Y110.104
G1 Z0.100
G1 E0.80000 F2100.00000
M204 S500
G1 F1200.000
G1 X24.863 Y111.147 E0.13686
G1 X23.509 Y110.814 E0.01615
G1 X22.395 Y109.985 E0.01608
G1 X21.716 Y108.828 E0.01554
G1 X21.553 Y108.300 E0.00640
G1 X21.559 Y106.415 E0.02182
G1 X21.961 Y105.318 E0.01353
G1 X22.904 Y104.257 E0.01644
G1 X24.201 Y103.651 E0.01658
G1 X32.159 Y102.938 E0.09252
G1 X35.216 Y102.737 E0.03548
M204 S1000
G1 X35.250 Y103.013 F10800.000
M204 S500
G1 F1200.000
G1 X35.506 Y102.996 E0.00297
M204 S1000
M204 S500
G1 X42.144 Y103.004 E0.07687
G1 X43.279 Y103.432 E0.01404
G1 X44.150 Y104.277 E0.01406
G1 X44.556 Y105.174 E0.01141
G1 X44.669 Y106.653 E0.01717
G1 X44.290 Y107.887 E0.01496
G1 X44.121 Y108.161 E0.00372
G1 X43.365 Y108.899 E0.01224
G1 X42.388 Y109.322 E0.01232
G1 X36.677 Y109.825 E0.06639
M204 S1000
G1 F8640.000
G1 X39.956 Y109.536 E-0.76000
G1 E-0.04000 F2100.00000
G1 Z0.700 F10800.000
G1 X33.519 Y110.104
G1 Z0.100
G1 E0.80000 F2100.00000
M204 S500
G1 F1200.000
G1 X24.861 Y110.868 E0.10065
G1 X23.652 Y110.573 E0.01441
G1 X22.584 Y109.779 E0.01541
G1 X21.966 Y108.704 E0.01437
G1 X21.825 Y108.240 E0.00561
G1 X21.837 Y106.443 E0.02082
G1 X22.212 Y105.441 E0.01238
G1 X23.091 Y104.465 E0.01521
G1 X24.295 Y103.914 E0.01533
G1 X32.181 Y103.216 E0.09169
G1 X32.830 Y103.173 E0.00753
M204 S1000
G1 X32.865 Y103.450 F10800.000
M204 S500
G1 F1200.000
G1 X35.520 Y103.275 E0.03081
G1 X42.118 Y103.282 E0.07641
M204 S1000
M204 S500
G1 X43.152 Y103.681 E0.01283
G1 X43.909 Y104.417 E0.01223
G1 X44.280 Y105.221 E0.01026
G1 X44.389 Y106.647 E0.01656
G1 X44.030 Y107.787 E0.01384
G1 X43.915 Y107.974 E0.00254
G1 X43.189 Y108.681 E0.01173
G1 X42.300 Y109.057 E0.01118
G1 X33.545 Y109.825 E0.10178
M204 S1000
G1 F8640.000
G1 X36.824 Y109.537 E-0.76000
G1 E-0.04000 F2100.00000
G1 Z0.700 F10800.000
G1 X30.373 Y110.104
G1 Z0.100
G1 E0.80000 F2100.00000
M204 S500
G1 F1200.000
G1 X24.861 Y110.588 E0.06408
G1 X23.748 Y110.310 E0.01328
G1 X22.776 Y109.575 E0.01411
G1 X22.216 Y108.582 E0.01320
G1 X22.098 Y108.182 E0.00483
G1 X22.115 Y106.471 E0.01981
G1 X22.463 Y105.567 E0.01122
G1 X23.277 Y104.675 E0.01398
G1 X24.387 Y104.178 E0.01408
G1 X30.050 Y103.682 E0.06583
M204 S1000
G1 X30.087 Y103.958 F10800.000
M204 S500
G1 F1200.000
G1 X32.227 Y103.771 E0.02487
G1 X35.533 Y103.553 E0.03837
M204 S1000
M204 S500
G1 X42.092 Y103.561 E0.07595
G1 X42.980 Y103.902 E0.01101
G1 X43.669 Y104.561 E0.01104
G1 X44.004 Y105.269 E0.00907
G1 X44.109 Y106.640 E0.01593
G1 X43.770 Y107.685 E0.01272
G1 X43.706 Y107.789 E0.00141
G1 X43.054 Y108.436 E0.01065
G1 X42.253 Y108.781 E0.01010
G1 X30.361 Y109.825 E0.13825
M204 S1000
G1 F8640.000
G1 X33.640 Y109.537 E-0.76000
G1 E-0.04000 F2100.00000
G1 Z0.700 F10800.000
G1 X27.189 Y110.104
G1 Z0.100
G1 E0.80000 F2100.00000
M204 S500
G1 F1200.000
G1 X24.860 Y110.308 E0.02707
G1 X23.846 Y110.048 E0.01213
G1 X22.970 Y109.373 E0.01281
G1 X22.468 Y108.462 E0.01204
G1 X22.372 Y108.125 E0.00406
G1 X22.393 Y106.501 E0.01881
G1 X22.711 Y105.694 E0.01005
G1 X23.461 Y104.886 E0.01277
G1 X24.434 Y104.453 E0.01233
G1 X27.124 Y104.218 E0.03127
M204 S1000
G1 X27.161 Y104.494 F10800.000
M204 S500
G1 F1200.000
G1 X32.250 Y104.049 E0.05915
G1 X35.547 Y103.831 E0.03827
G1 X42.066 Y103.839 E0.07549
M204 S1000
M204 S500
G1 X42.810 Y104.124 E0.00922
G1 X43.430 Y104.707 E0.00987
G1 X43.729 Y105.317 E0.00786
G1 X43.829 Y106.633 E0.01528
G1 X43.497 Y107.605 E0.01190
G1 X42.917 Y108.193 E0.00956
G1 X42.205 Y108.506 E0.00900
G1 X27.176 Y109.825 E0.17471
M204 S1000
G1 F8640.000
G1 X30.455 Y109.538 E-0.76000
G1 E-0.04000 F2100.00000
G1 Z0.700 F10800.000
G1 X22.671 Y106.538
G1 Z0.100
G1 E0.80000 F2100.00000
M204 S500
G1 F1200.000
G1 X22.678 Y106.515 E0.00027
M204 S1000
G1 X22.949 Y106.583 F10800.000
M204 S500
G1 F1200.000
G1 X22.920 Y108.019 E0.01664
G1 X22.976 Y108.232 E0.00255
G1 X23.364 Y108.975 E0.00971
G1 X24.048 Y109.526 E0.01018
G1 X24.861 Y109.749 E0.00976
G1 X42.157 Y108.230 E0.20106
G1 X42.777 Y107.951 E0.00787
G1 X43.264 Y107.445 E0.00813
G1 X43.549 Y106.625 E0.01006
G1 X43.453 Y105.367 E0.01461
G1 X43.194 Y104.855 E0.00664
G1 X42.682 Y104.372 E0.00815
G1 X42.039 Y104.118 E0.00801
G1 X35.561 Y104.109 E0.07502
M204 S1000
M204 S500
G1 X32.273 Y104.326 E0.03816
G1 X24.529 Y105.004 E0.09001
G1 X23.785 Y105.339 E0.00945
G1 X23.206 Y105.955 E0.00980
G1 X22.970 Y106.516 E0.00706
M204 S1000
G1 X23.227 Y106.600 F10800.000
M204 S500
G1 F1200.000
G1 X23.451 Y106.089 E0.00647
G1 X23.927 Y105.580 E0.00808
G1 X24.578 Y105.279 E0.00830
G1 X32.295 Y104.604 E0.08971
G1 X35.574 Y104.388 E0.03805
G1 X42.010 Y104.396 E0.07453
G1 X42.551 Y104.619 E0.00677
G1 X42.959 Y105.006 E0.00652
G1 X43.178 Y105.418 E0.00540
G1 X43.269 Y106.617 E0.01393
G1 X43.040 Y107.277 E0.00808
G1 X42.633 Y107.710 E0.00689
G1 X42.107 Y107.955 E0.00672
G1 X24.863 Y109.469 E0.20046
G1 X24.154 Y109.267 E0.00854
G1 X23.564 Y108.780 E0.00885
G1 X23.233 Y108.122 E0.00854
G1 X23.195 Y107.971 E0.00180
G1 X23.226 Y106.638 E0.01544
M204 S1000
G1 F8640.000
G1 X23.451 Y106.089 E-0.13699
G1 X23.927 Y105.580 E-0.16104
G1 X24.578 Y105.279 E-0.16557
G1 X25.857 Y105.167 E-0.29640
G1 E-0.04000 F2100.00000
G1 Z0.700 F10800.000
G1 X23.491 Y108.017
G1 Z0.100
G1 E0.80000 F2100.00000
M204 S500
G1 F1200.000
G1 X23.470 Y107.927 E0.00107
G1 X23.504 Y106.638 E0.01493
G1 X23.694 Y106.226 E0.00525
G1 X24.072 Y105.819 E0.00643
G1 X24.628 Y105.554 E0.00714
G1 X32.318 Y104.882 E0.08939
G1 X35.588 Y104.666 E0.03795
G1 X41.980 Y104.675 E0.07402
G1 X42.416 Y104.864 E0.00550
G1 X42.728 Y105.162 E0.00500
G1 X42.903 Y105.472 E0.00411
G1 X42.990 Y106.610 E0.01322
G1 X42.815 Y107.111 E0.00615
G1 X42.486 Y107.472 E0.00566
G1 X42.057 Y107.680 E0.00552
G1 X24.866 Y109.189 E0.19984
G1 X24.263 Y109.009 E0.00729
G1 X23.768 Y108.588 E0.00752
G1 X23.507 Y108.050 E0.00693
M204 S1000
G1 X23.759 Y107.934 F10800.000
M204 S500
G1 F1200.000
G1 X23.746 Y107.890 E0.00053
G1 X23.782 Y106.678 E0.01405
G1 X23.934 Y106.368 E0.00400
G1 X24.219 Y106.057 E0.00489
G1 X24.679 Y105.830 E0.00594
G1 X32.341 Y105.159 E0.08906
G1 X35.602 Y104.944 E0.03784
M73 Q0 S456
G1 X41.950 Y104.953 E0.07352
M73 P0 R450
G1 X42.241 Y105.081 E0.00368
G1 X42.519 Y105.348 E0.00446
G1 X42.643 Y105.576 E0.00301
G1 X42.710 Y106.599 E0.01187
G1 X42.588 Y106.949 E0.00429
G1 X42.334 Y107.238 E0.00445
G1 X42.005 Y107.405 E0.00428
G1 X24.870 Y108.909 E0.19918
G1 X24.377 Y108.753 E0.00599
G1 X23.976 Y108.400 E0.00619
G1 X23.775 Y107.968 E0.00552
M204 S1000
G1 X24.029 Y107.856 F10800.000
M204 S500
G1 F1200.000
G1 X24.046 Y106.768 E0.01260
G1 X24.154 Y106.540 E0.00292
G1 X24.407 Y106.264 E0.00433
G1 X24.729 Y106.105 E0.00416
G1 X32.364 Y105.437 E0.08874
G1 X35.615 Y105.222 E0.03774
G1 X41.919 Y105.232 E0.07300
G1 X42.064 Y105.298 E0.00185
G1 X42.308 Y105.532 E0.00391
G1 X42.381 Y105.674 E0.00186
G1 X42.431 Y106.586 E0.01057
G1 X42.361 Y106.785 E0.00244
G1 X42.143 Y107.034 E0.00383
G1 X41.954 Y107.130 E0.00245
G1 X24.876 Y108.629 E0.19852
G1 X24.496 Y108.500 E0.00465
G1 X24.187 Y108.217 E0.00486
G1 X24.044 Y107.891 E0.00413
M204 S1000
G1 F8640.000
G1 X24.046 Y106.768 E-0.25920
G1 X24.154 Y106.540 E-0.05831
G1 X24.407 Y106.264 E-0.08642
G1 X24.729 Y106.105 E-0.08301
G1 X25.908 Y106.002 E-0.27306
G1 E-0.04000 F2100.00000
G1 Z0.700 F10800.000
G1 X41.951 Y106.830
G1 Z0.100
G1 E0.80000 F2100.00000
M204 S500
G1 F1200.000
G1 X41.903 Y106.855 E0.00062
G1 X24.881 Y108.349 E0.19788
G1 X24.663 Y108.275 E0.00266
G1 X24.396 Y108.031 E0.00419
G1 X24.304 Y107.821 E0.00266
G1 X24.313 Y106.852 E0.01122
G1 X24.376 Y106.710 E0.00180
G1 X24.595 Y106.471 E0.00375
G1 X24.780 Y106.380 E0.00238
G1 X32.387 Y105.715 E0.08843
G1 X35.629 Y105.501 E0.03763
G1 X41.843 Y105.500 E0.07196
G1 X41.893 Y105.520 E0.00062
G1 X42.094 Y105.712 E0.00321
G1 X42.116 Y105.761 E0.00062
G1 X42.151 Y106.571 E0.00939
G1 X42.134 Y106.622 E0.00062
G1 X41.975 Y106.802 E0.00278
M204 S1000
G1 X41.796 Y106.584 F10800.000
M204 S500
G1 F1200.000
G1 X24.885 Y108.069 E0.19658
G1 X24.830 Y108.051 E0.00068
G1 X24.606 Y107.845 E0.00352
G1 X24.582 Y107.792 E0.00068
G1 X24.582 Y106.925 E0.01003
G1 X24.601 Y106.877 E0.00061
G1 X24.783 Y106.678 E0.00311
G1 X24.830 Y106.655 E0.00061
G1 X32.409 Y105.992 E0.08811
G1 X35.643 Y105.779 E0.03753
G1 X41.761 Y105.779 E0.07084
G1 X41.841 Y105.856 E0.00129
G1 X41.870 Y106.500 E0.00747
G1 X41.821 Y106.556 E0.00086
M204 S1000
G1 X41.583 Y106.323 F10800.000
M204 S500
G1 F1200.000
G1 X24.951 Y107.784 E0.19334
G1 X24.861 Y107.701 E0.00142
G1 X24.861 Y107.006 E0.00805
G1 X24.934 Y106.926 E0.00125
G1 X32.432 Y106.270 E0.08716
G1 X35.657 Y106.057 E0.03742
G1 X41.571 Y106.057 E0.06849
G1 X41.581 Y106.286 E0.00265
M204 S1000
G1 F8640.000
G1 X38.303 Y106.581 E-0.76000
G1 E-0.04000 F2100.00000
G1 Z0.700 F10800.000
G1 X61.486 Y98.211
G1 Z0.100
G1 E0.80000 F2100.00000
M204 S500
G1 F1200.000
G1 X61.286 Y98.650 E0.00558
G1 X61.225 Y106.189 E0.08732
G1 X61.328 Y106.947 E0.00885
G1 X61.886 Y108.277 E0.01671
G1 X62.826 Y109.395 E0.01691
G1 X63.464 Y109.825 E0.00891
M204 S1000
G1 X64.085 Y110.104 F10800.000
M204 S500
G1 F1200.000
G1 X65.197 Y110.510 E0.01371
G1 X71.403 Y110.554 E0.07186
G1 X72.889 Y110.149 E0.01784
G1 X74.722 Y110.150 E0.02123
G1 X75.462 Y110.104 E0.00858
M204 S1000
G1 F8640.000
G1 X74.722 Y110.150 E-0.17114
G1 X72.889 Y110.149 E-0.42338
G1 X72.197 Y110.337 E-0.16549
G1 E-0.04000 F2100.00000
G1 Z0.700 F10800.000
G1 X76.978 Y109.825
G1 Z0.100
G1 E0.80000 F2100.00000
M204 S500
G1 F1200.000
G1 X78.100 Y109.334 E0.01418
G1 X78.950 Y108.548 E0.01341
G1 X79.077 Y108.710 E0.00239
G1 X80.212 Y109.659 E0.01713
G1 X80.701 Y109.825 E0.00598
M204 S1000
G1 X81.521 Y110.104 F10800.000
M204 S500
G1 F1200.000
G1 X82.181 Y110.328 E0.00807
