; generated by PrusaSlicer 2.2.0 on 2020-07-21 at 01:16:48 UTC

; 

; external perimeters extrusion width = 0.25mm
; perimeters extrusion width = 0.25mm
; infill extrusion width = 0.25mm
; solid infill extrusion width = 0.25mm
; top infill extrusion width = 0.25mm
; first layer extrusion width = 0.30mm

M73 P0 R237
M73 Q0 S247
M201 X1000 Y1000 Z200 E5000 ; sets maximum accelerations, mm/sec^2
M203 X200 Y200 Z12 E120 ; sets maximum feedrates, mm/sec
M204 P1250 R1250 T1250 ; sets acceleration (P, T) and retract acceleration (R), mm/sec^2
M205 X8.00 Y8.00 Z0.40 E4.50 ; sets the jerk limits, mm/sec
M205 S0 T0 ; sets the minimum extruding and travel feed rate, mm/sec
M107
M862.3 P "MK3S" ; printer model check
M862.1 P0.25 ; nozzle diameter check
M115 U3.9.0 ; tell printer latest fw version
G90 ; use absolute coordinates
M83 ; extruder relative mode
M104 S215 ; set extruder temp
M140 S60 ; set bed temp
M190 S60 ; wait for bed temp
M109 S215 ; wait for extruder temp
G28 W ; home all without mesh bed level
G80 ; mesh bed leveling
G1 Y-3.0 F1000.0 ; go outside print area
G92 E0.0
G1 X60.0 E9.0 F1000.0 ; intro line
M73 Q0 S247
M73 P0 R237
G1 X100.0 E12.5 F1000.0 ; intro line
G92 E0.0
M221 S95
G21 ; set units to millimeters
G90 ; use absolute coordinates
M83 ; use relative distances for extrusion
M900 K0.06 ; Filament gcode LA 1.5
M900 K30 ; Filament gcode LA 1.0
;BEFORE_LAYER_CHANGE
G92 E0.0
;0.1


G1 E-0.80000 F2100.00000
G1 Z0.600 F10800.000
;AFTER_LAYER_CHANGE
;0.1
G1 X24.745 Y107.348
G1 Z0.100
G1 E0.80000 F2100.00000
M204 S500
G1 F1200.000
G1 X24.975 Y107.183 E0.00327
G1 X125.002 Y98.467 E1.16274
G1 X225.025 Y107.183 E1.16270
G1 X225.255 Y107.348 E0.00327
G1 X225.277 Y107.753 E0.00469
G1 X225.187 Y107.933 E0.00233
G1 X225.000 Y108.005 E0.00233
G1 X25.000 Y108.005 E2.31607
G1 X24.812 Y107.932 E0.00233
G1 X24.723 Y107.752 E0.00233
G1 X24.743 Y107.386 E0.00425
M204 S1000
G1 F8640.000
G1 X24.975 Y107.183 E-0.07093
G1 X27.948 Y106.924 E-0.68907
G1 E-0.04000 F2100.00000
G1 Z0.700 F10800.000
G1 X72.803 Y108.144
G1 Z0.100
G1 E0.80000 F2100.00000
M204 S500
G1 F1200.000
G1 X24.869 Y112.322 E0.55720
G1 X23.197 Y111.953 E0.01983
G1 X21.722 Y110.934 E0.02076
G1 X20.943 Y109.876 E0.01522
G1 X20.399 Y108.184 E0.02059
G1 X20.506 Y106.435 E0.02029
G1 X21.205 Y104.831 E0.02026
G1 X22.496 Y103.585 E0.02078
G1 X24.108 Y102.925 E0.02017
G1 X124.794 Y94.150 E1.17040
G1 X225.892 Y102.925 E1.17515
M204 S1000
M204 S500
G1 X227.504 Y103.584 E0.02017
G1 X228.795 Y104.831 E0.02078
G1 X229.494 Y106.435 E0.02026
G1 X229.601 Y108.184 E0.02029
G1 X229.057 Y109.876 E0.02059
G1 X228.278 Y110.934 E0.01522
G1 X226.803 Y111.953 E0.02076
G1 X225.131 Y112.322 E0.01983
G1 X177.197 Y108.144 E0.55720
M204 S1000
G1 F8640.000
G1 X180.476 Y108.430 E-0.76000
G1 E-0.04000 F2100.00000
G1 Z0.700 F10800.000
G1 X174.001 Y107.866
G1 Z0.100
G1 E0.80000 F2100.00000
M204 S500
G1 F1200.000
G1 X125.000 Y103.595 E0.56960
G1 X75.999 Y107.866 E0.56960
M204 S1000
G1 F8640.000
G1 X79.278 Y107.580 E-0.76000
G1 E-0.04000 F2100.00000
G1 Z0.700 F10800.000
G1 X72.791 Y107.866
G1 Z0.100
G1 E0.80000 F2100.00000
M204 S500
G1 F1200.000
G1 X125.000 Y103.315 E0.60689
G1 X177.209 Y107.866 E0.60689
M204 S1000
G1 F8640.000
G1 X173.930 Y107.580 E-0.76000
G1 E-0.04000 F2100.00000
G1 Z0.700 F10800.000
G1 X180.405 Y108.144
G1 Z0.100
G1 E0.80000 F2100.00000
M204 S500
G1 F1200.000
G1 X225.134 Y112.043 E0.51994
G1 X226.715 Y111.688 E0.01877
G1 X228.099 Y110.719 E0.01956
G1 X228.800 Y109.768 E0.01368
G1 X229.321 Y108.173 E0.01944
G1 X229.229 Y106.522 E0.01915
G1 X228.580 Y105.011 E0.01904
G1 X227.372 Y103.831 E0.01955
G1 X225.846 Y103.201 E0.01912
G1 X124.806 Y94.428 E1.17448
M73 Q0 S246
M73 P0 R236
M204 S1000
M204 S500
G1 X24.153 Y103.201 E1.17001
G1 X22.627 Y103.831 E0.01912
G1 X21.420 Y105.011 E0.01954
G1 X20.771 Y106.522 E0.01904
G1 X20.679 Y108.173 E0.01915
G1 X21.200 Y109.768 E0.01944
G1 X21.901 Y110.719 E0.01368
G1 X23.285 Y111.688 E0.01956
G1 X24.866 Y112.043 E0.01877
G1 X69.595 Y108.144 E0.51994
M204 S1000
G1 X69.583 Y107.866 F10800.000
M204 S500
G1 F1200.000
G1 X125.000 Y103.036 E0.64418
G1 X180.417 Y107.866 E0.64418
M204 S1000
G1 F8640.000
G1 X177.138 Y107.580 E-0.76000
G1 E-0.04000 F2100.00000
G1 Z0.700 F10800.000
G1 X183.613 Y108.144
G1 Z0.100
G1 E0.80000 F2100.00000
M204 S500
G1 F1200.000
G1 X225.136 Y111.763 E0.48267
G1 X226.626 Y111.423 E0.01770
G1 X227.920 Y110.505 E0.01837
G1 X228.543 Y109.659 E0.01217
G1 X229.042 Y108.160 E0.01830
G1 X228.962 Y106.607 E0.01801
G1 X228.364 Y105.189 E0.01782
G1 X227.240 Y104.078 E0.01831
G1 X225.800 Y103.476 E0.01807
M204 S1000
M204 S500
G1 X124.818 Y94.707 E1.17381
G1 X24.199 Y103.476 E1.16962
G1 X22.760 Y104.078 E0.01806
G1 X21.636 Y105.189 E0.01831
G1 X21.038 Y106.607 E0.01782
G1 X20.958 Y108.160 E0.01801
G1 X21.457 Y109.659 E0.01830
G1 X22.080 Y110.505 E0.01217
G1 X23.374 Y111.423 E0.01837
G1 X24.864 Y111.763 E0.01770
G1 X66.387 Y108.144 E0.48267
M204 S1000
G1 X66.375 Y107.866 F10800.000
M204 S500
G1 F1200.000
G1 X125.000 Y102.756 E0.68148
G1 X183.625 Y107.866 E0.68148
M204 S1000
G1 F8640.000
G1 X180.346 Y107.580 E-0.76000
G1 E-0.04000 F2100.00000
G1 Z0.700 F10800.000
G1 X186.821 Y108.144
G1 Z0.100
G1 E0.80000 F2100.00000
M204 S500
G1 F1200.000
G1 X225.138 Y111.484 E0.44540
G1 X226.535 Y111.158 E0.01661
G1 X227.739 Y110.292 E0.01717
G1 X228.286 Y109.549 E0.01069
G1 X228.763 Y108.146 E0.01716
G1 X228.696 Y106.690 E0.01688
G1 X228.147 Y105.366 E0.01660
G1 X227.106 Y104.323 E0.01706
G1 X225.754 Y103.752 E0.01699
G1 X124.830 Y94.986 E1.17313
M204 S1000
M204 S500
G1 X24.245 Y103.752 E1.16922
G1 X22.894 Y104.323 E0.01699
G1 X21.853 Y105.366 E0.01706
G1 X21.304 Y106.690 E0.01660
G1 X21.237 Y108.146 E0.01688
G1 X21.714 Y109.549 E0.01716
G1 X22.261 Y110.292 E0.01069
G1 X23.465 Y111.158 E0.01717
G1 X24.862 Y111.484 E0.01661
G1 X63.179 Y108.144 E0.44540
M204 S1000
G1 X63.167 Y107.866 F10800.000
M204 S500
G1 F1200.000
G1 X125.000 Y102.477 E0.71877
G1 X186.833 Y107.866 E0.71877
M204 S1000
G1 F8640.000
G1 X183.554 Y107.580 E-0.76000
G1 E-0.04000 F2100.00000
G1 Z0.700 F10800.000
G1 X190.029 Y108.144
G1 Z0.100
G1 E0.80000 F2100.00000
M204 S500
G1 F1200.000
G1 X225.139 Y111.204 E0.40813
G1 X226.443 Y110.894 E0.01552
G1 X227.558 Y110.080 E0.01598
G1 X228.030 Y109.438 E0.00924
G1 X228.483 Y108.130 E0.01602
G1 X228.428 Y106.772 E0.01575
G1 X227.929 Y105.541 E0.01538
G1 X226.971 Y104.568 E0.01581
M73 Q0 S245
G1 X225.708 Y104.028 E0.01591
M73 P0 R235
M204 S1000
M204 S500
G1 X124.842 Y95.264 E1.17245
G1 X24.292 Y104.028 E1.16882
G1 X23.029 Y104.568 E0.01591
G1 X22.071 Y105.541 E0.01581
G1 X21.572 Y106.772 E0.01538
G1 X21.517 Y108.130 E0.01575
G1 X21.970 Y109.438 E0.01602
G1 X22.442 Y110.080 E0.00924
G1 X23.557 Y110.894 E0.01598
G1 X24.861 Y111.204 E0.01552
G1 X59.971 Y108.144 E0.40813
M204 S1000
G1 X59.959 Y107.866 F10800.000
M204 S500
G1 F1200.000
G1 X125.000 Y102.197 E0.75606
G1 X190.041 Y107.866 E0.75606
M204 S1000
G1 F8640.000
G1 X186.762 Y107.580 E-0.76000
G1 E-0.04000 F2100.00000
G1 Z0.700 F10800.000
G1 X193.237 Y108.144
G1 Z0.100
G1 E0.80000 F2100.00000
M204 S500
G1 F1200.000
G1 X225.141 Y110.925 E0.37085
G1 X226.349 Y110.630 E0.01440
G1 X227.375 Y109.870 E0.01479
G1 X227.775 Y109.325 E0.00783
G1 X228.204 Y108.113 E0.01489
G1 X228.160 Y106.851 E0.01462
G1 X227.710 Y105.714 E0.01416
G1 X226.834 Y104.812 E0.01456
G1 X225.661 Y104.303 E0.01481
G1 X124.855 Y95.543 E1.17177
M204 S1000
M204 S500
G1 X24.339 Y104.303 E1.16842
G1 X23.166 Y104.813 E0.01481
G1 X22.290 Y105.714 E0.01455
G1 X21.840 Y106.851 E0.01416
G1 X21.796 Y108.113 E0.01462
G1 X22.225 Y109.325 E0.01489
G1 X22.625 Y109.870 E0.00783
G1 X23.651 Y110.630 E0.01479
G1 X24.859 Y110.925 E0.01440
G1 X56.763 Y108.144 E0.37085
M204 S1000
G1 X56.751 Y107.866 F10800.000
M204 S500
G1 F1200.000
G1 X125.000 Y101.917 E0.79335
G1 X193.249 Y107.866 E0.79335
M204 S1000
G1 F8640.000
G1 X189.970 Y107.580 E-0.76000
G1 E-0.04000 F2100.00000
G1 Z0.700 F10800.000
G1 X196.445 Y108.144
G1 Z0.100
G1 E0.80000 F2100.00000
M204 S500
G1 F1200.000
G1 X225.141 Y110.645 E0.33357
G1 X226.253 Y110.367 E0.01327
G1 X227.190 Y109.660 E0.01360
G1 X227.520 Y109.211 E0.00645
G1 X227.925 Y108.094 E0.01376
G1 X227.892 Y106.928 E0.01350
G1 X227.490 Y105.888 E0.01292
G1 X226.653 Y105.026 E0.01390
G1 X225.614 Y104.579 E0.01310
M204 S1000
M204 S500
G1 X124.867 Y95.821 E1.17109
G1 X24.385 Y104.579 E1.16802
G1 X23.347 Y105.026 E0.01310
G1 X22.510 Y105.888 E0.01390
G1 X22.108 Y106.928 E0.01292
G1 X22.075 Y108.094 E0.01350
G1 X22.480 Y109.211 E0.01376
G1 X22.810 Y109.660 E0.00645
G1 X23.747 Y110.367 E0.01360
G1 X24.859 Y110.645 E0.01327
G1 X53.555 Y108.144 E0.33357
M204 S1000
G1 X53.543 Y107.866 F10800.000
M204 S500
G1 F1200.000
G1 X125.000 Y101.638 E0.83064
G1 X196.457 Y107.866 E0.83064
M73 Q1 S244
M73 P1 R234
M204 S1000
G1 F8640.000
G1 X193.178 Y107.580 E-0.76000
G1 E-0.04000 F2100.00000
G1 Z0.700 F10800.000
G1 X199.653 Y108.144
G1 Z0.100
G1 E0.80000 F2100.00000
M204 S500
G1 F1200.000
G1 X225.141 Y110.366 E0.29628
G1 X226.155 Y110.105 E0.01212
G1 X227.004 Y109.452 E0.01240
G1 X227.266 Y109.095 E0.00512
G1 X227.646 Y108.072 E0.01264
G1 X227.623 Y107.003 E0.01239
G1 X227.268 Y106.058 E0.01168
G1 X226.515 Y105.270 E0.01263
G1 X225.567 Y104.854 E0.01199
G1 X124.879 Y96.100 E1.17041
M204 S1000
M204 S500
G1 X24.433 Y104.854 E1.16761
G1 X23.485 Y105.270 E0.01199
G1 X22.732 Y106.058 E0.01263
G1 X22.377 Y107.003 E0.01168
G1 X22.354 Y108.072 E0.01239
G1 X22.734 Y109.095 E0.01264
G1 X22.996 Y109.452 E0.00512
G1 X23.845 Y110.105 E0.01240
G1 X24.859 Y110.366 E0.01212
G1 X50.347 Y108.144 E0.29628
M204 S1000
G1 X50.335 Y107.866 F10800.000
M204 S500
G1 F1200.000
G1 X125.000 Y101.358 E0.86793
G1 X199.665 Y107.866 E0.86793
M204 S1000
G1 F8640.000
G1 X196.386 Y107.580 E-0.76000
G1 E-0.04000 F2100.00000
G1 Z0.700 F10800.000
G1 X202.861 Y108.144
G1 Z0.100
G1 E0.80000 F2100.00000
M204 S500
G1 F1200.000
G1 X225.141 Y110.086 E0.25899
G1 X226.055 Y109.844 E0.01095
G1 X226.817 Y109.245 E0.01122
G1 X227.013 Y108.978 E0.00384
G1 X227.367 Y108.049 E0.01152
G1 X227.353 Y107.075 E0.01128
G1 X227.045 Y106.227 E0.01045
G1 X226.375 Y105.512 E0.01134
G1 X225.519 Y105.130 E0.01086
M204 S1000
M204 S500
G1 X124.891 Y96.378 E1.16971
G1 X24.480 Y105.130 E1.16720
G1 X23.625 Y105.512 E0.01086
G1 X22.955 Y106.227 E0.01134
G1 X22.647 Y107.075 E0.01045
G1 X22.633 Y108.049 E0.01128
G1 X22.987 Y108.978 E0.01152
G1 X23.183 Y109.245 E0.00384
G1 X23.945 Y109.844 E0.01122
G1 X24.859 Y110.086 E0.01095
G1 X47.139 Y108.144 E0.25899
M204 S1000
G1 X47.127 Y107.866 F10800.000
M204 S500
G1 F1200.000
G1 X125.000 Y101.079 E0.90522
G1 X202.873 Y107.866 E0.90522
M204 S1000
G1 F8640.000
G1 X199.594 Y107.580 E-0.76000
G1 E-0.04000 F2100.00000
G1 Z0.700 F10800.000
G1 X206.069 Y108.144
G1 Z0.100
G1 E0.80000 F2100.00000
M204 S500
G1 F1200.000
G1 X225.140 Y109.806 E0.22168
G1 X225.953 Y109.583 E0.00976
G1 X226.628 Y109.040 E0.01003
G1 X226.760 Y108.859 E0.00260
G1 X227.089 Y108.023 E0.01040
G1 X227.082 Y107.144 E0.01018
G1 X226.819 Y106.393 E0.00921
G1 X226.233 Y105.753 E0.01005
G1 X225.471 Y105.405 E0.00970
G1 X124.903 Y96.657 E1.16901
M204 S1000
M204 S500
G1 X24.529 Y105.405 E1.16677
G1 X23.767 Y105.753 E0.00970
G1 X23.181 Y106.393 E0.01005
G1 X22.918 Y107.144 E0.00921
G1 X22.911 Y108.023 E0.01018
G1 X23.240 Y108.859 E0.01040
G1 X23.372 Y109.040 E0.00260
G1 X24.047 Y109.583 E0.01003
G1 X24.860 Y109.806 E0.00976
G1 X43.931 Y108.144 E0.22168
M204 S1000
G1 X43.919 Y107.866 F10800.000
M204 S500
G1 F1200.000
G1 X125.000 Y100.799 E0.94251
M73 Q1 S243
M73 P1 R233
G1 X206.081 Y107.866 E0.94251
M204 S1000
G1 F8640.000
G1 X202.802 Y107.580 E-0.76000
G1 E-0.04000 F2100.00000
G1 Z0.700 F10800.000
G1 X209.277 Y108.144
G1 Z0.100
G1 E0.80000 F2100.00000
M204 S500
G1 F1200.000
G1 X225.138 Y109.527 E0.18437
G1 X225.847 Y109.324 E0.00854
G1 X226.436 Y108.837 E0.00885
G1 X226.509 Y108.738 E0.00143
G1 X226.811 Y107.995 E0.00928
G1 X226.811 Y107.209 E0.00910
G1 X226.592 Y106.556 E0.00798
G1 X226.088 Y105.992 E0.00875
G1 X225.422 Y105.680 E0.00852
M204 S1000
M204 S500
G1 X124.915 Y96.935 E1.16830
G1 X24.578 Y105.680 E1.16634
G1 X23.912 Y105.992 E0.00852
G1 X23.408 Y106.556 E0.00875
G1 X23.189 Y107.209 E0.00798
G1 X23.189 Y107.995 E0.00910
G1 X23.491 Y108.738 E0.00928
G1 X23.564 Y108.837 E0.00143
G1 X24.153 Y109.324 E0.00885
G1 X24.862 Y109.527 E0.00854
G1 X40.723 Y108.144 E0.18437
M204 S1000
G1 X40.711 Y107.866 F10800.000
M204 S500
G1 F1200.000
G1 X125.000 Y100.520 E0.97980
G1 X209.289 Y107.866 E0.97980
M204 S1000
G1 F8640.000
G1 X206.010 Y107.580 E-0.76000
G1 E-0.04000 F2100.00000
G1 Z0.700 F10800.000
G1 X212.485 Y108.144
G1 Z0.100
G1 E0.80000 F2100.00000
M204 S500
G1 F1200.000
G1 X225.135 Y109.247 E0.14704
G1 X225.737 Y109.066 E0.00729
G1 X226.259 Y108.614 E0.00800
G1 X226.532 Y107.966 E0.00814
G1 X226.532 Y107.231 E0.00851
G1 X226.363 Y106.716 E0.00628
G1 X225.940 Y106.230 E0.00746
G1 X225.371 Y105.955 E0.00731
G1 X124.927 Y97.214 E1.16757
M204 S1000
M204 S500
G1 X24.629 Y105.955 E1.16590
G1 X24.060 Y106.230 E0.00731
G1 X23.637 Y106.716 E0.00746
G1 X23.468 Y107.231 E0.00628
G1 X23.468 Y107.966 E0.00851
G1 X23.741 Y108.614 E0.00814
G1 X24.263 Y109.066 E0.00800
G1 X24.865 Y109.247 E0.00729
G1 X37.515 Y108.144 E0.14704
M204 S1000
G1 X37.503 Y107.866 F10800.000
M204 S500
G1 F1200.000
G1 X125.000 Y100.240 E1.01709
G1 X212.497 Y107.866 E1.01709
M204 S1000
G1 F8640.000
G1 X209.218 Y107.580 E-0.76000
G1 E-0.04000 F2100.00000
G1 Z0.700 F10800.000
G1 X215.693 Y108.144
G1 Z0.100
G1 E0.80000 F2100.00000
M204 S500
G1 F1200.000
G1 X225.130 Y108.967 E0.10970
G1 X225.624 Y108.811 E0.00599
G1 X226.024 Y108.459 E0.00617
G1 X226.253 Y107.936 E0.00661
G1 X226.253 Y107.253 E0.00792
G1 X226.131 Y106.873 E0.00461
G1 X225.788 Y106.465 E0.00618
G1 X225.320 Y106.231 E0.00606
M204 S1000
M204 S500
G1 X124.939 Y97.492 E1.16684
G1 X24.680 Y106.231 E1.16544
G1 X24.212 Y106.465 E0.00606
G1 X23.869 Y106.873 E0.00618
G1 X23.747 Y107.253 E0.00461
G1 X23.747 Y107.936 E0.00792
G1 X23.976 Y108.459 E0.00661
G1 X24.376 Y108.811 E0.00617
G1 X24.870 Y108.967 E0.00599
G1 X34.307 Y108.144 E0.10970
M204 S1000
G1 X34.295 Y107.866 F10800.000
M204 S500
G1 F1200.000
G1 X125.000 Y99.960 E1.05438
M73 Q2 S242
M73 P2 R232
G1 X215.705 Y107.866 E1.05438
M204 S1000
G1 F8640.000
G1 X212.426 Y107.580 E-0.76000
G1 E-0.04000 F2100.00000
G1 Z0.700 F10800.000
G1 X218.901 Y108.144
G1 Z0.100
G1 E0.80000 F2100.00000
M204 S500
G1 F1200.000
G1 X225.124 Y108.687 E0.07234
G1 X225.504 Y108.558 E0.00465
G1 X225.813 Y108.274 E0.00486
G1 X225.975 Y107.907 E0.00465
G1 X225.975 Y107.273 E0.00735
G1 X225.900 Y107.031 E0.00293
G1 X225.593 Y106.666 E0.00551
G1 X225.270 Y106.506 E0.00418
G1 X124.952 Y97.771 E1.16612
M204 S1000
M204 S500
G1 X24.730 Y106.506 E1.16500
G1 X24.407 Y106.666 E0.00418
G1 X24.100 Y107.031 E0.00551
G1 X24.025 Y107.273 E0.00293
G1 X24.025 Y107.907 E0.00735
G1 X24.187 Y108.274 E0.00465
G1 X24.496 Y108.558 E0.00486
G1 X24.876 Y108.687 E0.00465
G1 X31.099 Y108.144 E0.07234
M204 S1000
G1 X31.087 Y107.866 F10800.000
M204 S500
G1 F1200.000
G1 X125.000 Y99.681 E1.09167
G1 X218.913 Y107.866 E1.09167
M204 S1000
G1 F8640.000
G1 X215.634 Y107.580 E-0.76000
G1 E-0.04000 F2100.00000
G1 Z0.700 F10800.000
G1 X222.109 Y108.144
G1 Z0.100
G1 E0.80000 F2100.00000
M204 S500
G1 F1200.000
G1 X225.120 Y108.407 E0.03499
G1 X225.337 Y108.333 E0.00266
G1 X225.604 Y108.088 E0.00419
G1 X225.696 Y107.878 E0.00266
G1 X225.696 Y107.297 E0.00673
G1 X225.646 Y107.149 E0.00182
G1 X225.403 Y106.871 E0.00427
G1 X225.220 Y106.781 E0.00237
M204 S1000
M204 S500
G1 X124.964 Y98.049 E1.16540
G1 X24.780 Y106.781 E1.16456
G1 X24.597 Y106.871 E0.00237
G1 X24.354 Y107.149 E0.00427
G1 X24.304 Y107.297 E0.00182
G1 X24.304 Y107.878 E0.00673
G1 X24.396 Y108.088 E0.00266
G1 X24.663 Y108.333 E0.00419
G1 X24.880 Y108.407 E0.00266
G1 X27.891 Y108.144 E0.03499
M204 S1000
G1 X27.879 Y107.866 F10800.000
M204 S500
G1 F1200.000
G1 X125.000 Y99.401 E1.12896
G1 X222.121 Y107.866 E1.12896
M204 S1000
G1 F8640.000
G1 X218.842 Y107.580 E-0.76000
G1 E-0.04000 F2100.00000
G1 Z0.700 F10800.000
G1 X225.080 Y108.124
G1 Z0.100
