; generated by PrusaSlicer 2.2.0 on 2020-07-26 at 02:14:31 UTC

; 

; external perimeters extrusion width = 0.25mm
; perimeters extrusion width = 0.25mm
; infill extrusion width = 0.25mm
; solid infill extrusion width = 0.25mm
; top infill extrusion width = 0.25mm
; support material extrusion width = 0.20mm
; first layer extrusion width = 0.30mm

M73 P0 R446
M73 Q0 S453
M201 X1000 Y1000 Z200 E5000 ; sets maximum accelerations, mm/sec^2
M203 X200 Y200 Z12 E120 ; sets maximum feedrates, mm/sec
M204 P1250 R1250 T1250 ; sets acceleration (P, T) and retract acceleration (R), mm/sec^2
M205 X8.00 Y8.00 Z0.40 E4.50 ; sets the jerk limits, mm/sec
M205 S0 T0 ; sets the minimum extruding and travel feed rate, mm/sec
M107
M862.3 P "MK3S" ; printer model check
M862.1 P0.25 ; nozzle diameter check
M115 U3.9.0 ; tell printer latest fw version
G90 ; use absolute coordinates
M83 ; extruder relative mode
M104 S215 ; set extruder temp
M140 S60 ; set bed temp
M190 S60 ; wait for bed temp
M109 S215 ; wait for extruder temp
G28 W ; home all without mesh bed level
G80 ; mesh bed leveling
G1 Y-3.0 F1000.0 ; go outside print area
G92 E0.0
G1 X60.0 E9.0 F1000.0 ; intro line
M73 Q0 S453
M73 P0 R446
G1 X100.0 E12.5 F1000.0 ; intro line
G92 E0.0
M221 S95
G21 ; set units to millimeters
G90 ; use absolute coordinates
M83 ; use relative distances for extrusion
M900 K0.06 ; Filament gcode LA 1.5
M900 K30 ; Filament gcode LA 1.0
;BEFORE_LAYER_CHANGE
G92 E0.0
;0.1


G1 E-0.80000 F2100.00000
G1 Z0.600 F10800.000
;AFTER_LAYER_CHANGE
;0.1
G1 X23.599 Y107.313
G1 Z0.100
G1 E0.80000 F2100.00000
M204 S500
G1 F1200.000
G1 X24.447 Y106.899 E0.01093
G1 X68.604 Y98.630 E0.52024
G1 X119.681 Y90.364 E0.59919
G1 X130.311 Y90.343 E0.12309
G1 X181.098 Y98.627 E0.59591
G1 X225.457 Y106.877 E0.52250
G1 X225.925 Y107.027 E0.00569
G1 X226.353 Y107.276 E0.00573
G1 X226.717 Y107.612 E0.00573
G1 X226.998 Y108.014 E0.00569
G1 X227.264 Y108.855 E0.01021
G1 X227.233 Y110.113 E0.01457
G1 X226.952 Y110.833 E0.00894
G1 X226.451 Y111.415 E0.00890
G1 X225.781 Y111.798 E0.00894
G1 X225.021 Y111.936 E0.00894
G1 X25.000 Y111.936 E2.31632
G1 X24.225 Y111.800 E0.00911
G1 X23.543 Y111.409 E0.00911
G1 X23.034 Y110.809 E0.00911
G1 X22.759 Y110.068 E0.00915
G1 X22.736 Y108.853 E0.01408
G1 X22.989 Y108.039 E0.00987
G1 X23.574 Y107.342 E0.01054
M204 S1000
G1 F8640.000
G1 X24.447 Y106.899 E-0.22593
G1 X26.721 Y106.474 E-0.53407
G1 E-0.04000 F2100.00000
G1 Z0.700 F10800.000
G1 X207.568 Y103.692
G1 Z0.100
G1 E0.80000 F2100.00000
M204 S500
G1 F1200.000
G1 X206.777 Y103.866 E0.00938
G1 X205.809 Y104.381 E0.01270
G1 X204.817 Y105.341 E0.01599
G1 X204.334 Y106.155 E0.01096
G1 X204.049 Y107.075 E0.01115
G1 X203.983 Y109.093 E0.02339
G1 X204.195 Y109.960 E0.01034
G1 X204.630 Y110.820 E0.01116
G1 X205.547 Y111.797 E0.01552
M204 S1000
G1 X205.974 Y112.075 F10800.000
M204 S500
G1 F1200.000
G1 X207.395 Y112.724 E0.01810
G1 X225.158 Y114.266 E0.20647
G1 X226.932 Y113.815 E0.02120
G1 X227.621 Y113.444 E0.00906
G1 X228.606 Y112.525 E0.01561
G1 X229.311 Y111.317 E0.01619
G1 X229.587 Y110.062 E0.01489
G1 X229.557 Y108.447 E0.01870
G1 X229.281 Y107.373 E0.01284
G1 X228.766 Y106.444 E0.01230
G1 X228.043 Y105.633 E0.01258
G1 X226.664 Y104.806 E0.01863
G1 X226.376 Y104.712 E0.00350
G1 X217.666 Y103.847 E0.10137
M204 S1000
M204 S500
G1 X214.763 Y103.622 E0.03371
G1 X208.739 Y103.626 E0.06976
M204 S1000
G1 X208.714 Y103.905 F10800.000
M204 S500
G1 F1200.000
G1 X207.877 Y103.905 E0.00969
G1 X206.890 Y104.122 E0.01170
G1 X205.987 Y104.595 E0.01180
G1 X205.047 Y105.500 E0.01511
G1 X204.583 Y106.283 E0.01054
G1 X204.320 Y107.138 E0.01036
G1 X204.258 Y109.047 E0.02211
G1 X204.452 Y109.851 E0.00958
G1 X204.849 Y110.646 E0.01029
G1 X205.827 Y111.703 E0.01668
G1 X206.031 Y111.797 E0.00260
M204 S1000
G1 X206.635 Y112.075 F10800.000
M204 S500
G1 F1200.000
G1 X207.444 Y112.449 E0.01032
G1 X225.158 Y113.986 E0.20591
G1 X226.816 Y113.562 E0.01982
G1 X227.445 Y113.227 E0.00825
G1 X228.377 Y112.366 E0.01469
G1 X229.044 Y111.235 E0.01520
G1 X229.308 Y110.050 E0.01406
G1 X229.278 Y108.469 E0.01832
G1 X229.029 Y107.492 E0.01167
G1 X228.547 Y106.617 E0.01157
G1 X227.881 Y105.861 E0.01166
G1 X226.534 Y105.053 E0.01819
G1 X226.334 Y104.988 E0.00243
G1 X217.640 Y104.124 E0.10118
G1 X214.747 Y103.900 E0.03359
M204 S1000
M204 S500
G1 X210.231 Y103.904 E0.05230
M204 S1000
G1 X210.204 Y104.182 F10800.000
M204 S500
G1 F1200.000
G1 X207.892 Y104.184 E0.02677
G1 X206.969 Y104.389 E0.01095
G1 X206.135 Y104.832 E0.01093
G1 X205.276 Y105.659 E0.01381
G1 X204.844 Y106.381 E0.00975
G1 X204.592 Y107.202 E0.00995
G1 X204.533 Y109.001 E0.02084
G1 X204.709 Y109.742 E0.00882
G1 X205.068 Y110.473 E0.00943
G1 X205.971 Y111.462 E0.01551
G1 X206.686 Y111.797 E0.00915
M204 S1000
G1 X207.282 Y112.075 F10800.000
M204 S500
G1 F1200.000
G1 X207.493 Y112.174 E0.00269
G1 X225.158 Y113.707 E0.20534
G1 X226.729 Y113.297 E0.01880
G1 X227.297 Y112.991 E0.00747
G1 X228.172 Y112.176 E0.01384
G1 X228.792 Y111.114 E0.01425
G1 X229.029 Y110.039 E0.01274
G1 X229.000 Y108.490 E0.01794
G1 X228.776 Y107.611 E0.01050
G1 X228.310 Y106.765 E0.01119
G1 X227.687 Y106.062 E0.01088
G1 X226.405 Y105.300 E0.01727
G1 X226.292 Y105.263 E0.00138
G1 X217.614 Y104.401 E0.10099
M204 S1000
M204 S500
G1 X214.731 Y104.179 E0.03348
G1 X211.721 Y104.181 E0.03486
M204 S1000
G1 X211.694 Y104.459 F10800.000
M204 S500
G1 F1200.000
G1 X207.908 Y104.462 E0.04385
G1 X207.083 Y104.644 E0.00978
G1 X206.283 Y105.069 E0.01049
G1 X205.506 Y105.818 E0.01250
G1 X205.092 Y106.509 E0.00933
G1 X204.864 Y107.265 E0.00914
G1 X204.809 Y108.956 E0.01959
G1 X204.966 Y109.634 E0.00806
G1 X205.310 Y110.333 E0.00902
G1 X206.115 Y111.223 E0.01390
G1 X207.327 Y111.797 E0.01553
M204 S1000
G1 F8640.000
G1 X206.115 Y111.223 E-0.30967
G1 X205.310 Y110.333 E-0.27713
G1 X204.979 Y109.660 E-0.17320
G1 E-0.04000 F2100.00000
G1 Z0.700 F10800.000
G1 X209.582 Y112.075
G1 Z0.100
G1 E0.80000 F2100.00000
M204 S500
G1 F1200.000
G1 X225.158 Y113.427 E0.18105
G1 X226.640 Y113.032 E0.01777
G1 X227.148 Y112.755 E0.00669
G1 X227.966 Y111.988 E0.01299
G1 X228.540 Y110.994 E0.01329
G1 X228.750 Y110.028 E0.01144
G1 X228.722 Y108.511 E0.01757
G1 X228.523 Y107.729 E0.00935
G1 X228.091 Y106.938 E0.01044
G1 X227.493 Y106.263 E0.01043
G1 X226.277 Y105.548 E0.01634
G1 X217.588 Y104.679 E0.10113
G1 X214.715 Y104.457 E0.03336
M204 S1000
M204 S500
G1 X213.211 Y104.458 E0.01742
M204 S1000
G1 X213.183 Y104.736 F10800.000
M204 S500
G1 F1200.000
G1 X207.923 Y104.741 E0.06092
G1 X207.197 Y104.899 E0.00861
G1 X206.431 Y105.306 E0.01004
G1 X205.735 Y105.978 E0.01121
G1 X205.353 Y106.607 E0.00851
G1 X205.136 Y107.328 E0.00873
G1 X205.084 Y108.912 E0.01836
G1 X205.223 Y109.526 E0.00729
G1 X205.551 Y110.193 E0.00861
G1 X206.261 Y110.984 E0.01231
G1 X207.591 Y111.623 E0.01709
G1 X209.594 Y111.797 E0.02328
M204 S1000
G1 F8640.000
G1 X207.591 Y111.623 E-0.46412
G1 X206.436 Y111.068 E-0.29588
G1 E-0.04000 F2100.00000
G1 Z0.700 F10800.000
G1 X212.803 Y112.075
G1 Z0.100
G1 E0.80000 F2100.00000
M204 S500
G1 F1200.000
G1 X225.157 Y113.148 E0.14360
G1 X226.550 Y112.768 E0.01673
G1 X226.997 Y112.521 E0.00591
G1 X227.759 Y111.800 E0.01215
G1 X228.287 Y110.875 E0.01233
G1 X228.471 Y110.017 E0.01015
G1 X228.444 Y108.532 E0.01720
G1 X228.270 Y107.847 E0.00819
G1 X227.854 Y107.085 E0.01005
G1 X227.301 Y106.466 E0.00962
G1 X226.177 Y105.812 E0.01506
G1 X217.562 Y104.956 E0.10026
M204 S1000
M204 S500
G1 X214.699 Y104.735 E0.03325
M204 S1000
G1 X214.671 Y105.013 F10800.000
M204 S500
G1 F1200.000
G1 X207.937 Y105.020 E0.07798
G1 X207.310 Y105.154 E0.00743
G1 X206.579 Y105.543 E0.00958
G1 X205.963 Y106.138 E0.00991
G1 X205.601 Y106.735 E0.00809
G1 X205.408 Y107.389 E0.00790
G1 X205.360 Y108.870 E0.01715
G1 X205.481 Y109.419 E0.00650
G1 X205.793 Y110.054 E0.00820
G1 X206.408 Y110.746 E0.01073
G1 X207.641 Y111.348 E0.01589
G1 X212.815 Y111.797 E0.06014
M204 S1000
G1 F8640.000
G1 X209.536 Y111.512 E-0.76000
G1 E-0.04000 F2100.00000
G1 Z0.700 F10800.000
G1 X216.025 Y112.075
G1 Z0.100
G1 E0.80000 F2100.00000
M204 S500
G1 F1200.000
G1 X225.155 Y112.868 E0.10614
G1 X226.459 Y112.504 E0.01568
G1 X226.820 Y112.305 E0.00477
G1 X227.528 Y111.643 E0.01123
G1 X228.034 Y110.756 E0.01183
G1 X228.193 Y110.007 E0.00886
G1 X228.166 Y108.553 E0.01684
G1 X228.017 Y107.964 E0.00704
G1 X227.636 Y107.259 E0.00928
G1 X227.108 Y106.668 E0.00917
G1 X226.064 Y106.068 E0.01395
G1 X217.268 Y105.213 E0.10234
M204 S1000
G1 X217.232 Y105.489 F10800.000
M204 S500
G1 F1200.000
G1 X214.667 Y105.291 E0.02979
G1 X207.952 Y105.298 E0.07776
G1 X207.423 Y105.410 E0.00626
G1 X206.727 Y105.779 E0.00913
G1 X206.192 Y106.297 E0.00862
G1 X205.849 Y106.863 E0.00767
G1 X205.681 Y107.449 E0.00706
G1 X205.636 Y108.829 E0.01599
G1 X205.738 Y109.312 E0.00571
G1 X206.035 Y109.915 E0.00778
G1 X206.557 Y110.509 E0.00916
G1 X207.692 Y111.073 E0.01467
G1 X216.037 Y111.797 E0.09700
M204 S1000
G1 F8640.000
G1 X212.757 Y111.512 E-0.76000
G1 E-0.04000 F2100.00000
G1 Z0.700 F10800.000
G1 X219.246 Y112.075
G1 Z0.100
G1 E0.80000 F2100.00000
M204 S500
G1 F1200.000
G1 X225.154 Y112.588 E0.06867
G1 X226.366 Y112.241 E0.01460
G1 X226.667 Y112.071 E0.00401
G1 X227.321 Y111.455 E0.01040
G1 X227.781 Y110.638 E0.01086
G1 X227.914 Y109.997 E0.00759
G1 X227.887 Y108.574 E0.01648
G1 X227.763 Y108.080 E0.00591
G1 X227.417 Y107.432 E0.00851
G1 X226.916 Y106.871 E0.00870
G1 X225.953 Y106.325 E0.01282
G1 X220.335 Y105.783 E0.06535
M204 S1000
G1 X220.253 Y106.051 F10800.000
M204 S500
G1 F1200.000
G1 X217.486 Y105.788 E0.03219
G1 X214.651 Y105.569 E0.03292
M204 S1000
M204 S500
G1 X207.966 Y105.577 E0.07742
G1 X207.536 Y105.665 E0.00508
G1 X206.875 Y106.016 E0.00866
G1 X206.421 Y106.457 E0.00732
G1 X206.097 Y106.991 E0.00724
G1 X205.953 Y107.507 E0.00621
G1 X205.912 Y108.790 E0.01486
G1 X205.997 Y109.205 E0.00490
G1 X206.277 Y109.776 E0.00737
G1 X206.708 Y110.274 E0.00762
G1 X207.743 Y110.797 E0.01343
G1 X219.258 Y111.797 E0.13385
M204 S1000
G1 F8640.000
G1 X215.979 Y111.512 E-0.76000
G1 E-0.04000 F2100.00000
G1 Z0.700 F10800.000
G1 X222.467 Y112.075
G1 Z0.100
G1 E0.80000 F2100.00000
M204 S500
G1 F1200.000
G1 X225.151 Y112.308 E0.03120
G1 X226.270 Y111.979 E0.01351
G1 X226.513 Y111.839 E0.00324
G1 X227.113 Y111.269 E0.00959
G1 X227.527 Y110.523 E0.00987
G1 X227.635 Y109.987 E0.00633
G1 X227.609 Y108.595 E0.01613
G1 X227.509 Y108.196 E0.00477
G1 X227.179 Y107.578 E0.00811
G1 X226.725 Y107.075 E0.00785
G1 X225.843 Y106.582 E0.01171
G1 X223.366 Y106.347 E0.02880
M204 S1000
G1 X223.239 Y106.607 F10800.000
M204 S500
G1 F1200.000
G1 X217.461 Y106.066 E0.06721
M204 S1000
M204 S500
G1 X214.635 Y105.847 E0.03282
G1 X207.979 Y105.855 E0.07707
G1 X207.646 Y105.922 E0.00393
G1 X207.053 Y106.231 E0.00775
G1 X206.650 Y106.617 E0.00646
G1 X206.346 Y107.119 E0.00679
G1 X206.231 Y107.533 E0.00497
G1 X206.191 Y108.783 E0.01449
G1 X206.254 Y109.099 E0.00372
G1 X206.519 Y109.636 E0.00694
G1 X206.899 Y110.070 E0.00668
G1 X207.794 Y110.522 E0.01161
G1 X222.479 Y111.797 E0.17070
M204 S1000
G1 F8640.000
G1 X219.200 Y111.512 E-0.76000
G1 E-0.04000 F2100.00000
G1 Z0.700 F10800.000
G1 X227.254 Y110.441
G1 Z0.100
G1 E0.80000 F2100.00000
M204 S500
G1 F1200.000
G1 X227.277 Y110.384 E0.00071
M204 S1000
G1 F8640.000
G1 X227.254 Y110.441 E-0.01416
G1 E-0.78584 F2100.00000
G1 Z0.700 F10800.000
G1 X227.318 Y108.564
G1 Z0.100
G1 E0.80000 F2100.00000
M204 S500
G1 F1200.000
G1 X227.255 Y108.310 E0.00303
G1 X227.212 Y108.228 E0.00107
M204 S1000
G1 X226.954 Y108.336 F10800.000
M204 S500
G1 F1200.000
G1 X226.723 Y107.898 E0.00574
G1 X226.346 Y107.486 E0.00647
G1 X225.628 Y107.099 E0.00944
G1 X217.436 Y106.343 E0.09526
G1 X214.619 Y106.125 E0.03272
M204 S1000
M204 S500
G1 X207.992 Y106.134 E0.07674
G1 X207.754 Y106.179 E0.00280
G1 X207.230 Y106.447 E0.00682
G1 X206.857 Y106.805 E0.00599
G1 X206.595 Y107.244 E0.00592
G1 X206.509 Y107.558 E0.00376
G1 X206.470 Y108.777 E0.01412
G1 X206.513 Y108.994 E0.00257
G1 X206.741 Y109.467 E0.00608
G1 X207.091 Y109.866 E0.00614
G1 X207.845 Y110.247 E0.00978
G1 X225.144 Y111.749 E0.20109
G1 X226.072 Y111.458 E0.01126
G1 X226.175 Y111.397 E0.00138
G1 X226.696 Y110.898 E0.00835
G1 X226.999 Y110.328 E0.00747
M204 S1000
G1 X227.020 Y110.276 F10800.000
M204 S500
G1 F1200.000
G1 X227.078 Y109.969 E0.00361
G1 X227.053 Y108.650 E0.01529
M204 S1000
G1 X226.745 Y108.538 F10800.000
M204 S500
G1 F1200.000
G1 X226.775 Y108.657 E0.00142
G1 X226.799 Y109.962 E0.01512
G1 X226.759 Y110.187 E0.00264
G1 X226.461 Y110.746 E0.00734
G1 X225.970 Y111.198 E0.00773
G1 X225.140 Y111.469 E0.01012
G1 X207.895 Y109.972 E0.20045
G1 X207.283 Y109.662 E0.00795
G1 X206.964 Y109.299 E0.00560
G1 X206.773 Y108.892 E0.00520
G1 X206.749 Y108.770 E0.00144
G1 X206.787 Y107.583 E0.01376
G1 X206.845 Y107.368 E0.00258
G1 X207.064 Y106.992 E0.00503
G1 X207.407 Y106.663 E0.00551
G1 X207.859 Y106.438 E0.00585
G1 X208.004 Y106.412 E0.00170
G1 X214.603 Y106.404 E0.07642
G1 X217.412 Y106.621 E0.03263
G1 X225.523 Y107.358 E0.09431
G1 X226.157 Y107.692 E0.00830
G1 X226.505 Y108.072 E0.00596
G1 X226.728 Y108.504 E0.00564
M204 S1000
G1 X226.480 Y108.630 F10800.000
M204 S500
G1 F1200.000
G1 X226.496 Y108.677 E0.00058
G1 X226.520 Y109.952 E0.01477
G1 X226.490 Y110.114 E0.00191
G1 X226.253 Y110.559 E0.00583
G1 X225.837 Y110.949 E0.00661
G1 X225.134 Y111.188 E0.00860
G1 X207.946 Y109.697 E0.19979
G1 X207.475 Y109.458 E0.00612
G1 X207.187 Y109.131 E0.00504
G1 X207.028 Y108.764 E0.00464
G1 X207.065 Y107.607 E0.01340
G1 X207.097 Y107.488 E0.00143
G1 X207.272 Y107.179 E0.00412
G1 X207.584 Y106.879 E0.00501
G1 X207.931 Y106.707 E0.00448
G1 X208.018 Y106.691 E0.00103
G1 X214.587 Y106.682 E0.07607
G1 X217.388 Y106.898 E0.03253
M73 Q0 S452
G1 X225.421 Y107.619 E0.09339
G1 X225.969 Y107.899 E0.00713
G1 X226.286 Y108.245 E0.00544
G1 X226.463 Y108.596 E0.00455
M204 S1000
G1 F8640.000
G1 X226.496 Y108.677 E-0.02018
G1 X226.520 Y109.952 E-0.29442
G1 X226.490 Y110.114 E-0.03804
G1 X226.253 Y110.559 E-0.11626
G1 X225.837 Y110.949 E-0.13180
G1 X225.184 Y111.171 E-0.15929
G1 E-0.04000 F2100.00000
G1 Z0.700 F10800.000
G1 X226.222 Y110.036
G1 Z0.100
G1 E0.80000 F2100.00000
M204 S500
G1 F1200.000
G1 X226.021 Y110.404 E0.00486
G1 X225.671 Y110.724 E0.00549
M73 P0 R445
G1 X225.129 Y110.908 E0.00663
G1 X207.997 Y109.422 E0.19915
G1 X207.666 Y109.254 E0.00429
G1 X207.412 Y108.964 E0.00447
G1 X207.308 Y108.726 E0.00301
G1 X207.343 Y107.632 E0.01268
G1 X207.481 Y107.364 E0.00349
G1 X207.761 Y107.096 E0.00449
G1 X208.035 Y106.969 E0.00350
G1 X214.571 Y106.960 E0.07568
G1 X217.365 Y107.176 E0.03245
G1 X225.322 Y107.880 E0.09251
G1 X225.781 Y108.107 E0.00594
G1 X226.066 Y108.418 E0.00489
G1 X226.219 Y108.729 E0.00400
G1 X226.241 Y109.940 E0.01404
G1 X226.229 Y109.999 E0.00069
M204 S1000
G1 X225.956 Y109.952 F10800.000
M204 S500
G1 F1200.000
G1 X225.815 Y110.215 E0.00345
G1 X225.504 Y110.499 E0.00488
G1 X225.125 Y110.628 E0.00464
G1 X208.047 Y109.146 E0.19851
G1 X207.858 Y109.051 E0.00245
G1 X207.638 Y108.799 E0.00387
G1 X207.577 Y108.651 E0.00185
G1 X207.619 Y107.690 E0.01114
G1 X207.692 Y107.548 E0.00185
G1 X207.936 Y107.314 E0.00391
G1 X208.081 Y107.248 E0.00185
G1 X214.555 Y107.238 E0.07497
G1 X217.341 Y107.453 E0.03235
G1 X225.271 Y108.155 E0.09220
G1 X225.593 Y108.314 E0.00416
G1 X225.846 Y108.590 E0.00433
G1 X225.954 Y108.818 E0.00292
G1 X225.963 Y109.915 E0.01270
M204 S1000
G1 X225.685 Y109.873 F10800.000
M204 S500
G1 F1200.000
G1 X225.607 Y110.028 E0.00201
G1 X225.337 Y110.274 E0.00423
G1 X225.120 Y110.348 E0.00266
G1 X208.098 Y108.871 E0.19786
G1 X208.050 Y108.847 E0.00062
G1 X207.867 Y108.638 E0.00321
G1 X207.849 Y108.587 E0.00062
G1 X207.884 Y107.777 E0.00939
G1 X207.906 Y107.728 E0.00062
G1 X208.107 Y107.536 E0.00321
G1 X208.157 Y107.516 E0.00062
G1 X214.550 Y107.516 E0.07403
G1 X217.317 Y107.731 E0.03214
G1 X225.221 Y108.430 E0.09189
G1 X225.405 Y108.521 E0.00238
G1 X225.624 Y108.760 E0.00375
G1 X225.687 Y108.902 E0.00179
G1 X225.685 Y109.835 E0.01081
M204 S1000
G1 X225.171 Y110.050 F10800.000
M204 S500
G1 F1200.000
G1 X225.115 Y110.068 E0.00068
G1 X208.204 Y108.601 E0.19657
G1 X208.131 Y108.517 E0.00130
